; generated by Slic3r Prusa Edition 1.41.3+linux64 on 2019-10-12 at 20:52:50

; 

; external perimeters extrusion width = 0.45mm
; perimeters extrusion width = 0.45mm
; infill extrusion width = 0.45mm
; solid infill extrusion width = 0.45mm
; top infill extrusion width = 0.40mm
; support material extrusion width = 0.35mm
; first layer extrusion width = 0.42mm

M73 P0 R14
M201 X9000 Y9000 Z500 E10000 ; sets maximum accelerations, mm/sec^2
M203 X500 Y500 Z12 E120 ; sets maximum feedrates, mm/sec
M204 P2000 R1500 T2000 ; sets acceleration (P, T) and retract acceleration (R), mm/sec^2
M205 X10.00 Y10.00 Z0.20 E2.50 ; sets the jerk limits, mm/sec
M205 S0 T0 ; sets the minimum extruding and travel feed rate, mm/sec
M107
M115 U3.2.3 ; tell printer latest fw version
M83  ; extruder relative mode
M204 S2000 T1500 ; MK2 firmware only supports the old M204 format
M104 S215 ; set extruder temp
M140 S60 ; set bed temp
M190 S60 ; wait for bed temp
M109 S215 ; wait for extruder temp
G28 W ; home all without mesh bed level
G80 ; mesh bed leveling
G1 Y-3.0 F1000.0 ; go outside print area
G92 E0.0
G1 X60.0 E9.0  F1000.0 ; intro line
M73 P0 R13
G1 X100.0 E12.5  F1000.0 ; intro line
G92 E0.0
M900 K30 ; Filament gcode
G21 ; set units to millimeters
G90 ; use absolute coordinates
M83 ; use relative distances for extrusion
;BEFORE_LAYER_CHANGE
G92 E0.0
;0.2


G1 E-0.80000 F2100.00000
G1 Z0.600 F10800.000
;AFTER_LAYER_CHANGE
;0.2
G1 X92.899 Y87.313
G1 Z0.200
G1 E0.80000 F2100.00000
M204 S1000
G1 F1200
G1 X93.426 Y86.583 E0.02822
G1 X99.537 Y81.073 E0.25797
G1 X100.061 Y80.751 E0.01930
G1 X100.655 Y80.588 E0.01930
G1 X140.153 Y80.570 E1.23845
G1 X150.772 Y80.740 E0.33299
G1 X151.547 Y80.907 E0.02484
G1 X152.001 Y81.163 E0.01635
G1 X152.384 Y81.521 E0.01646
G1 X156.821 Y86.847 E0.21733
G1 X157.222 Y87.665 E0.02855
G1 X157.289 Y88.197 E0.01680
G1 X157.272 Y122.070 E1.06207
G1 X157.109 Y122.667 E0.01942
G1 X156.784 Y123.198 E0.01953
G1 X152.183 Y128.200 E0.21309
G1 X151.507 Y128.621 E0.02496
G1 X150.725 Y128.772 E0.02496
G1 X111.484 Y128.772 E1.23038
G1 X100.752 Y128.595 E0.33654
G1 X100.179 Y128.468 E0.01839
G1 X99.664 Y128.196 E0.01828
G1 X93.283 Y123.275 E0.25266
G1 X92.866 Y122.609 E0.02462
G1 X92.712 Y121.835 E0.02473
G1 X92.711 Y88.193 E1.05484
G1 X92.887 Y87.371 E0.02634
; PURGING FINISHED
G1 F8640
G1 X93.426 Y86.583 E-0.22055
G1 X95.161 Y85.018 E-0.53945
G1 E-0.04000 F2100.00000
G1 Z0.800 F10800.000
G1 X100.933 Y82.758
G1 Z0.200
G1 E0.80000 F2100.00000
G1 F1200
G1 X100.933 Y87.786 E0.15765
G1 X101.687 Y87.786 E0.02365
G1 X101.687 Y82.928 E0.15233
G1 X102.442 Y82.928 E0.02365
G1 X102.442 Y87.786 E0.15233
G1 X103.196 Y87.786 E0.02365
G1 X103.196 Y82.928 E0.15233
G1 X103.950 Y82.928 E0.02365
G1 X103.950 Y87.786 E0.15233
G1 X104.704 Y87.786 E0.02365
G1 X104.704 Y82.928 E0.15233
G1 X105.458 Y82.928 E0.02365
G1 X105.458 Y87.786 E0.15233
G1 X106.212 Y87.786 E0.02365
G1 X106.212 Y82.928 E0.15233
G1 X106.967 Y82.928 E0.02365
G1 X106.967 Y87.786 E0.15233
G1 X107.721 Y87.786 E0.02365
G1 X107.721 Y82.928 E0.15233
G1 X108.475 Y82.928 E0.02365
G1 X108.475 Y87.786 E0.15233
G1 X109.229 Y87.786 E0.02365
G1 X109.229 Y82.928 E0.15233
G1 X109.983 Y82.928 E0.02365
G1 X109.983 Y87.786 E0.15233
G1 X110.737 Y87.786 E0.02365
G1 X110.737 Y82.928 E0.15233
G1 X111.491 Y82.928 E0.02365
G1 X111.491 Y87.956 E0.15765
G1 F8640
G1 X111.491 Y84.665 E-0.76000
G1 E-0.04000 F2100.00000
G1 Z0.800 F10800.000
G1 X119.787 Y87.956
G1 Z0.200
G1 E0.80000 F2100.00000
G1 F1200
G1 X119.787 Y82.928 E0.15765
G1 X120.541 Y82.928 E0.02365
G1 X120.541 Y87.786 E0.15233
G1 X121.296 Y87.786 E0.02365
G1 X121.296 Y82.928 E0.15233
G1 X122.050 Y82.928 E0.02365
G1 X122.050 Y87.786 E0.15233
G1 X122.804 Y87.786 E0.02365
G1 X122.804 Y82.928 E0.15233
G1 X123.558 Y82.928 E0.02365
G1 X123.558 Y87.786 E0.15233
G1 X124.312 Y87.786 E0.02365
G1 X124.312 Y82.928 E0.15233
G1 X125.066 Y82.928 E0.02365
G1 X125.066 Y87.786 E0.15233
G1 X125.821 Y87.786 E0.02365
G1 X125.821 Y82.928 E0.15233
G1 X126.575 Y82.928 E0.02365
G1 X126.575 Y87.786 E0.15233
G1 X127.329 Y87.786 E0.02365
G1 X127.329 Y82.928 E0.15233
G1 X128.083 Y82.928 E0.02365
G1 X128.083 Y87.786 E0.15233
G1 X128.837 Y87.786 E0.02365
G1 X128.837 Y82.928 E0.15233
G1 X129.591 Y82.928 E0.02365
G1 X129.591 Y87.956 E0.15765
G1 F8640
G1 X129.591 Y84.665 E-0.76000
G1 E-0.04000 F2100.00000
G1 Z0.800 F10800.000
G1 X140.150 Y82.758
G1 Z0.200
G1 E0.80000 F2100.00000
G1 F1200
G1 X140.150 Y87.786 E0.15765
G1 X140.904 Y87.786 E0.02365
G1 X140.904 Y82.928 E0.15233
G1 X141.658 Y82.928 E0.02365
G1 X141.658 Y87.786 E0.15233
G1 X142.412 Y87.786 E0.02365
G1 X142.412 Y82.928 E0.15233
G1 X143.166 Y82.928 E0.02365
G1 X143.166 Y87.786 E0.15233
G1 X143.920 Y87.786 E0.02365
G1 X143.920 Y82.928 E0.15233
G1 X144.674 Y82.928 E0.02365
G1 X144.674 Y87.786 E0.15233
G1 X145.429 Y87.786 E0.02365
G1 X145.429 Y82.928 E0.15233
G1 X146.183 Y82.928 E0.02365
G1 X146.183 Y87.786 E0.15233
G1 X146.937 Y87.786 E0.02365
G1 X146.937 Y82.928 E0.15233
G1 X147.691 Y82.928 E0.02365
G1 X147.691 Y87.786 E0.15233
G1 X148.445 Y87.786 E0.02365
G1 X148.445 Y82.928 E0.15233
G1 X149.199 Y82.928 E0.02365
G1 X149.199 Y87.786 E0.15233
G1 X149.954 Y87.786 E0.02365
G1 X149.954 Y82.928 E0.15233
G1 X150.708 Y82.928 E0.02365
G1 X150.708 Y87.956 E0.15765
G1 F8640
G1 X150.708 Y84.665 E-0.76000
G1 E-0.04000 F2100.00000
G1 Z0.800 F10800.000
G1 X140.150 Y122.044
G1 Z0.200
G1 E0.80000 F2100.00000
G1 F1200
G1 X140.150 Y126.414 E0.13701
G1 X140.904 Y126.414 E0.02365
G1 X140.904 Y122.214 E0.13169
G1 X141.658 Y122.214 E0.02365
G1 X141.658 Y126.414 E0.13169
G1 X142.412 Y126.414 E0.02365
G1 X142.412 Y122.214 E0.13169
G1 X143.166 Y122.214 E0.02365
G1 X143.166 Y126.414 E0.13169
G1 X143.920 Y126.414 E0.02365
G1 X143.920 Y122.214 E0.13169
G1 X144.674 Y122.214 E0.02365
G1 X144.674 Y126.414 E0.13169
G1 X145.429 Y126.414 E0.02365
G1 X145.429 Y122.214 E0.13169
G1 X146.183 Y122.214 E0.02365
G1 X146.183 Y126.414 E0.13169
G1 X146.937 Y126.414 E0.02365
G1 X146.937 Y122.214 E0.13169
G1 X147.691 Y122.214 E0.02365
G1 X147.691 Y126.414 E0.13169
G1 X148.445 Y126.414 E0.02365
G1 X148.445 Y122.214 E0.13169
G1 X149.199 Y122.214 E0.02365
G1 X149.199 Y126.414 E0.13169
G1 X149.954 Y126.414 E0.02365
G1 X149.954 Y122.214 E0.13169
G1 X150.708 Y122.214 E0.02365
G1 X150.708 Y126.583 E0.13701
G1 F8640
G1 X150.708 Y123.292 E-0.76000
G1 E-0.04000 F2100.00000
G1 Z0.800 F10800.000
G1 X129.591 Y126.583
G1 Z0.200
G1 E0.80000 F2100.00000
G1 F1200
G1 X129.591 Y122.214 E0.13701
G1 X128.837 Y122.214 E0.02365
G1 X128.837 Y126.414 E0.13169
G1 X128.083 Y126.414 E0.02365
G1 X128.083 Y122.214 E0.13169
G1 X127.329 Y122.214 E0.02365
G1 X127.329 Y126.414 E0.13169
G1 X126.575 Y126.414 E0.02365
G1 X126.575 Y122.214 E0.13169
G1 X125.821 Y122.214 E0.02365
G1 X125.821 Y126.414 E0.13169
G1 X125.066 Y126.414 E0.02365
G1 X125.066 Y122.214 E0.13169
G1 X124.312 Y122.214 E0.02365
G1 X124.312 Y126.414 E0.13169
G1 X123.558 Y126.414 E0.02365
G1 X123.558 Y122.214 E0.13169
G1 X122.804 Y122.214 E0.02365
G1 X122.804 Y126.414 E0.13169
G1 X122.050 Y126.414 E0.02365
G1 X122.050 Y122.214 E0.13169
G1 X121.296 Y122.214 E0.02365
G1 X121.296 Y126.414 E0.13169
G1 X120.541 Y126.414 E0.02365
G1 X120.541 Y122.214 E0.13169
G1 X119.787 Y122.214 E0.02365
G1 X119.787 Y126.583 E0.13701
G1 F8640
G1 X119.787 Y123.292 E-0.76000
G1 E-0.04000 F2100.00000
G1 Z0.800 F10800.000
G1 X111.491 Y126.583
G1 Z0.200
G1 E0.80000 F2100.00000
G1 F1200
G1 X111.491 Y122.214 E0.13701
G1 X110.737 Y122.214 E0.02365
G1 X110.737 Y126.414 E0.13169
G1 X109.983 Y126.414 E0.02365
G1 X109.983 Y122.214 E0.13169
G1 X109.229 Y122.214 E0.02365
G1 X109.229 Y126.414 E0.13169
G1 X108.475 Y126.414 E0.02365
G1 X108.475 Y122.214 E0.13169
G1 X107.721 Y122.214 E0.02365
G1 X107.721 Y126.414 E0.13169
G1 X106.967 Y126.414 E0.02365
G1 X106.967 Y122.214 E0.13169
G1 X106.212 Y122.214 E0.02365
G1 X106.212 Y126.414 E0.13169
G1 X105.458 Y126.414 E0.02365
G1 X105.458 Y122.214 E0.13169
G1 X104.704 Y122.214 E0.02365
G1 X104.704 Y126.414 E0.13169
G1 X103.950 Y126.414 E0.02365
G1 X103.950 Y122.214 E0.13169
G1 X103.196 Y122.214 E0.02365
G1 X103.196 Y126.414 E0.13169
G1 X102.442 Y126.414 E0.02365
G1 X102.442 Y122.214 E0.13169
G1 X101.687 Y122.214 E0.02365
G1 X101.687 Y126.414 E0.13169
G1 X100.933 Y126.414 E0.02365
G1 X100.933 Y122.044 E0.13701
G1 F8640
G1 X100.933 Y125.335 E-0.76000
G1 E-0.04000 F2100.00000
G1 Z0.800 F10800.000
G1 X117.924 Y117.435
G1 Z0.200
G1 E0.80000 F2100.00000
G1 F1200
G1 X117.914 Y114.109 E0.10429
G1 X117.958 Y113.814 E0.00934
G1 X118.063 Y113.520 E0.00977
G1 X118.219 Y113.259 E0.00954
G1 X118.381 Y113.071 E0.00778
G1 X118.617 Y112.878 E0.00954
G1 X118.892 Y112.731 E0.00977
G1 X119.190 Y112.641 E0.00977
G1 X119.471 Y112.613 E0.00886
G1 X131.522 Y112.613 E0.37783
G1 X131.740 Y112.629 E0.00688
G1 X132.050 Y112.707 E0.01000
G1 X132.443 Y112.917 E0.01397
G1 X132.730 Y113.190 E0.01245
G1 X132.943 Y113.526 E0.01245
G1 X133.076 Y113.965 E0.01440
G1 X133.087 Y117.221 E0.10207
G1 X133.071 Y117.440 E0.00691
G1 X132.993 Y117.750 E0.01000
G1 X132.780 Y118.149 E0.01420
G1 X132.449 Y118.480 E0.01466
G1 X132.037 Y118.700 E0.01466
G1 X131.607 Y118.786 E0.01374
G1 X119.478 Y118.787 E0.38028
G1 X119.260 Y118.771 E0.00688
G1 X118.957 Y118.695 E0.00977
G1 X118.609 Y118.520 E0.01221
G1 X118.274 Y118.216 E0.01420
G1 X118.057 Y117.874 E0.01268
G1 X117.941 Y117.492 E0.01253
G1 X118.302 Y117.383 F10800.000
G1 F1200
G1 X118.291 Y114.136 E0.10180
G1 X118.325 Y113.906 E0.00729
G1 X118.405 Y113.682 E0.00744
G1 X118.526 Y113.481 E0.00736
G1 X118.646 Y113.342 E0.00575
G1 X118.827 Y113.193 E0.00736
G1 X119.037 Y113.081 E0.00744
G1 X119.264 Y113.012 E0.00744
G1 X119.490 Y112.990 E0.00712
G1 X131.508 Y112.990 E0.37682
G1 X131.680 Y113.003 E0.00542
G1 X131.913 Y113.061 E0.00753
G1 X132.220 Y113.225 E0.01091
G1 X132.437 Y113.431 E0.00938
G1 X132.597 Y113.684 E0.00938
G1 X132.699 Y114.022 E0.01106
G1 X132.710 Y117.207 E0.09988
G1 X132.697 Y117.380 E0.00543
G1 X132.639 Y117.613 E0.00753
G1 X132.474 Y117.922 E0.01099
G1 X132.222 Y118.174 E0.01115
G1 X131.908 Y118.341 E0.01115
G1 X131.570 Y118.409 E0.01083
G1 X119.492 Y118.410 E0.37868
G1 X119.320 Y118.397 E0.00542
G1 X119.089 Y118.340 E0.00744
G1 X118.825 Y118.206 E0.00930
G1 X118.565 Y117.971 E0.01099
G1 X118.403 Y117.716 E0.00946
G1 X118.320 Y117.440 E0.00904
G1 X117.931 Y117.234 F10800.000
G1 F8640
G1 X118.291 Y114.149 E-0.76000
G1 E-0.04000 F2100.00000
G1 Z0.800 F10800.000
G1 X95.487 Y121.213
G1 Z0.200
G1 E0.80000 F2100.00000
G1 F1200
G1 X95.487 Y88.787 E1.01669
G1 X154.513 Y88.787 E1.85071
G1 X154.513 Y121.213 E1.01669
G1 X95.547 Y121.213 E1.84883
G1 X95.110 Y121.590 F10800.000
G1 F1200
G1 X95.110 Y88.410 E1.04034
G1 X154.890 Y88.410 E1.87436
G1 X154.890 Y121.590 E1.04034
M73 P8 R12
G1 X95.170 Y121.590 E1.87248
G1 X95.249 Y121.215 F10800.000
G1 F8640
G1 X95.164 Y118.299 E-0.76000
G1 E-0.04000 F2100.00000
G1 Z0.800 F10800.000
G1 X96.366 Y121.100
G1 Z0.200
G1 E0.80000 F2100.00000
G1 F1200
G1 X95.770 Y120.503 E0.02656
G1 X95.770 Y119.968 E0.01688
G1 X96.732 Y120.930 E0.04287
G1 X97.268 Y120.930 E0.01688
G1 X95.770 Y119.432 E0.06673
G1 X95.770 Y118.896 E0.01688
G1 X97.804 Y120.930 E0.09060
G1 X98.339 Y120.930 E0.01688
G1 X95.770 Y118.361 E0.11446
G1 X95.770 Y117.825 E0.01688
G1 X98.875 Y120.930 E0.13833
G1 X99.411 Y120.930 E0.01688
G1 X95.770 Y117.289 E0.16219
G1 X95.770 Y116.753 E0.01688
G1 X99.947 Y120.930 E0.18606
G1 X100.482 Y120.930 E0.01688
G1 X95.770 Y116.218 E0.20992
G1 X95.770 Y115.682 E0.01688
G1 X101.018 Y120.930 E0.23379
G1 X101.554 Y120.930 E0.01688
G1 X95.770 Y115.146 E0.25765
G1 X95.770 Y114.610 E0.01688
G1 X102.090 Y120.930 E0.28152
G1 X102.625 Y120.930 E0.01688
G1 X95.770 Y114.075 E0.30538
G1 X95.770 Y113.539 E0.01688
G1 X103.161 Y120.930 E0.32925
G1 X103.697 Y120.930 E0.01688
G1 X95.770 Y113.003 E0.35311
G1 X95.770 Y112.468 E0.01688
G1 X104.232 Y120.930 E0.37698
G1 X104.768 Y120.930 E0.01688
G1 X95.770 Y111.932 E0.40084
G1 X95.770 Y111.396 E0.01688
G1 X105.304 Y120.930 E0.42471
G1 X105.840 Y120.930 E0.01688
G1 X95.770 Y110.860 E0.44857
G1 X95.770 Y110.325 E0.01688
G1 X106.375 Y120.930 E0.47244
G1 X106.911 Y120.930 E0.01688
G1 X95.770 Y109.789 E0.49630
G1 X95.770 Y109.253 E0.01688
G1 X107.447 Y120.930 E0.52017
G1 X107.983 Y120.930 E0.01688
G1 X95.770 Y108.717 E0.54403
G1 X95.770 Y108.182 E0.01688
G1 X108.518 Y120.930 E0.56790
G1 X109.054 Y120.930 E0.01688
G1 X95.770 Y107.646 E0.59176
G1 X95.770 Y107.110 E0.01688
G1 X109.590 Y120.930 E0.61563
G1 X110.126 Y120.930 E0.01688
G1 X95.770 Y106.574 E0.63949
G1 X95.770 Y106.039 E0.01688
G1 X110.661 Y120.930 E0.66336
G1 X111.197 Y120.930 E0.01688
G1 X95.770 Y105.503 E0.68722
G1 X95.770 Y104.967 E0.01688
G1 X111.733 Y120.930 E0.71109
G1 X112.268 Y120.930 E0.01688
G1 X95.770 Y104.432 E0.73495
G1 X95.770 Y103.896 E0.01688
G1 X112.804 Y120.930 E0.75882
G1 X113.340 Y120.930 E0.01688
G1 X95.770 Y103.360 E0.78268
G1 X95.770 Y102.824 E0.01688
G1 X113.876 Y120.930 E0.80655
G1 X114.411 Y120.930 E0.01688
G1 X95.770 Y102.289 E0.83041
G1 X95.770 Y101.753 E0.01688
G1 X114.947 Y120.930 E0.85428
G1 X115.483 Y120.930 E0.01688
G1 X95.770 Y101.217 E0.87814
G1 X95.770 Y100.681 E0.01688
G1 X116.019 Y120.930 E0.90201
G1 X116.554 Y120.930 E0.01688
G1 X95.770 Y100.146 E0.92587
G1 X95.770 Y99.610 E0.01688
G1 X117.090 Y120.930 E0.94974
G1 X117.626 Y120.930 E0.01688
G1 X95.770 Y99.074 E0.97360
G1 X95.770 Y98.538 E0.01688
G1 X118.162 Y120.930 E0.99747
G1 X118.697 Y120.930 E0.01688
G1 X95.770 Y98.003 E1.02133
G1 X95.770 Y97.467 E0.01688
G1 X119.233 Y120.930 E1.04520
G1 X119.769 Y120.930 E0.01688
G1 X95.770 Y96.931 E1.06906
G1 X95.770 Y96.396 E0.01688
G1 X120.474 Y121.100 E1.10048
G1 F8640
G1 X118.147 Y118.772 E-0.76000
G1 E-0.04000 F2100.00000
G1 Z0.800 F10800.000
G1 X118.876 Y118.966
G1 Z0.200
G1 E0.80000 F2100.00000
G1 F1200
G1 X120.840 Y120.930 E0.08748
G1 X121.376 Y120.930 E0.01688
G1 X119.516 Y119.070 E0.08287
G1 X120.051 Y119.070 E0.01687
G1 X121.912 Y120.930 E0.08287
G1 X122.447 Y120.930 E0.01688
G1 X120.587 Y119.070 E0.08287
G1 X121.123 Y119.070 E0.01687
G1 X122.983 Y120.930 E0.08288
G1 X123.519 Y120.930 E0.01688
G1 X121.658 Y119.070 E0.08288
G1 X122.194 Y119.070 E0.01687
G1 X124.055 Y120.930 E0.08288
G1 X124.590 Y120.930 E0.01688
G1 X122.730 Y119.070 E0.08288
G1 X123.265 Y119.069 E0.01687
G1 X125.126 Y120.930 E0.08288
G1 X125.662 Y120.930 E0.01688
G1 X123.801 Y119.069 E0.08289
G1 X124.337 Y119.069 E0.01687
G1 X126.198 Y120.930 E0.08289
G1 X126.733 Y120.930 E0.01688
G1 X124.872 Y119.069 E0.08289
G1 X125.408 Y119.069 E0.01687
G1 X127.269 Y120.930 E0.08289
G1 X127.805 Y120.930 E0.01688
G1 X125.944 Y119.069 E0.08290
G1 X126.479 Y119.069 E0.01687
G1 X128.340 Y120.930 E0.08290
G1 X128.876 Y120.930 E0.01688
G1 X127.015 Y119.069 E0.08290
G1 X127.551 Y119.069 E0.01687
G1 X129.412 Y120.930 E0.08290
G1 X129.948 Y120.930 E0.01688
G1 X128.087 Y119.069 E0.08291
G1 X128.622 Y119.069 E0.01687
G1 X130.483 Y120.930 E0.08291
G1 X131.019 Y120.930 E0.01688
G1 X129.158 Y119.069 E0.08291
G1 X129.694 Y119.069 E0.01687
G1 X131.555 Y120.930 E0.08291
G1 X132.091 Y120.930 E0.01688
G1 X130.229 Y119.069 E0.08292
G1 X130.765 Y119.069 E0.01687
G1 X132.626 Y120.930 E0.08292
G1 X133.162 Y120.930 E0.01688
G1 X131.301 Y119.069 E0.08292
G1 X131.635 Y119.069 E0.01053
G1 X131.803 Y119.035 E0.00540
G1 X133.698 Y120.930 E0.08441
G1 X134.233 Y120.930 E0.01688
G1 X132.224 Y118.921 E0.08951
G1 X132.573 Y118.734 E0.01247
G1 X134.769 Y120.930 E0.09782
G1 X135.305 Y120.930 E0.01688
G1 X132.852 Y118.477 E0.10927
G1 X133.010 Y118.320 E0.00702
G1 X133.086 Y118.176 E0.00513
G1 X135.841 Y120.930 E0.12270
G1 X136.376 Y120.930 E0.01688
G1 X133.267 Y117.821 E0.13851
G1 X133.351 Y117.485 E0.01089
G1 X133.359 Y117.377 E0.00342
G1 X136.912 Y120.930 E0.15827
G1 X137.448 Y120.930 E0.01688
G1 X133.369 Y116.851 E0.18171
G1 X133.367 Y116.313 E0.01693
G1 X137.984 Y120.930 E0.20566
G1 X138.519 Y120.930 E0.01688
G1 X133.365 Y115.776 E0.22961
G1 X133.363 Y115.238 E0.01693
G1 X139.055 Y120.930 E0.25356
G1 X139.591 Y120.930 E0.01688
G1 X133.361 Y114.701 E0.27750
G1 X133.359 Y114.163 E0.01693
G1 X140.296 Y121.100 E0.30901
G1 F8640
