; generated by PrusaSlicer 2.0.0+linux64 on 2019-07-23 at 23:41:21

; 

; external perimeters extrusion width = 0.45mm
; perimeters extrusion width = 0.45mm
; infill extrusion width = 0.45mm
; solid infill extrusion width = 0.45mm
; top infill extrusion width = 0.40mm
; first layer extrusion width = 0.42mm

M73 P0 R35
M201 X9000 Y9000 Z500 E10000 ; sets maximum accelerations, mm/sec^2
M203 X500 Y500 Z12 E120 ; sets maximum feedrates, mm/sec
M204 P2000 R1500 T2000 ; sets acceleration (P, T) and retract acceleration (R), mm/sec^2
M205 X10.00 Y10.00 Z0.20 E2.50 ; sets the jerk limits, mm/sec
M205 S0 T0 ; sets the minimum extruding and travel feed rate, mm/sec
M107
M115 U3.2.3 ; tell printer latest fw version
G90 ; use absolute coordinates
M83 ; extruder relative mode
M204 S2000 T1500 ; MK2 firmware only supports the old M204 format
M104 S215 ; set extruder temp
M140 S60 ; set bed temp
M190 S60 ; wait for bed temp
M109 S215 ; wait for extruder temp
G28 W ; home all without mesh bed level
G80 ; mesh bed leveling
G1 Y-3.0 F1000.0 ; go outside print area
G92 E0.0
G1 X60.0 E9.0  F1000.0 ; intro line
M73 P0 R35
G1 X100.0 E12.5 F1000.0 ; intro line
G92 E0.0
M900 K30 ; Filament gcode
G21 ; set units to millimeters
G90 ; use absolute coordinates
M83 ; use relative distances for extrusion
;BEFORE_LAYER_CHANGE
G92 E0.0
;0.2


G1 E-0.80000 F2100.00000
G1 Z0.600 F10800.000
;AFTER_LAYER_CHANGE
;0.2
G1 X76.106 Y79.814
G1 Z0.200
G1 E0.80000 F2100.00000
M204 S1000
G1 F1200
G1 X77.783 Y79.612 E0.05296
G1 X172.204 Y79.611 E2.96049
G1 X173.597 Y79.748 E0.04389
G1 X174.908 Y80.141 E0.04291
G1 X176.149 Y80.794 E0.04396
G1 X177.063 Y81.507 E0.03637
G1 X177.972 Y82.516 E0.04258
G1 X178.699 Y83.728 E0.04431
G1 X179.170 Y85.043 E0.04379
G1 X179.378 Y86.414 E0.04350
G1 X179.354 Y123.899 E1.17530
G1 X179.184 Y124.901 E0.03188
G1 X178.953 Y125.664 E0.02500
G1 X178.543 Y126.582 E0.03152
G1 X178.003 Y127.442 E0.03183
G1 X177.496 Y128.061 E0.02509
G1 X176.763 Y128.755 E0.03166
G1 X175.938 Y129.340 E0.03169
G1 X175.256 Y129.707 E0.02429
G1 X173.894 Y130.186 E0.04526
G1 X172.217 Y130.388 E0.05296
G1 X77.483 Y130.381 E2.97032
G1 X76.446 Y130.260 E0.03272
G1 X75.667 Y130.064 E0.02521
G1 X74.722 Y129.696 E0.03179
G1 X73.809 Y129.179 E0.03292
G1 X72.977 Y128.530 E0.03306
G1 X72.275 Y127.799 E0.03178
G1 X71.801 Y127.160 E0.02495
G1 X71.297 Y126.263 E0.03226
G1 X70.816 Y124.900 E0.04533
G1 X70.612 Y123.243 E0.05233
G1 X70.642 Y86.145 E1.16320
G1 X70.759 Y85.353 E0.02509
G1 X71.032 Y84.377 E0.03178
G1 X71.435 Y83.460 E0.03140
G1 X71.850 Y82.766 E0.02535
G1 X72.474 Y81.972 E0.03169
G1 X73.207 Y81.271 E0.03178
G1 X73.850 Y80.795 E0.02509
G1 X74.744 Y80.293 E0.03215
G1 X76.049 Y79.834 E0.04338
G1 F8640
G1 X77.783 Y79.612 E-0.40357
G1 X79.327 Y79.612 E-0.35643
G1 E-0.04000 F2100.00000
G1 Z0.800 F10800.000
G1 X77.184 Y122.622
G1 Z0.200
G1 E0.80000 F2100.00000
G1 F1200
G1 X77.503 Y122.704 E0.01035
G1 X77.745 Y122.827 E0.00850
G1 X77.952 Y122.987 E0.00821
G1 X78.124 Y123.183 E0.00820
G1 X78.257 Y123.408 E0.00820
G1 X78.346 Y123.655 E0.00821
G1 X78.387 Y123.913 E0.00821
G1 X78.378 Y124.184 E0.00849
G1 X78.296 Y124.503 E0.01035
G1 X78.173 Y124.745 E0.00849
G1 X78.013 Y124.952 E0.00821
G1 X77.817 Y125.124 E0.00819
G1 X77.592 Y125.257 E0.00820
G1 X77.346 Y125.346 E0.00821
G1 X77.087 Y125.387 E0.00820
G1 X76.816 Y125.378 E0.00849
G1 X76.497 Y125.296 E0.01035
G1 X76.255 Y125.173 E0.00850
G1 X76.048 Y125.013 E0.00821
G1 X75.876 Y124.817 E0.00820
G1 X75.743 Y124.592 E0.00820
G1 X75.654 Y124.345 E0.00821
G1 X75.613 Y124.087 E0.00821
G1 X75.622 Y123.816 E0.00849
G1 X75.704 Y123.497 E0.01035
G1 X75.827 Y123.255 E0.00849
G1 X75.987 Y123.048 E0.00821
G1 X76.183 Y122.876 E0.00819
G1 X76.408 Y122.743 E0.00820
G1 X76.654 Y122.654 E0.00821
G1 X76.913 Y122.613 E0.00820
G1 X77.124 Y122.620 E0.00661
G1 X76.937 Y122.991 F10800.000
G1 F1200
G1 X77.130 Y122.997 E0.00607
G1 X77.369 Y123.059 E0.00774
G1 X77.542 Y123.146 E0.00607
G1 X77.692 Y123.263 E0.00597
G1 X77.818 Y123.406 E0.00597
G1 X77.915 Y123.570 E0.00596
G1 X77.979 Y123.749 E0.00597
G1 X78.009 Y123.937 E0.00597
G1 X78.003 Y124.130 E0.00607
G1 X77.941 Y124.369 E0.00774
G1 X77.854 Y124.542 E0.00607
G1 X77.737 Y124.692 E0.00597
G1 X77.594 Y124.818 E0.00596
G1 X77.430 Y124.915 E0.00597
G1 X77.251 Y124.979 E0.00597
G1 X77.063 Y125.009 E0.00597
G1 X76.870 Y125.003 E0.00607
G1 X76.631 Y124.941 E0.00774
G1 X76.458 Y124.854 E0.00607
G1 X76.308 Y124.737 E0.00597
G1 X76.182 Y124.594 E0.00597
G1 X76.085 Y124.430 E0.00596
G1 X76.021 Y124.251 E0.00597
G1 X75.991 Y124.063 E0.00597
G1 X75.997 Y123.870 E0.00607
G1 X76.059 Y123.631 E0.00774
G1 X76.146 Y123.458 E0.00607
G1 X76.263 Y123.308 E0.00597
G1 X76.406 Y123.182 E0.00596
G1 X76.570 Y123.085 E0.00597
G1 X76.749 Y123.021 E0.00597
G1 X76.877 Y123.000 E0.00409
G1 X77.023 Y122.818 F10800.000
G1 F8640
G1 X77.130 Y122.997 E-0.05837
G1 X77.369 Y123.059 E-0.05700
G1 X77.542 Y123.146 E-0.04472
G1 X77.692 Y123.263 E-0.04397
G1 X77.818 Y123.406 E-0.04394
G1 X77.915 Y123.570 E-0.04391
G1 X77.979 Y123.749 E-0.04393
G1 X78.009 Y123.937 E-0.04398
G1 X78.003 Y124.130 E-0.04468
G1 X77.941 Y124.369 E-0.05701
G1 X77.854 Y124.542 E-0.04469
G1 X77.737 Y124.692 E-0.04395
G1 X77.594 Y124.818 E-0.04390
G1 X77.430 Y124.915 E-0.04393
G1 X77.251 Y124.979 E-0.04394
G1 X77.063 Y125.009 E-0.04395
G1 X77.002 Y125.007 E-0.01414
G1 E-0.04000 F2100.00000
G1 Z0.800 F10800.000
G1 X77.087 Y87.387
G1 Z0.200
G1 E0.80000 F2100.00000
G1 F1200
G1 X76.826 Y87.379 E0.00820
G1 X76.562 Y87.320 E0.00849
G1 X76.263 Y87.179 E0.01035
G1 X76.050 Y87.014 E0.00846
G1 X75.876 Y86.817 E0.00823
G1 X75.743 Y86.592 E0.00820
G1 X75.654 Y86.345 E0.00821
G1 X75.613 Y86.087 E0.00821
G1 X75.622 Y85.816 E0.00849
G1 X75.704 Y85.497 E0.01035
G1 X75.827 Y85.255 E0.00849
G1 X75.987 Y85.048 E0.00821
G1 X76.183 Y84.876 E0.00819
G1 X76.408 Y84.743 E0.00820
G1 X76.654 Y84.654 E0.00821
G1 X76.913 Y84.613 E0.00820
G1 X77.184 Y84.622 E0.00849
G1 X77.503 Y84.704 E0.01035
G1 X77.745 Y84.827 E0.00850
G1 X77.952 Y84.987 E0.00821
G1 X78.124 Y85.183 E0.00820
G1 X78.257 Y85.408 E0.00820
G1 X78.346 Y85.655 E0.00821
G1 X78.387 Y85.913 E0.00821
G1 X78.378 Y86.184 E0.00849
G1 X78.296 Y86.503 E0.01035
G1 X78.173 Y86.745 E0.00849
G1 X78.013 Y86.951 E0.00821
G1 X77.817 Y87.124 E0.00819
G1 X77.592 Y87.257 E0.00820
G1 X77.346 Y87.346 E0.00821
G1 X77.146 Y87.378 E0.00632
G1 X77.063 Y87.009 F10800.000
G1 F1200
G1 X76.873 Y87.003 E0.00597
G1 X76.684 Y86.961 E0.00607
G1 X76.461 Y86.856 E0.00774
G1 X76.309 Y86.738 E0.00604
G1 X76.182 Y86.594 E0.00600
G1 X76.085 Y86.430 E0.00597
G1 X76.021 Y86.251 E0.00597
G1 X75.991 Y86.063 E0.00597
G1 X75.997 Y85.870 E0.00607
G1 X76.059 Y85.631 E0.00774
G1 X76.146 Y85.458 E0.00607
G1 X76.263 Y85.308 E0.00597
G1 X76.406 Y85.182 E0.00596
G1 X76.570 Y85.085 E0.00597
G1 X76.749 Y85.021 E0.00597
G1 X76.937 Y84.991 E0.00597
G1 X77.130 Y84.997 E0.00607
G1 X77.369 Y85.059 E0.00774
G1 X77.542 Y85.146 E0.00607
G1 X77.692 Y85.263 E0.00597
G1 X77.818 Y85.406 E0.00597
G1 X77.915 Y85.570 E0.00596
G1 X77.979 Y85.749 E0.00597
G1 X78.009 Y85.937 E0.00597
G1 X78.003 Y86.130 E0.00607
G1 X77.941 Y86.369 E0.00774
G1 X77.854 Y86.542 E0.00607
G1 X77.737 Y86.692 E0.00597
G1 X77.594 Y86.818 E0.00596
G1 X77.430 Y86.915 E0.00597
G1 X77.251 Y86.979 E0.00597
G1 X77.123 Y87.000 E0.00409
G1 X76.979 Y87.179 F10800.000
G1 F8640
G1 X76.873 Y87.003 E-0.05760
G1 X76.684 Y86.961 E-0.04469
G1 X76.461 Y86.856 E-0.05701
G1 X76.309 Y86.738 E-0.04448
G1 X76.182 Y86.594 E-0.04419
G1 X76.085 Y86.430 E-0.04393
G1 X76.021 Y86.251 E-0.04393
G1 X75.991 Y86.063 E-0.04398
G1 X75.997 Y85.870 E-0.04469
G1 X76.059 Y85.631 E-0.05701
G1 X76.146 Y85.458 E-0.04469
G1 X76.263 Y85.308 E-0.04395
G1 X76.406 Y85.182 E-0.04390
G1 X76.570 Y85.085 E-0.04393
G1 X76.749 Y85.021 E-0.04394
G1 X76.937 Y84.991 E-0.04395
G1 X76.998 Y84.993 E-0.01414
G1 E-0.04000 F2100.00000
G1 Z0.800 F10800.000
G1 X79.413 Y82.389
G1 Z0.200
G1 E0.80000 F2100.00000
G1 F1200
G1 X79.413 Y127.613 E1.41798
G1 X77.822 Y127.613 E0.04989
G1 X77.145 Y127.563 E0.02126
G1 X76.735 Y127.481 E0.01312
G1 X76.105 Y127.273 E0.02080
G1 X75.720 Y127.091 E0.01335
G1 X75.349 Y126.869 E0.01358
G1 X75.007 Y126.615 E0.01335
G1 X74.531 Y126.162 E0.02058
G1 X74.128 Y125.645 E0.02057
G1 X73.909 Y125.280 E0.01335
G1 X73.727 Y124.895 E0.01335
G1 X73.519 Y124.265 E0.02080
G1 X73.436 Y123.847 E0.01335
G1 X73.393 Y123.416 E0.01358
G1 X73.387 Y86.814 E1.14763
G1 X73.409 Y86.368 E0.01403
G1 X73.473 Y85.939 E0.01358
G1 X73.578 Y85.519 E0.01357
G1 X73.724 Y85.112 E0.01358
G1 X73.909 Y84.720 E0.01358
G1 X74.131 Y84.349 E0.01358
G1 X74.385 Y84.007 E0.01335
G1 X74.838 Y83.531 E0.02058
G1 X75.355 Y83.128 E0.02057
G1 X75.720 Y82.909 E0.01335
G1 X76.105 Y82.727 E0.01335
G1 X76.735 Y82.519 E0.02080
G1 X77.153 Y82.436 E0.01335
G1 X77.584 Y82.393 E0.01360
G1 X79.353 Y82.389 E0.05546
G1 X79.790 Y82.011 F10800.000
G1 F1200
G1 X79.790 Y127.990 E1.44165
G1 X77.808 Y127.990 E0.06215
G1 X77.095 Y127.937 E0.02242
G1 X76.639 Y127.847 E0.01457
G1 X75.965 Y127.624 E0.02226
G1 X75.542 Y127.424 E0.01466
G1 X75.139 Y127.182 E0.01474
G1 X74.763 Y126.904 E0.01465
G1 X74.251 Y126.416 E0.02218
G1 X73.816 Y125.859 E0.02217
G1 X73.576 Y125.458 E0.01466
G1 X73.376 Y125.035 E0.01466
G1 X73.153 Y124.361 E0.02226
G1 X73.062 Y123.903 E0.01465
G1 X73.016 Y123.435 E0.01474
G1 X73.010 Y86.805 E1.14850
G1 X73.033 Y86.331 E0.01490
G1 X73.102 Y85.866 E0.01474
G1 X73.217 Y85.410 E0.01474
G1 X73.375 Y84.967 E0.01474
G1 X73.576 Y84.542 E0.01474
G1 X73.818 Y84.139 E0.01474
G1 X74.096 Y83.763 E0.01465
G1 X74.584 Y83.251 E0.02218
G1 X75.141 Y82.816 E0.02217
G1 X75.542 Y82.576 E0.01466
G1 X75.965 Y82.376 E0.01466
G1 X76.639 Y82.153 E0.02226
G1 X77.097 Y82.062 E0.01466
G1 X77.565 Y82.016 E0.01475
G1 X79.730 Y82.011 E0.06787
G1 X79.592 Y82.358 F10800.000
G1 F8640
G1 X79.734 Y85.302 E-0.76000
G1 E-0.04000 F2100.00000
G1 Z0.800 F10800.000
G1 X79.300 Y83.270
G1 Z0.200
G1 E0.80000 F2100.00000
G1 F1200
G1 X78.703 Y82.673 E0.02665
G1 X78.167 Y82.674 E0.01692
G1 X79.130 Y83.637 E0.04299
G1 X79.130 Y84.174 E0.01696
G1 X77.632 Y82.676 E0.06691
G1 X77.144 Y82.725 E0.01547
G1 X79.130 Y84.711 E0.08867
G1 X79.130 Y85.248 E0.01696
G1 X76.707 Y82.826 E0.10819
G1 X76.304 Y82.959 E0.01342
G1 X79.130 Y85.785 E0.12621
G1 X79.130 Y86.322 E0.01696
G1 X78.664 Y85.856 E0.02080
G1 X78.660 Y86.224 E0.01160
G1 X78.626 Y86.355 E0.00429
G1 X79.130 Y86.859 E0.02250
G1 X79.130 Y87.396 E0.01696
G1 X78.487 Y86.753 E0.02874
G1 X78.413 Y86.897 E0.00511
G1 X78.274 Y87.077 E0.00719
G1 X79.130 Y87.933 E0.03825
G1 X79.130 Y88.470 E0.01696
G1 X78.000 Y87.340 E0.05048
G1 X77.657 Y87.534 E0.01244
G1 X79.130 Y89.007 E0.06578
G1 X79.130 Y89.545 E0.01696
G1 X77.235 Y87.650 E0.08461
G1 X77.105 Y87.670 E0.00417
G1 X76.790 Y87.661 E0.00995
G1 X76.686 Y87.637 E0.00338
G1 X79.130 Y90.082 E0.10915
G1 X79.130 Y90.619 E0.01696
G1 X73.918 Y85.407 E0.23273
G1 X74.076 Y85.028 E0.01297
G1 X75.363 Y86.314 E0.05745
G1 X75.330 Y86.105 E0.00669
G1 X75.344 Y85.759 E0.01093
G1 X74.264 Y84.678 E0.04826
G1 X74.478 Y84.356 E0.01223
G1 X75.465 Y85.342 E0.04406
G1 X75.587 Y85.103 E0.00848
G1 X75.664 Y85.004 E0.00396
G1 X74.722 Y84.063 E0.04204
G1 X74.984 Y83.787 E0.01199
G1 X75.924 Y84.727 E0.04197
G1 X76.016 Y84.646 E0.00388
G1 X76.245 Y84.511 E0.00838
G1 X75.279 Y83.545 E0.04311
G1 X75.588 Y83.317 E0.01213
G1 X76.641 Y84.370 E0.04699
G1 X76.895 Y84.330 E0.00813
G1 X77.145 Y84.337 E0.00790
G1 X75.803 Y82.995 E0.05995
G1 F8640
G1 X77.145 Y84.337 E-0.43841
G1 X76.895 Y84.330 E-0.05780
G1 X76.641 Y84.370 E-0.05949
G1 X76.015 Y83.744 E-0.20430
G1 E-0.04000 F2100.00000
G1 Z0.800 F10800.000
G1 X79.300 Y91.325
G1 Z0.200
G1 E0.80000 F2100.00000
G1 F1200
G1 X73.794 Y85.820 E0.24586
G1 X73.709 Y86.272 E0.01453
G1 X79.130 Y91.693 E0.24207
G1 X79.130 Y92.230 E0.01696
G1 X73.672 Y86.772 E0.24372
G1 X73.670 Y87.307 E0.01688
G1 X79.130 Y92.767 E0.24382
G1 X79.130 Y93.304 E0.01696
G1 X73.670 Y87.844 E0.24382
G1 X73.670 Y88.381 E0.01696
G1 X79.130 Y93.841 E0.24382
G1 X79.130 Y94.378 E0.01696
G1 X73.670 Y88.918 E0.24381
G1 X73.670 Y89.455 E0.01696
G1 X79.130 Y94.915 E0.24381
G1 X79.130 Y95.452 E0.01696
G1 X73.670 Y89.992 E0.24380
G1 X73.670 Y90.529 E0.01696
G1 X79.130 Y95.989 E0.24380
G1 X79.130 Y96.526 E0.01696
G1 X73.671 Y91.066 E0.24380
G1 X73.671 Y91.604 E0.01696
G1 X79.130 Y97.063 E0.24379
G1 X79.130 Y97.600 E0.01696
G1 X73.671 Y92.141 E0.24379
G1 X73.671 Y92.678 E0.01696
G1 X79.130 Y98.137 E0.24378
G1 X79.130 Y98.674 E0.01696
G1 X73.671 Y93.215 E0.24378
G1 X73.671 Y93.752 E0.01696
G1 X79.130 Y99.211 E0.24378
G1 X79.130 Y99.748 E0.01696
G1 X73.671 Y94.289 E0.24377
G1 X73.671 Y94.826 E0.01696
G1 X79.130 Y100.285 E0.24377
G1 X79.130 Y100.822 E0.01696
G1 X73.671 Y95.363 E0.24376
G1 X73.671 Y95.901 E0.01696
G1 X79.130 Y101.359 E0.24376
G1 X79.130 Y101.896 E0.01696
G1 X73.671 Y96.438 E0.24376
G1 X73.672 Y96.975 E0.01696
G1 X79.130 Y102.433 E0.24375
G1 X79.130 Y102.970 E0.01696
G1 X73.672 Y97.512 E0.24375
G1 X73.672 Y98.049 E0.01696
G1 X79.130 Y103.507 E0.24374
G1 X79.130 Y104.045 E0.01696
G1 X73.672 Y98.586 E0.24374
G1 X73.672 Y99.123 E0.01696
G1 X79.130 Y104.582 E0.24374
G1 X79.130 Y105.119 E0.01696
G1 X73.672 Y99.660 E0.24373
G1 X73.672 Y100.198 E0.01696
G1 X79.130 Y105.656 E0.24373
G1 X79.130 Y106.193 E0.01696
G1 X73.672 Y100.735 E0.24373
G1 X73.672 Y101.272 E0.01696
G1 X79.130 Y106.730 E0.24372
G1 X79.130 Y107.267 E0.01696
G1 X73.672 Y101.809 E0.24372
G1 X73.672 Y102.346 E0.01696
G1 X79.130 Y107.804 E0.24371
G1 X79.130 Y108.341 E0.01696
G1 X73.672 Y102.883 E0.24371
G1 X73.673 Y103.420 E0.01696
G1 X79.130 Y108.878 E0.24371
G1 X79.130 Y109.415 E0.01696
G1 X73.673 Y103.957 E0.24370
G1 X73.673 Y104.495 E0.01696
G1 X79.130 Y109.952 E0.24370
G1 X79.130 Y110.489 E0.01696
G1 X73.673 Y105.032 E0.24369
G1 X73.673 Y105.569 E0.01696
G1 X79.130 Y111.026 E0.24369
G1 X79.130 Y111.563 E0.01696
G1 X73.673 Y106.106 E0.24369
G1 X73.673 Y106.643 E0.01696
G1 X79.130 Y112.100 E0.24368
G1 X79.130 Y112.637 E0.01696
G1 X73.673 Y107.180 E0.24368
G1 X73.673 Y107.717 E0.01696
G1 X79.130 Y113.174 E0.24367
G1 X79.130 Y113.711 E0.01696
G1 X73.673 Y108.254 E0.24367
G1 X73.673 Y108.792 E0.01696
G1 X79.130 Y114.248 E0.24367
G1 X79.130 Y114.785 E0.01696
G1 X73.674 Y109.329 E0.24366
G1 X73.674 Y109.866 E0.01696
G1 X79.130 Y115.322 E0.24366
G1 X79.130 Y115.859 E0.01696
G1 X73.674 Y110.403 E0.24365
G1 X73.674 Y110.940 E0.01696
G1 X79.130 Y116.396 E0.24365
G1 X79.130 Y116.933 E0.01696
G1 X73.674 Y111.477 E0.24365
G1 X73.674 Y112.014 E0.01696
G1 X79.130 Y117.470 E0.24364
G1 X79.130 Y118.007 E0.01696
G1 X73.674 Y112.551 E0.24364
G1 X73.674 Y113.089 E0.01696
G1 X79.130 Y118.544 E0.24363
G1 X79.130 Y119.082 E0.01696
G1 X73.674 Y113.626 E0.24363
G1 X73.674 Y114.163 E0.01696
G1 X79.130 Y119.619 E0.24363
G1 X79.130 Y120.156 E0.01696
G1 X73.674 Y114.700 E0.24362
G1 X73.675 Y115.237 E0.01696
G1 X79.130 Y120.693 E0.24362
G1 X79.130 Y121.230 E0.01696
G1 X73.675 Y115.774 E0.24362
G1 X73.675 Y116.311 E0.01696
G1 X79.130 Y121.767 E0.24361
M73 P3 R34
G1 X79.130 Y122.304 E0.01696
G1 X73.675 Y116.848 E0.24361
G1 X73.675 Y117.386 E0.01696
G1 X79.130 Y122.841 E0.24360
G1 X79.130 Y123.378 E0.01696
G1 X73.675 Y117.923 E0.24360
G1 X73.675 Y118.460 E0.01696
G1 X79.130 Y123.915 E0.24360
G1 X79.130 Y124.452 E0.01696
G1 X78.667 Y123.989 E0.02066
G1 X78.660 Y124.224 E0.00741
G1 X78.600 Y124.459 E0.00765
G1 X79.130 Y124.989 E0.02368
G1 X79.130 Y125.526 E0.01696
G1 X78.443 Y124.839 E0.03069
G1 X78.216 Y125.149 E0.01214
G1 X79.130 Y126.063 E0.04081
G1 X79.130 Y126.600 E0.01696
G1 X77.921 Y125.391 E0.05399
G1 X77.713 Y125.514 E0.00765
G1 X77.562 Y125.569 E0.00507
G1 X79.130 Y127.137 E0.07003
G1 X79.130 Y127.330 E0.00610
G1 X78.786 Y127.330 E0.01086
G1 X77.124 Y125.667 E0.07425
G1 X76.776 Y125.660 E0.01096
G1 X76.511 Y125.592 E0.00865
G1 X78.249 Y127.330 E0.07762
G1 X77.703 Y127.321 E0.01726
G1 X73.676 Y123.294 E0.17981
G1 X73.676 Y122.757 E0.01696
G1 X75.403 Y124.484 E0.07714
G1 X75.330 Y124.105 E0.01221
G1 X75.337 Y123.881 E0.00708
G1 X73.676 Y122.220 E0.07417
G1 X73.676 Y121.683 E0.01696
G1 X75.428 Y123.435 E0.07824
G1 X75.607 Y123.077 E0.01263
