; generated by PrusaSlicer 2.0.0+linux64 on 2019-07-26 at 18:29:04

; 

; external perimeters extrusion width = 0.45mm
; perimeters extrusion width = 0.45mm
; infill extrusion width = 0.45mm
; solid infill extrusion width = 0.45mm
; top infill extrusion width = 0.40mm
; first layer extrusion width = 0.42mm

M73 P0 R106
M201 X9000 Y9000 Z500 E10000 ; sets maximum accelerations, mm/sec^2
M203 X500 Y500 Z12 E120 ; sets maximum feedrates, mm/sec
M204 P2000 R1500 T2000 ; sets acceleration (P, T) and retract acceleration (R), mm/sec^2
M205 X10.00 Y10.00 Z0.20 E2.50 ; sets the jerk limits, mm/sec
M205 S0 T0 ; sets the minimum extruding and travel feed rate, mm/sec
M107
M115 U3.2.3 ; tell printer latest fw version
G90 ; use absolute coordinates
M83 ; extruder relative mode
M204 S2000 T1500 ; MK2 firmware only supports the old M204 format
M104 S215 ; set extruder temp
M140 S60 ; set bed temp
M190 S60 ; wait for bed temp
M109 S215 ; wait for extruder temp
G28 W ; home all without mesh bed level
G80 ; mesh bed leveling
G1 Y-3.0 F1000.0 ; go outside print area
G92 E0.0
G1 X60.0 E9.0  F1000.0 ; intro line
M73 P0 R106
G1 X100.0 E12.5 F1000.0 ; intro line
G92 E0.0
M900 K30 ; Filament gcode
G21 ; set units to millimeters
G90 ; use absolute coordinates
M83 ; use relative distances for extrusion
;BEFORE_LAYER_CHANGE
G92 E0.0
;0.2


G1 E-0.80000 F2100.00000
G1 Z0.600 F10800.000
;AFTER_LAYER_CHANGE
;0.2
G1 X48.576 Y53.100
G1 Z0.200
G1 E0.80000 F2100.00000
M204 S1000
G1 F1200
G1 X49.243 Y52.401 E0.03030
G1 X49.846 Y51.906 E0.02445
G1 X50.935 Y51.247 E0.03992
G1 X51.962 Y50.837 E0.03466
G1 X53.023 Y50.593 E0.03414
G1 X54.071 Y50.512 E0.03295
G1 X195.904 Y50.511 E4.44708
G1 X197.300 Y50.649 E0.04400
G1 X198.637 Y51.053 E0.04377
G1 X199.885 Y51.717 E0.04435
G1 X200.948 Y52.582 E0.04296
G1 X201.847 Y53.662 E0.04404
G1 X202.419 Y54.671 E0.03637
G1 X202.876 Y55.965 E0.04302
G1 X203.081 Y57.366 E0.04442
G1 X203.082 Y152.610 E2.98629
G1 X202.861 Y154.093 E0.04702
G1 X202.241 Y155.686 E0.05359
G1 X201.852 Y156.331 E0.02361
G1 X201.259 Y157.090 E0.03020
G1 X200.164 Y158.087 E0.04644
G1 X199.246 Y158.662 E0.03397
G1 X198.038 Y159.163 E0.04100
G1 X196.974 Y159.408 E0.03425
G1 X195.921 Y159.488 E0.03311
G1 X54.078 Y159.488 E4.44738
G1 X53.095 Y159.418 E0.03090
G1 X52.356 Y159.274 E0.02360
G1 X51.644 Y159.055 E0.02335
G1 X50.753 Y158.661 E0.03056
G1 X49.500 Y157.824 E0.04724
G1 X48.801 Y157.157 E0.03031
G1 X48.306 Y156.554 E0.02445
G1 X47.736 Y155.643 E0.03369
G1 X47.237 Y154.438 E0.04088
G1 X46.991 Y153.369 E0.03441
G1 X46.912 Y152.332 E0.03261
G1 X46.912 Y57.667 E2.96814
G1 X46.982 Y56.695 E0.03056
G1 X47.126 Y55.956 E0.02360
G1 X47.349 Y55.232 E0.02374
G1 X47.740 Y54.349 E0.03029
G1 X48.543 Y53.150 E0.04525
G1 F8640
G1 X49.243 Y52.401 E-0.23683
G1 X49.846 Y51.906 E-0.18008
G1 X50.935 Y51.247 E-0.29396
G1 X51.133 Y51.168 E-0.04912
G1 E-0.04000 F2100.00000
G1 Z0.800 F10800.000
G1 X195.211 Y152.226
G1 Z0.200
G1 E0.80000 F2100.00000
G1 F1200
G1 X195.434 Y151.918 E0.01192
G1 X195.666 Y151.714 E0.00967
G1 X195.923 Y151.562 E0.00938
G1 X196.205 Y151.460 E0.00940
G1 X196.512 Y151.412 E0.00975
G1 X196.889 Y151.436 E0.01184
G1 X197.185 Y151.522 E0.00967
G1 X197.452 Y151.658 E0.00938
G1 X197.688 Y151.841 E0.00938
G1 X197.886 Y152.066 E0.00938
G1 X198.038 Y152.323 E0.00938
G1 X198.140 Y152.605 E0.00938
G1 X198.187 Y152.900 E0.00938
G1 X198.177 Y153.199 E0.00938
G1 X198.112 Y153.491 E0.00938
G1 X197.989 Y153.774 E0.00968
G1 X197.766 Y154.082 E0.01192
G1 X197.534 Y154.286 E0.00967
G1 X197.277 Y154.438 E0.00938
G1 X196.995 Y154.540 E0.00938
G1 X196.700 Y154.587 E0.00938
G1 X196.401 Y154.577 E0.00938
G1 X196.109 Y154.512 E0.00938
G1 X195.826 Y154.389 E0.00968
G1 X195.518 Y154.166 E0.01192
G1 X195.314 Y153.934 E0.00967
G1 X195.162 Y153.677 E0.00938
G1 X195.060 Y153.395 E0.00938
G1 X195.013 Y153.100 E0.00938
G1 X195.023 Y152.801 E0.00938
G1 X195.088 Y152.509 E0.00938
G1 X195.187 Y152.281 E0.00780
G1 X195.533 Y152.430 F10800.000
G1 F1200
G1 X195.715 Y152.173 E0.00987
G1 X195.888 Y152.020 E0.00725
G1 X196.084 Y151.904 E0.00715
G1 X196.299 Y151.827 E0.00715
G1 X196.530 Y151.791 E0.00732
G1 X196.824 Y151.810 E0.00924
G1 X197.046 Y151.874 E0.00725
G1 X197.249 Y151.978 E0.00715
G1 X197.429 Y152.117 E0.00714
G1 X197.580 Y152.288 E0.00715
G1 X197.696 Y152.484 E0.00715
G1 X197.773 Y152.699 E0.00715
G1 X197.809 Y152.924 E0.00715
G1 X197.801 Y153.152 E0.00714
G1 X197.752 Y153.374 E0.00715
G1 X197.660 Y153.586 E0.00725
G1 X197.485 Y153.827 E0.00931
G1 X197.312 Y153.980 E0.00725
G1 X197.116 Y154.096 E0.00715
G1 X196.901 Y154.173 E0.00715
G1 X196.676 Y154.209 E0.00715
G1 X196.448 Y154.201 E0.00714
G1 X196.226 Y154.152 E0.00715
G1 X196.014 Y154.060 E0.00725
G1 X195.773 Y153.885 E0.00931
G1 X195.620 Y153.712 E0.00725
G1 X195.504 Y153.516 E0.00715
G1 X195.427 Y153.301 E0.00715
G1 X195.391 Y153.076 E0.00715
G1 X195.399 Y152.848 E0.00714
G1 X195.448 Y152.626 E0.00715
G1 X195.509 Y152.485 E0.00480
G1 X195.373 Y152.159 F10800.000
G1 F8640
G1 X195.715 Y152.173 E-0.08631
G1 X195.888 Y152.020 E-0.05340
G1 X196.084 Y151.904 E-0.05262
G1 X196.299 Y151.827 E-0.05267
G1 X196.530 Y151.791 E-0.05393
G1 X196.824 Y151.810 E-0.06803
G1 X197.046 Y151.874 E-0.05338
G1 X197.249 Y151.978 E-0.05263
G1 X197.429 Y152.117 E-0.05261
G1 X197.580 Y152.288 E-0.05264
G1 X197.696 Y152.484 E-0.05262
G1 X197.773 Y152.699 E-0.05264
G1 X197.809 Y152.924 E-0.05263
G1 X197.805 Y153.027 E-0.02389
G1 E-0.04000 F2100.00000
G1 Z0.800 F10800.000
G1 X160.187 Y152.900
G1 Z0.200
G1 E0.80000 F2100.00000
G1 F1200
G1 X160.177 Y153.199 E0.00938
G1 X160.112 Y153.491 E0.00938
G1 X159.989 Y153.774 E0.00968
G1 X159.766 Y154.082 E0.01192
G1 X159.534 Y154.286 E0.00967
G1 X159.277 Y154.438 E0.00938
G1 X158.995 Y154.540 E0.00938
G1 X158.700 Y154.587 E0.00938
G1 X158.401 Y154.577 E0.00938
G1 X158.109 Y154.512 E0.00938
G1 X157.826 Y154.389 E0.00968
G1 X157.518 Y154.166 E0.01192
G1 X157.314 Y153.934 E0.00967
G1 X157.162 Y153.677 E0.00938
G1 X157.060 Y153.395 E0.00938
G1 X157.013 Y153.100 E0.00938
G1 X157.023 Y152.801 E0.00938
G1 X157.088 Y152.509 E0.00938
G1 X157.211 Y152.226 E0.00968
G1 X157.434 Y151.918 E0.01192
G1 X157.666 Y151.714 E0.00967
G1 X157.923 Y151.562 E0.00938
G1 X158.205 Y151.460 E0.00940
G1 X158.512 Y151.412 E0.00975
G1 X158.889 Y151.436 E0.01184
G1 X159.185 Y151.522 E0.00967
G1 X159.452 Y151.658 E0.00938
G1 X159.688 Y151.841 E0.00938
G1 X159.886 Y152.066 E0.00938
G1 X160.038 Y152.323 E0.00938
G1 X160.140 Y152.605 E0.00938
G1 X160.177 Y152.841 E0.00750
G1 X159.805 Y152.900 F10800.000
G1 F1200
G1 X159.801 Y153.152 E0.00790
G1 X159.752 Y153.374 E0.00715
G1 X159.660 Y153.586 E0.00725
G1 X159.485 Y153.827 E0.00931
G1 X159.312 Y153.980 E0.00725
G1 X159.116 Y154.096 E0.00715
G1 X158.901 Y154.173 E0.00715
G1 X158.676 Y154.209 E0.00715
G1 X158.448 Y154.201 E0.00714
G1 X158.226 Y154.152 E0.00715
G1 X158.013 Y154.060 E0.00725
G1 X157.773 Y153.885 E0.00931
G1 X157.620 Y153.712 E0.00725
G1 X157.504 Y153.516 E0.00715
G1 X157.427 Y153.301 E0.00715
G1 X157.391 Y153.076 E0.00715
G1 X157.399 Y152.848 E0.00714
G1 X157.448 Y152.626 E0.00715
G1 X157.540 Y152.414 E0.00725
G1 X157.715 Y152.173 E0.00931
G1 X157.888 Y152.020 E0.00725
G1 X158.084 Y151.904 E0.00715
G1 X158.299 Y151.827 E0.00715
G1 X158.530 Y151.791 E0.00732
G1 X158.824 Y151.810 E0.00924
G1 X159.046 Y151.874 E0.00725
G1 X159.249 Y151.978 E0.00715
G1 X159.429 Y152.117 E0.00714
G1 X159.580 Y152.288 E0.00715
G1 X159.696 Y152.484 E0.00715
G1 X159.773 Y152.699 E0.00715
G1 X159.795 Y152.841 E0.00450
G1 X160.032 Y153.009 F10800.000
G1 F8640
G1 X159.801 Y153.152 E-0.07185
G1 X159.752 Y153.374 E-0.05263
G1 X159.660 Y153.586 E-0.05343
G1 X159.485 Y153.827 E-0.06856
G1 X159.312 Y153.980 E-0.05340
G1 X159.116 Y154.096 E-0.05262
G1 X158.901 Y154.173 E-0.05264
G1 X158.676 Y154.209 E-0.05263
G1 X158.448 Y154.201 E-0.05261
G1 X158.226 Y154.152 E-0.05263
G1 X158.013 Y154.060 E-0.05342
G1 X157.773 Y153.885 E-0.06856
G1 X157.620 Y153.712 E-0.05340
G1 X157.573 Y153.631 E-0.02162
G1 E-0.04000 F2100.00000
G1 Z0.800 F10800.000
G1 X154.887 Y150.587
G1 Z0.200
G1 E0.80000 F2100.00000
G1 F1200
G1 X200.313 Y150.587 E1.42430
G1 X200.313 Y152.286 E0.05326
G1 X200.291 Y152.732 E0.01403
G1 X200.227 Y153.161 E0.01358
G1 X200.122 Y153.581 E0.01357
G1 X199.976 Y153.988 E0.01358
G1 X199.791 Y154.380 E0.01358
G1 X199.572 Y154.745 E0.01335
G1 X199.169 Y155.262 E0.02057
G1 X198.693 Y155.715 E0.02058
G1 X198.351 Y155.969 E0.01335
G1 X197.980 Y156.191 E0.01358
G1 X197.588 Y156.376 E0.01358
G1 X197.181 Y156.522 E0.01358
G1 X196.761 Y156.627 E0.01357
G1 X196.332 Y156.691 E0.01358
G1 X195.886 Y156.713 E0.01403
G1 X159.084 Y156.707 E1.15390
G1 X158.653 Y156.664 E0.01358
G1 X158.235 Y156.581 E0.01335
G1 X157.605 Y156.373 E0.02080
G1 X157.220 Y156.191 E0.01335
G1 X156.855 Y155.972 E0.01335
G1 X156.338 Y155.569 E0.02058
G1 X155.885 Y155.093 E0.02058
G1 X155.631 Y154.751 E0.01335
G1 X155.409 Y154.380 E0.01358
G1 X155.227 Y153.995 E0.01335
G1 X155.019 Y153.365 E0.02080
G1 X154.937 Y152.955 E0.01312
G1 X154.887 Y152.278 E0.02126
G1 X154.887 Y150.647 E0.05115
G1 X154.510 Y150.210 F10800.000
G1 F1200
G1 X200.690 Y150.210 E1.44794
G1 X200.690 Y152.295 E0.06537
G1 X200.667 Y152.769 E0.01490
G1 X200.598 Y153.234 E0.01474
G1 X200.483 Y153.690 E0.01474
G1 X200.325 Y154.133 E0.01474
G1 X200.124 Y154.558 E0.01474
G1 X199.884 Y154.959 E0.01466
G1 X199.449 Y155.516 E0.02217
G1 X198.937 Y156.004 E0.02218
G1 X198.561 Y156.282 E0.01465
G1 X198.158 Y156.524 E0.01474
G1 X197.733 Y156.725 E0.01474
G1 X197.290 Y156.884 E0.01474
G1 X196.834 Y156.998 E0.01474
G1 X196.369 Y157.067 E0.01474
G1 X195.895 Y157.090 E0.01490
G1 X159.065 Y157.084 E1.15477
G1 X158.597 Y157.038 E0.01474
G1 X158.139 Y156.947 E0.01465
G1 X157.465 Y156.724 E0.02226
G1 X157.042 Y156.524 E0.01466
G1 X156.641 Y156.284 E0.01466
G1 X156.084 Y155.849 E0.02217
G1 X155.596 Y155.337 E0.02218
G1 X155.318 Y154.961 E0.01465
G1 X155.076 Y154.558 E0.01474
G1 X154.876 Y154.135 E0.01466
G1 X154.653 Y153.461 E0.02226
G1 X154.563 Y153.005 E0.01457
G1 X154.510 Y152.292 E0.02242
G1 X154.510 Y150.270 E0.06341
G1 X154.858 Y150.408 F10800.000
G1 F8640
G1 X157.801 Y150.266 E-0.76000
G1 E-0.04000 F2100.00000
G1 Z0.800 F10800.000
G1 X155.172 Y153.468
G1 Z0.200
G1 E0.80000 F2100.00000
G1 F1200
G1 X157.866 Y156.162 E0.11972
G1 X158.307 Y156.307 E0.01462
G1 X158.605 Y156.367 E0.00955
G1 X155.233 Y152.995 E0.14985
G1 X155.180 Y152.407 E0.01854
G1 X159.367 Y156.594 E0.18605
G1 F8640
G1 X157.039 Y154.266 E-0.76000
G1 E-0.04000 F2100.00000
G1 Z0.800 F10800.000
G1 X157.242 Y156.073
G1 Z0.200
G1 E0.80000 F2100.00000
G1 F1200
G1 X155.527 Y154.358 E0.07620
G1 F8640
G1 X157.242 Y156.073 E-0.55995
G1 E-0.24005 F2100.00000
G1 Z0.800 F10800.000
G1 X156.792 Y153.484
G1 Z0.200
G1 E0.80000 F2100.00000
G1 F1200
G1 X155.170 Y151.862 E0.07207
G1 X155.170 Y151.328 E0.01679
G1 X156.737 Y152.895 E0.06964
G1 X156.741 Y152.765 E0.00408
G1 X156.814 Y152.438 E0.01054
G1 X155.246 Y150.870 E0.06968
G1 X155.781 Y150.870 E0.01679
G1 X156.977 Y152.066 E0.05316
G1 X157.202 Y151.757 E0.01202
G1 X156.315 Y150.870 E0.03941
G1 X156.849 Y150.870 E0.01679
G1 X157.480 Y151.500 E0.02802
G1 X157.814 Y151.300 E0.01224
G1 X157.384 Y150.870 E0.01913
G1 X157.918 Y150.870 E0.01679
G1 X158.220 Y151.171 E0.01340
G1 X158.499 Y151.128 E0.00888
G1 X158.725 Y151.142 E0.00711
G1 X158.283 Y150.700 E0.01964
G1 F8640
G1 X158.725 Y151.142 E-0.14431
G1 X158.499 Y151.128 E-0.05225
G1 X158.220 Y151.171 E-0.06527
G1 X157.918 Y150.870 E-0.09849
G1 X157.384 Y150.870 E-0.12341
G1 X157.814 Y151.300 E-0.14054
G1 X157.480 Y151.500 E-0.08996
G1 X157.340 Y151.360 E-0.04577
G1 E-0.04000 F2100.00000
G1 Z0.800 F10800.000
G1 X158.109 Y154.802
G1 Z0.200
G1 E0.80000 F2100.00000
G1 F1200
G1 X159.732 Y156.424 E0.07210
G1 X160.266 Y156.424 E0.01680
G1 X158.712 Y154.870 E0.06908
G1 X159.066 Y154.815 E0.01127
G1 X159.158 Y154.782 E0.00307
G1 X160.801 Y156.424 E0.07300
G1 X161.335 Y156.424 E0.01680
G1 X159.529 Y154.618 E0.08028
G1 X159.701 Y154.516 E0.00630
G1 X159.839 Y154.394 E0.00578
G1 X161.870 Y156.425 E0.09023
G1 X162.404 Y156.425 E0.01680
G1 X160.093 Y154.113 E0.10272
G1 X160.236 Y153.915 E0.00768
G1 X160.295 Y153.781 E0.00461
G1 X162.939 Y156.425 E0.11750
G1 X163.473 Y156.425 E0.01680
G1 X160.427 Y153.378 E0.13538
G1 X160.459 Y153.235 E0.00463
G1 X160.470 Y152.887 E0.01093
G1 X164.008 Y156.425 E0.15723
G1 X164.542 Y156.425 E0.01680
G1 X158.987 Y150.870 E0.24687
G1 X159.522 Y150.870 E0.01679
G1 X165.077 Y156.425 E0.24687
G1 X165.612 Y156.425 E0.01680
G1 X160.056 Y150.870 E0.24688
G1 X160.591 Y150.870 E0.01679
G1 X166.146 Y156.425 E0.24688
G1 X166.681 Y156.425 E0.01680
G1 X161.125 Y150.870 E0.24688
G1 X161.660 Y150.870 E0.01679
G1 X167.215 Y156.425 E0.24689
G1 X167.750 Y156.426 E0.01680
G1 X162.194 Y150.870 E0.24689
G1 X162.728 Y150.870 E0.01679
G1 X168.284 Y156.426 E0.24690
G1 X168.819 Y156.426 E0.01680
G1 X163.263 Y150.870 E0.24690
G1 X163.797 Y150.870 E0.01679
G1 X169.353 Y156.426 E0.24690
G1 X169.888 Y156.426 E0.01680
G1 X164.332 Y150.870 E0.24691
G1 X164.866 Y150.870 E0.01679
G1 X170.422 Y156.426 E0.24691
G1 X170.957 Y156.426 E0.01680
G1 X165.401 Y150.870 E0.24692
G1 X165.935 Y150.870 E0.01679
G1 X171.491 Y156.426 E0.24692
G1 X172.026 Y156.426 E0.01680
G1 X166.470 Y150.870 E0.24692
G1 X167.004 Y150.870 E0.01679
G1 X172.560 Y156.426 E0.24693
G1 X173.095 Y156.426 E0.01680
G1 X167.538 Y150.870 E0.24693
G1 X168.073 Y150.870 E0.01679
G1 X173.630 Y156.427 E0.24694
G1 X174.164 Y156.427 E0.01680
G1 X168.607 Y150.870 E0.24694
G1 X169.142 Y150.870 E0.01679
G1 X174.699 Y156.427 E0.24694
G1 X175.233 Y156.427 E0.01680
G1 X169.676 Y150.870 E0.24695
G1 X170.211 Y150.870 E0.01679
G1 X175.768 Y156.427 E0.24695
G1 X176.302 Y156.427 E0.01680
G1 X170.745 Y150.870 E0.24695
G1 X171.280 Y150.870 E0.01679
G1 X176.837 Y156.427 E0.24696
G1 X177.371 Y156.427 E0.01680
G1 X171.814 Y150.870 E0.24696
G1 X172.349 Y150.870 E0.01679
G1 X177.906 Y156.427 E0.24697
G1 X178.440 Y156.427 E0.01680
G1 X172.883 Y150.870 E0.24697
M73 P1 R105
G1 X173.417 Y150.870 E0.01679
G1 X178.975 Y156.427 E0.24697
G1 X179.509 Y156.427 E0.01680
G1 X173.952 Y150.870 E0.24698
G1 X174.486 Y150.870 E0.01679
G1 X180.044 Y156.428 E0.24698
G1 X180.579 Y156.428 E0.01680
G1 X175.021 Y150.870 E0.24699
G1 X175.555 Y150.870 E0.01679
G1 X181.113 Y156.428 E0.24699
G1 X181.648 Y156.428 E0.01680
G1 X176.090 Y150.870 E0.24699
G1 X176.624 Y150.870 E0.01679
G1 X182.182 Y156.428 E0.24700
G1 X182.717 Y156.428 E0.01680
G1 X177.159 Y150.870 E0.24700
G1 X177.693 Y150.870 E0.01679
G1 X183.251 Y156.428 E0.24700
G1 X183.786 Y156.428 E0.01680
G1 X178.227 Y150.870 E0.24701
G1 X178.762 Y150.870 E0.01679
G1 X184.320 Y156.428 E0.24701
G1 X184.855 Y156.428 E0.01680
G1 X179.296 Y150.870 E0.24702
G1 X179.831 Y150.870 E0.01679
G1 X185.389 Y156.428 E0.24702
G1 X185.924 Y156.429 E0.01680
G1 X180.365 Y150.870 E0.24702
G1 X180.900 Y150.870 E0.01679
G1 X186.458 Y156.429 E0.24703
G1 X186.993 Y156.429 E0.01680
G1 X181.434 Y150.870 E0.24703
G1 X181.969 Y150.870 E0.01679
G1 X187.528 Y156.429 E0.24704
G1 X188.062 Y156.429 E0.01680
G1 X182.503 Y150.870 E0.24704
G1 X183.038 Y150.870 E0.01679
G1 X188.597 Y156.429 E0.24704
G1 X189.131 Y156.429 E0.01680
G1 X183.572 Y150.870 E0.24705
G1 X184.106 Y150.870 E0.01679
G1 X189.666 Y156.429 E0.24705
G1 X190.200 Y156.429 E0.01680
G1 X184.641 Y150.870 E0.24706
G1 X185.175 Y150.870 E0.01679
G1 X190.735 Y156.429 E0.24706
G1 X191.269 Y156.429 E0.01680
G1 X185.710 Y150.870 E0.24706
G1 X186.244 Y150.870 E0.01679
G1 X191.804 Y156.429 E0.24707
G1 X192.338 Y156.430 E0.01680
G1 X186.779 Y150.870 E0.24707
G1 X187.313 Y150.870 E0.01679
G1 X192.873 Y156.430 E0.24707
G1 X193.407 Y156.430 E0.01680
G1 X187.848 Y150.870 E0.24708
G1 X188.382 Y150.870 E0.01679
G1 X193.942 Y156.430 E0.24708
G1 X194.477 Y156.430 E0.01680
G1 X188.916 Y150.870 E0.24709
G1 X189.451 Y150.870 E0.01679
G1 X195.011 Y156.430 E0.24709
G1 X195.546 Y156.430 E0.01680
G1 X189.985 Y150.870 E0.24709
G1 X190.520 Y150.870 E0.01679
G1 X196.071 Y156.421 E0.24668
G1 X196.556 Y156.372 E0.01534
G1 X191.054 Y150.870 E0.24451
G1 X191.589 Y150.870 E0.01679
