; generated by PrusaSlicer 2.0.0+linux64 on 2019-07-26 at 10:06:24

; 

; external perimeters extrusion width = 0.45mm
; perimeters extrusion width = 0.45mm
; infill extrusion width = 0.45mm
; solid infill extrusion width = 0.45mm
; top infill extrusion width = 0.40mm
; support material extrusion width = 0.35mm
; first layer extrusion width = 0.42mm

M73 P0 R120
M201 X9000 Y9000 Z500 E10000 ; sets maximum accelerations, mm/sec^2
M203 X500 Y500 Z12 E120 ; sets maximum feedrates, mm/sec
M204 P2000 R1500 T2000 ; sets acceleration (P, T) and retract acceleration (R), mm/sec^2
M205 X10.00 Y10.00 Z0.20 E2.50 ; sets the jerk limits, mm/sec
M205 S0 T0 ; sets the minimum extruding and travel feed rate, mm/sec
M107
M115 U3.2.3 ; tell printer latest fw version
G90 ; use absolute coordinates
M83 ; extruder relative mode
M204 S2000 T1500 ; MK2 firmware only supports the old M204 format
M104 S215 ; set extruder temp
M140 S60 ; set bed temp
M190 S60 ; wait for bed temp
M109 S215 ; wait for extruder temp
G28 W ; home all without mesh bed level
G80 ; mesh bed leveling
G1 Y-3.0 F1000.0 ; go outside print area
G92 E0.0
G1 X60.0 E9.0  F1000.0 ; intro line
M73 P0 R120
G1 X100.0 E12.5 F1000.0 ; intro line
G92 E0.0
M900 K30 ; Filament gcode
G21 ; set units to millimeters
G90 ; use absolute coordinates
M83 ; use relative distances for extrusion
;BEFORE_LAYER_CHANGE
G92 E0.0
;0.2


G1 E-0.80000 F2100.00000
G1 Z0.600 F10800.000
;AFTER_LAYER_CHANGE
;0.2
G1 X73.226 Y51.388
G1 Z0.200
G1 E0.80000 F2100.00000
M204 S1000
G1 F1200
G1 X73.911 Y51.104 E0.02326
G1 X75.724 Y50.706 E0.05820
G1 X76.923 Y50.551 E0.03790
G1 X171.975 Y50.525 E2.98028
G1 X173.801 Y50.626 E0.05736
G1 X175.378 Y50.993 E0.05077
G1 X176.500 Y51.428 E0.03773
G1 X177.832 Y52.173 E0.04784
G1 X179.001 Y53.090 E0.04660
G1 X180.222 Y54.438 E0.05700
G1 X180.850 Y55.389 E0.03573
G1 X181.590 Y56.967 E0.05465
G1 X182.068 Y58.856 E0.06109
G1 X186.391 Y88.484 E0.93881
G1 X186.381 Y91.397 E0.09134
G1 X179.416 Y151.916 E1.91005
G1 X179.183 Y152.973 E0.03394
G1 X178.798 Y153.975 E0.03366
G1 X178.275 Y154.898 E0.03326
G1 X177.601 Y155.755 E0.03420
G1 X176.539 Y156.705 E0.04467
G1 X175.097 Y157.522 E0.05195
G1 X173.712 Y157.949 E0.04546
G1 X172.310 Y158.089 E0.04418
G1 X77.660 Y158.088 E2.96768
G1 X76.296 Y157.950 E0.04298
G1 X74.989 Y157.557 E0.04279
G1 X73.959 Y157.038 E0.03618
G1 X72.845 Y156.201 E0.04369
G1 X71.927 Y155.184 E0.04295
G1 X71.224 Y154.020 E0.04264
G1 X70.807 Y152.940 E0.03628
G1 X70.544 Y151.578 E0.04351
G1 X67.835 Y97.556 E1.69594
G1 X67.849 Y59.672 E1.18782
G1 X68.004 Y58.439 E0.03899
G1 X68.426 Y56.524 E0.06146
G1 X68.628 Y56.028 E0.01680
G1 X68.944 Y55.595 E0.01680
G1 X73.183 Y51.430 E0.18633
G1 F8640
G1 X73.911 Y51.104 E-0.18425
G1 X75.724 Y50.706 E-0.42863
G1 X76.356 Y50.624 E-0.14712
G1 E-0.04000 F2100.00000
G1 Z0.800 F10800.000
G1 X76.988 Y150.010
G1 Z0.200
G1 E0.80000 F2100.00000
G1 F1200
G1 X77.297 Y150.038 E0.00975
G1 X77.585 Y150.122 E0.00940
G1 X77.852 Y150.258 E0.00938
G1 X78.088 Y150.441 E0.00938
G1 X78.292 Y150.673 E0.00968
G1 X78.475 Y151.006 E0.01193
G1 X78.562 Y151.302 E0.00967
G1 X78.590 Y151.600 E0.00938
G1 X78.562 Y151.898 E0.00938
G1 X78.475 Y152.194 E0.00967
G1 X78.292 Y152.527 E0.01193
G1 X78.088 Y152.759 E0.00968
G1 X77.852 Y152.942 E0.00938
G1 X77.585 Y153.078 E0.00938
G1 X77.298 Y153.162 E0.00938
G1 X77.000 Y153.190 E0.00938
G1 X76.702 Y153.162 E0.00938
G1 X76.415 Y153.078 E0.00938
G1 X76.148 Y152.942 E0.00939
G1 X75.902 Y152.751 E0.00975
G1 X75.662 Y152.460 E0.01184
G1 X75.522 Y152.185 E0.00967
G1 X75.438 Y151.898 E0.00938
G1 X75.410 Y151.600 E0.00938
G1 X75.438 Y151.302 E0.00938
G1 X75.522 Y151.015 E0.00938
G1 X75.658 Y150.748 E0.00938
G1 X75.841 Y150.512 E0.00938
G1 X76.066 Y150.314 E0.00938
G1 X76.323 Y150.162 E0.00938
G1 X76.613 Y150.057 E0.00967
G1 X76.928 Y150.017 E0.00996
G1 X76.994 Y150.389 F10800.000
G1 F1200
G1 X77.227 Y150.410 E0.00732
G1 X77.446 Y150.474 E0.00715
G1 X77.649 Y150.578 E0.00715
G1 X77.829 Y150.717 E0.00714
G1 X77.982 Y150.891 E0.00725
G1 X78.125 Y151.151 E0.00932
G1 X78.190 Y151.373 E0.00725
G1 X78.211 Y151.600 E0.00715
G1 X78.190 Y151.827 E0.00715
G1 X78.125 Y152.049 E0.00725
G1 X77.982 Y152.309 E0.00932
G1 X77.829 Y152.483 E0.00725
G1 X77.649 Y152.622 E0.00714
G1 X77.446 Y152.726 E0.00715
G1 X77.227 Y152.790 E0.00715
G1 X77.000 Y152.811 E0.00715
G1 X76.773 Y152.790 E0.00715
G1 X76.554 Y152.726 E0.00715
G1 X76.351 Y152.622 E0.00715
G1 X76.167 Y152.479 E0.00732
G1 X75.979 Y152.252 E0.00924
G1 X75.874 Y152.046 E0.00725
G1 X75.811 Y151.827 E0.00715
G1 X75.789 Y151.600 E0.00715
G1 X75.811 Y151.373 E0.00715
G1 X75.874 Y151.154 E0.00715
G1 X75.978 Y150.951 E0.00715
G1 X76.117 Y150.771 E0.00714
G1 X76.288 Y150.620 E0.00715
G1 X76.484 Y150.504 E0.00715
G1 X76.702 Y150.426 E0.00725
G1 X76.935 Y150.396 E0.00736
G1 X77.108 Y150.185 F10800.000
G1 F8640
G1 X77.227 Y150.410 E-0.06752
G1 X77.446 Y150.474 E-0.05266
G1 X77.649 Y150.578 E-0.05263
G1 X77.829 Y150.717 E-0.05261
G1 X77.982 Y150.891 E-0.05341
G1 X78.125 Y151.151 E-0.06860
G1 X78.190 Y151.373 E-0.05339
G1 X78.211 Y151.600 E-0.05263
G1 X78.190 Y151.827 E-0.05263
G1 X78.125 Y152.049 E-0.05339
G1 X77.982 Y152.309 E-0.06860
G1 X77.829 Y152.483 E-0.05341
G1 X77.649 Y152.622 E-0.05261
G1 X77.549 Y152.673 E-0.02592
G1 E-0.04000 F2100.00000
G1 Z0.800 F10800.000
G1 X77.000 Y115.190
G1 Z0.200
G1 E0.80000 F2100.00000
G1 F1200
G1 X76.702 Y115.162 E0.00938
G1 X76.415 Y115.078 E0.00938
G1 X76.148 Y114.942 E0.00939
G1 X75.902 Y114.751 E0.00975
G1 X75.662 Y114.460 E0.01184
G1 X75.522 Y114.185 E0.00967
G1 X75.438 Y113.898 E0.00938
G1 X75.410 Y113.600 E0.00938
G1 X75.438 Y113.302 E0.00938
G1 X75.522 Y113.015 E0.00938
G1 X75.658 Y112.748 E0.00938
G1 X75.841 Y112.512 E0.00938
G1 X76.066 Y112.314 E0.00938
G1 X76.323 Y112.162 E0.00938
G1 X76.613 Y112.057 E0.00967
G1 X76.988 Y112.010 E0.01184
G1 X77.297 Y112.038 E0.00975
G1 X77.585 Y112.122 E0.00940
G1 X77.852 Y112.258 E0.00938
G1 X78.088 Y112.441 E0.00938
G1 X78.292 Y112.673 E0.00968
G1 X78.475 Y113.006 E0.01193
G1 X78.562 Y113.302 E0.00967
G1 X78.590 Y113.600 E0.00938
G1 X78.562 Y113.898 E0.00938
G1 X78.475 Y114.194 E0.00967
G1 X78.292 Y114.527 E0.01193
G1 X78.088 Y114.759 E0.00968
G1 X77.852 Y114.942 E0.00938
G1 X77.585 Y115.078 E0.00938
G1 X77.298 Y115.162 E0.00938
G1 X77.060 Y115.184 E0.00750
G1 X77.024 Y114.809 F10800.000
G1 F1200
G1 X76.773 Y114.790 E0.00790
G1 X76.554 Y114.726 E0.00715
G1 X76.351 Y114.622 E0.00715
G1 X76.167 Y114.479 E0.00732
G1 X75.979 Y114.252 E0.00924
G1 X75.874 Y114.046 E0.00725
G1 X75.811 Y113.827 E0.00715
G1 X75.789 Y113.600 E0.00715
G1 X75.811 Y113.373 E0.00715
G1 X75.874 Y113.154 E0.00715
G1 X75.978 Y112.951 E0.00715
G1 X76.117 Y112.771 E0.00714
G1 X76.288 Y112.620 E0.00715
G1 X76.484 Y112.504 E0.00715
G1 X76.702 Y112.426 E0.00725
G1 X76.994 Y112.389 E0.00924
G1 X77.227 Y112.410 E0.00732
G1 X77.446 Y112.474 E0.00715
G1 X77.649 Y112.578 E0.00715
G1 X77.829 Y112.717 E0.00714
G1 X77.982 Y112.891 E0.00725
G1 X78.125 Y113.151 E0.00932
G1 X78.190 Y113.373 E0.00725
G1 X78.211 Y113.600 E0.00715
G1 X78.190 Y113.827 E0.00715
G1 X78.125 Y114.049 E0.00725
G1 X77.982 Y114.309 E0.00932
G1 X77.829 Y114.483 E0.00725
G1 X77.649 Y114.622 E0.00714
G1 X77.446 Y114.726 E0.00715
G1 X77.227 Y114.790 E0.00715
G1 X77.084 Y114.803 E0.00450
G1 X76.901 Y115.029 F10800.000
G1 F8640
G1 X76.773 Y114.790 E-0.07186
G1 X76.554 Y114.726 E-0.05262
G1 X76.351 Y114.622 E-0.05266
G1 X76.167 Y114.479 E-0.05392
G1 X75.979 Y114.252 E-0.06804
G1 X75.874 Y114.046 E-0.05338
G1 X75.811 Y113.827 E-0.05262
G1 X75.789 Y113.600 E-0.05263
G1 X75.811 Y113.373 E-0.05263
G1 X75.874 Y113.154 E-0.05262
G1 X75.978 Y112.951 E-0.05263
G1 X76.117 Y112.771 E-0.05261
G1 X76.288 Y112.620 E-0.05264
G1 X76.434 Y112.534 E-0.03913
G1 E-0.04000 F2100.00000
G1 Z0.800 F10800.000
G1 X79.413 Y109.888
G1 Z0.200
G1 E0.80000 F2100.00000
G1 F1200
G1 X79.413 Y155.313 E1.42425
G1 X77.722 Y155.313 E0.05303
G1 X77.045 Y155.263 E0.02126
G1 X76.635 Y155.181 E0.01312
G1 X76.005 Y154.973 E0.02080
G1 X75.620 Y154.791 E0.01335
G1 X75.249 Y154.569 E0.01358
G1 X74.907 Y154.315 E0.01335
G1 X74.431 Y153.862 E0.02058
G1 X74.028 Y153.345 E0.02057
G1 X73.809 Y152.980 E0.01335
G1 X73.627 Y152.595 E0.01335
G1 X73.419 Y151.965 E0.02080
G1 X73.336 Y151.547 E0.01335
G1 X73.293 Y151.116 E0.01358
G1 X73.287 Y114.314 E1.15390
G1 X73.309 Y113.868 E0.01403
G1 X73.373 Y113.439 E0.01358
G1 X73.478 Y113.019 E0.01357
G1 X73.624 Y112.612 E0.01358
G1 X73.809 Y112.220 E0.01358
G1 X74.031 Y111.849 E0.01358
G1 X74.285 Y111.507 E0.01335
G1 X74.738 Y111.031 E0.02058
G1 X75.255 Y110.628 E0.02057
G1 X75.620 Y110.409 E0.01335
G1 X76.005 Y110.227 E0.01335
G1 X76.635 Y110.019 E0.02080
G1 X77.053 Y109.936 E0.01335
G1 X77.484 Y109.893 E0.01360
G1 X79.353 Y109.889 E0.05859
G1 X79.790 Y109.510 F10800.000
G1 F1200
G1 X79.790 Y155.690 E1.44793
G1 X77.708 Y155.690 E0.06529
G1 X76.995 Y155.637 E0.02242
G1 X76.539 Y155.547 E0.01457
G1 X75.865 Y155.324 E0.02226
G1 X75.442 Y155.124 E0.01466
G1 X75.039 Y154.882 E0.01474
G1 X74.663 Y154.604 E0.01465
G1 X74.151 Y154.116 E0.02218
G1 X73.716 Y153.559 E0.02217
G1 X73.476 Y153.158 E0.01466
G1 X73.276 Y152.735 E0.01466
G1 X73.053 Y152.061 E0.02226
G1 X72.962 Y151.603 E0.01465
G1 X72.916 Y151.135 E0.01474
G1 X72.910 Y114.305 E1.15477
G1 X72.933 Y113.831 E0.01490
G1 X73.002 Y113.366 E0.01474
G1 X73.116 Y112.910 E0.01474
G1 X73.275 Y112.467 E0.01474
G1 X73.476 Y112.042 E0.01474
G1 X73.718 Y111.639 E0.01474
G1 X73.996 Y111.263 E0.01465
G1 X74.484 Y110.751 E0.02218
G1 X75.041 Y110.316 E0.02217
G1 X75.442 Y110.076 E0.01466
G1 X75.865 Y109.876 E0.01466
G1 X76.539 Y109.653 E0.02226
G1 X76.997 Y109.562 E0.01465
G1 X77.465 Y109.516 E0.01475
G1 X79.730 Y109.511 E0.07101
G1 X79.592 Y109.858 F10800.000
G1 F8640
G1 X79.734 Y112.802 E-0.76000
G1 E-0.04000 F2100.00000
G1 Z0.800 F10800.000
G1 X79.300 Y110.766
G1 Z0.200
G1 E0.80000 F2100.00000
G1 F1200
G1 X78.707 Y110.173 E0.02635
G1 X78.174 Y110.174 E0.01675
G1 X79.130 Y111.131 E0.04250
G1 X79.130 Y111.665 E0.01679
G1 X77.641 Y110.175 E0.06619
G1 X77.142 Y110.211 E0.01572
G1 X79.130 Y112.199 E0.08837
G1 X79.130 Y112.734 E0.01679
G1 X76.693 Y110.297 E0.10828
G1 X76.292 Y110.430 E0.01329
G1 X79.130 Y113.268 E0.12614
G1 X79.130 Y113.803 E0.01679
G1 X78.868 Y113.541 E0.01164
G1 X78.841 Y113.951 E0.01292
G1 X78.819 Y114.026 E0.00245
G1 X79.130 Y114.337 E0.01383
G1 X79.130 Y114.872 E0.01679
G1 X78.676 Y114.417 E0.02020
G1 X78.525 Y114.691 E0.00983
G1 X78.474 Y114.749 E0.00244
G1 X79.130 Y115.406 E0.02918
G1 X79.130 Y115.940 E0.01679
G1 X78.211 Y115.021 E0.04084
G1 X78.004 Y115.182 E0.00824
G1 X77.894 Y115.238 E0.00389
G1 X79.130 Y116.475 E0.05495
G1 X79.130 Y117.009 E0.01679
G1 X77.514 Y115.393 E0.07181
G1 X77.351 Y115.441 E0.00533
G1 X77.055 Y115.469 E0.00935
G1 X79.130 Y117.544 E0.09222
G1 X79.130 Y118.078 E0.01679
G1 X76.429 Y115.377 E0.12005
G1 F8640
G1 X78.756 Y117.704 E-0.76000
G1 E-0.04000 F2100.00000
G1 Z0.800 F10800.000
G1 X75.223 Y114.171
G1 Z0.200
G1 E0.80000 F2100.00000
G1 F1200
G1 X73.855 Y112.803 E0.06080
G1 X74.020 Y112.434 E0.01271
G1 X75.131 Y113.545 E0.04937
G1 X75.159 Y113.249 E0.00935
G1 X75.207 Y113.086 E0.00533
G1 X74.214 Y112.094 E0.04410
G1 X74.435 Y111.779 E0.01206
G1 X75.362 Y112.706 E0.04119
G1 X75.418 Y112.596 E0.00389
G1 X75.579 Y112.389 E0.00824
G1 X74.686 Y111.496 E0.03968
G1 X74.949 Y111.225 E0.01188
G1 X75.851 Y112.126 E0.04006
G1 X76.178 Y111.919 E0.01217
G1 X75.249 Y110.991 E0.04126
G1 X75.565 Y110.772 E0.01207
G1 X76.571 Y111.778 E0.04470
G1 X76.983 Y111.725 E0.01307
G1 X77.060 Y111.732 E0.00242
G1 X75.784 Y110.456 E0.05669
G1 F8640
G1 X77.060 Y111.732 E-0.41660
G1 X76.983 Y111.725 E-0.01778
G1 X76.571 Y111.778 E-0.09601
G1 X75.867 Y111.074 E-0.22962
G1 E-0.04000 F2100.00000
G1 Z0.800 F10800.000
G1 X79.300 Y118.782
G1 Z0.200
G1 E0.80000 F2100.00000
G1 F1200
G1 X73.723 Y113.205 E0.24784
G1 X73.628 Y113.645 E0.01413
G1 X79.130 Y119.147 E0.24451
G1 X79.130 Y119.681 E0.01679
G1 X73.579 Y114.131 E0.24667
G1 X73.570 Y114.656 E0.01650
G1 X79.130 Y120.216 E0.24709
G1 X79.130 Y120.750 E0.01679
G1 X73.570 Y115.190 E0.24708
G1 X73.570 Y115.725 E0.01680
G1 X79.130 Y121.285 E0.24708
G1 X79.130 Y121.819 E0.01679
G1 X73.570 Y116.259 E0.24707
G1 X73.570 Y116.794 E0.01680
G1 X79.130 Y122.354 E0.24707
G1 X79.130 Y122.888 E0.01679
G1 X73.570 Y117.328 E0.24707
G1 X73.570 Y117.863 E0.01680
G1 X79.130 Y123.422 E0.24706
G1 X79.130 Y123.957 E0.01679
G1 X73.571 Y118.397 E0.24706
G1 X73.571 Y118.932 E0.01680
G1 X79.130 Y124.491 E0.24705
G1 X79.130 Y125.026 E0.01679
G1 X73.571 Y119.466 E0.24705
G1 X73.571 Y120.001 E0.01680
G1 X79.130 Y125.560 E0.24705
G1 X79.130 Y126.095 E0.01679
G1 X73.571 Y120.535 E0.24704
G1 X73.571 Y121.070 E0.01680
G1 X79.130 Y126.629 E0.24704
G1 X79.130 Y127.163 E0.01679
G1 X73.571 Y121.604 E0.24704
G1 X73.571 Y122.139 E0.01680
G1 X79.130 Y127.698 E0.24703
G1 X79.130 Y128.232 E0.01679
G1 X73.571 Y122.673 E0.24703
G1 X73.571 Y123.208 E0.01680
G1 X79.130 Y128.767 E0.24702
G1 X79.130 Y129.301 E0.01679
G1 X73.571 Y123.742 E0.24702
G1 X73.571 Y124.277 E0.01680
G1 X79.130 Y129.836 E0.24702
G1 X79.130 Y130.370 E0.01679
G1 X73.572 Y124.812 E0.24701
G1 X73.572 Y125.346 E0.01680
G1 X79.130 Y130.905 E0.24701
G1 X79.130 Y131.439 E0.01679
G1 X73.572 Y125.881 E0.24700
G1 X73.572 Y126.415 E0.01680
G1 X79.130 Y131.973 E0.24700
G1 X79.130 Y132.508 E0.01679
G1 X73.572 Y126.950 E0.24700
G1 X73.572 Y127.484 E0.01680
G1 X79.130 Y133.042 E0.24699
G1 X79.130 Y133.577 E0.01679
G1 X73.572 Y128.019 E0.24699
G1 X73.572 Y128.553 E0.01680
G1 X79.130 Y134.111 E0.24698
G1 X79.130 Y134.646 E0.01679
G1 X73.572 Y129.088 E0.24698
G1 X73.572 Y129.622 E0.01680
G1 X79.130 Y135.180 E0.24698
G1 X79.130 Y135.714 E0.01679
G1 X73.572 Y130.157 E0.24697
G1 X73.573 Y130.691 E0.01680
G1 X79.130 Y136.249 E0.24697
G1 X79.130 Y136.783 E0.01679
G1 X73.573 Y131.226 E0.24697
G1 X73.573 Y131.760 E0.01680
G1 X79.130 Y137.318 E0.24696
G1 X79.130 Y137.852 E0.01679
G1 X73.573 Y132.295 E0.24696
G1 X73.573 Y132.829 E0.01680
G1 X79.130 Y138.387 E0.24695
G1 X79.130 Y138.921 E0.01679
G1 X73.573 Y133.364 E0.24695
G1 X73.573 Y133.898 E0.01680
G1 X79.130 Y139.455 E0.24695
G1 X79.130 Y139.990 E0.01679
G1 X73.573 Y134.433 E0.24694
G1 X73.573 Y134.967 E0.01680
G1 X79.130 Y140.524 E0.24694
M73 P0 R119
G1 X79.130 Y141.059 E0.01679
G1 X73.573 Y135.502 E0.24693
G1 X73.573 Y136.036 E0.01680
G1 X79.130 Y141.593 E0.24693
G1 X79.130 Y142.128 E0.01679
G1 X73.573 Y136.571 E0.24693
G1 X73.574 Y137.105 E0.01680
G1 X79.130 Y142.662 E0.24692
G1 X79.130 Y143.196 E0.01679
G1 X73.574 Y137.640 E0.24692
G1 X73.574 Y138.174 E0.01680
G1 X79.130 Y143.731 E0.24692
G1 X79.130 Y144.265 E0.01679
G1 X73.574 Y138.709 E0.24691
G1 X73.574 Y139.244 E0.01680
G1 X79.130 Y144.800 E0.24691
G1 X79.130 Y145.334 E0.01679
G1 X73.574 Y139.778 E0.24690
G1 X73.574 Y140.313 E0.01680
G1 X79.130 Y145.869 E0.24690
G1 X79.130 Y146.403 E0.01679
G1 X73.574 Y140.847 E0.24690
G1 X73.574 Y141.382 E0.01680
G1 X79.130 Y146.937 E0.24689
G1 X79.130 Y147.472 E0.01679
G1 X73.574 Y141.916 E0.24689
G1 X73.574 Y142.451 E0.01680
G1 X79.130 Y148.006 E0.24688
G1 X79.130 Y148.541 E0.01679
G1 X73.575 Y142.985 E0.24688
G1 X73.575 Y143.520 E0.01680
G1 X79.130 Y149.075 E0.24688
G1 X79.130 Y149.610 E0.01679
G1 X73.575 Y144.054 E0.24687
G1 X73.575 Y144.589 E0.01680
G1 X79.130 Y150.144 E0.24687
G1 X79.130 Y150.678 E0.01679
G1 X73.575 Y145.123 E0.24686
G1 X73.575 Y145.658 E0.01680
G1 X79.130 Y151.213 E0.24686
G1 X79.130 Y151.747 E0.01679
G1 X78.862 Y151.480 E0.01190
G1 X78.874 Y151.600 E0.00380
G1 X78.831 Y151.983 E0.01211
G1 X79.130 Y152.282 E0.01328
G1 X79.130 Y152.816 E0.01679
G1 X78.695 Y152.381 E0.01932
G1 X78.499 Y152.720 E0.01229
G1 X79.130 Y153.351 E0.02802
G1 X79.130 Y153.885 E0.01679
G1 X78.242 Y152.997 E0.03945
G1 X77.930 Y153.220 E0.01204
G1 X79.130 Y154.419 E0.05332
G1 X79.130 Y154.954 E0.01679
G1 X77.557 Y153.381 E0.06991
G1 X77.351 Y153.441 E0.00674
G1 X77.106 Y153.464 E0.00775
G1 X78.672 Y155.030 E0.06961
G1 X78.137 Y155.030 E0.01679
G1 X76.507 Y153.399 E0.07247
G1 F8640
G1 X78.137 Y155.030 E-0.53257
G1 X78.672 Y155.030 E-0.12340
