; generated by Slic3r Prusa Edition 1.41.3+linux64 on 2019-03-09 at 11:41:12

; 

; external perimeters extrusion width = 0.45mm
; perimeters extrusion width = 0.45mm
; infill extrusion width = 0.45mm
; solid infill extrusion width = 0.45mm
; top infill extrusion width = 0.40mm
; support material extrusion width = 0.35mm
; first layer extrusion width = 0.42mm

M73 P0 R53
M201 X9000 Y9000 Z500 E10000 ; sets maximum accelerations, mm/sec^2
M203 X500 Y500 Z12 E120 ; sets maximum feedrates, mm/sec
M204 P2000 R1500 T2000 ; sets acceleration (P, T) and retract acceleration (R), mm/sec^2
M205 X10.00 Y10.00 Z0.20 E2.50 ; sets the jerk limits, mm/sec
M205 S0 T0 ; sets the minimum extruding and travel feed rate, mm/sec
M107
M115 U3.5.1 ; tell printer latest fw version
M83  ; extruder relative mode
M104 S215 ; set extruder temp
M140 S60 ; set bed temp
M190 S60 ; wait for bed temp
M109 S215 ; wait for extruder temp
G28 W ; home all without mesh bed level
G80 ; mesh bed leveling
G1 Y-3.0 F1000.0 ; go outside print area
G92 E0.0
G1 X60.0 E9.0  F1000.0 ; intro line
M73 P0 R53
G1 X100.0 E12.5  F1000.0 ; intro line
G92 E0.0
M900 K30 ; Filament gcode
G21 ; set units to millimeters
G90 ; use absolute coordinates
M83 ; use relative distances for extrusion
;BEFORE_LAYER_CHANGE
G92 E0.0
;0.2


G1 E-0.80000 F2100.00000
G1 Z0.600 F10800.000
;AFTER_LAYER_CHANGE
;0.2
G1 X68.005 Y76.103
G1 Z0.200
G1 E0.80000 F2100.00000
M204 S1000
G1 F1200
G1 X68.459 Y75.761 E0.01783
G1 X68.979 Y75.549 E0.01760
G1 X69.532 Y75.477 E0.01749
G1 X169.844 Y75.477 E3.14523
G1 X180.729 Y75.672 E0.34133
G1 X181.365 Y75.871 E0.02089
G1 X181.911 Y76.253 E0.02089
G1 X182.317 Y76.781 E0.02089
G1 X182.546 Y77.410 E0.02100
G1 X182.587 Y132.423 E1.72490
G1 X182.504 Y132.982 E0.01771
G1 X182.280 Y133.501 E0.01771
G1 X181.932 Y133.945 E0.01771
G1 X181.478 Y134.288 E0.01783
G1 X180.958 Y134.499 E0.01760
G1 X180.401 Y134.572 E0.01760
G1 X69.519 Y134.402 E3.47664
G1 X68.952 Y134.322 E0.01794
G1 X68.426 Y134.099 E0.01794
G1 X67.978 Y133.749 E0.01783
G1 X67.633 Y133.292 E0.01794
G1 X67.423 Y132.779 E0.01737
G1 X67.349 Y132.226 E0.01749
G1 X67.349 Y77.632 E1.71175
G1 X67.432 Y77.070 E0.01783
G1 X67.656 Y76.548 E0.01783
G1 X67.968 Y76.150 E0.01583
; PURGING FINISHED
G1 F8640
G1 X68.459 Y75.761 E-0.14471
G1 X68.979 Y75.549 E-0.12960
G1 X69.532 Y75.477 E-0.12877
G1 X71.077 Y75.477 E-0.35692
G1 E-0.04000 F2100.00000
G1 Z0.800 F10800.000
G1 X69.538 Y77.665
G1 Z0.200
G1 E0.80000 F2100.00000
G1 F1200
G1 X69.538 Y132.214 E1.71032
G1 X70.292 Y132.214 E0.02365
G1 X70.292 Y77.835 E1.70500
G1 X71.046 Y77.835 E0.02365
G1 X71.046 Y132.214 E1.70500
G1 X71.800 Y132.214 E0.02365
G1 X71.800 Y77.835 E1.70500
G1 X72.554 Y77.835 E0.02365
G1 X72.554 Y132.214 E1.70500
G1 X73.308 Y132.214 E0.02365
G1 X73.308 Y77.835 E1.70500
G1 X74.062 Y77.835 E0.02365
G1 X74.062 Y132.214 E1.70500
G1 X74.817 Y132.214 E0.02365
G1 X74.817 Y77.835 E1.70500
G1 X75.571 Y77.835 E0.02365
G1 X75.571 Y132.214 E1.70500
G1 X76.325 Y132.214 E0.02365
G1 X76.325 Y77.835 E1.70500
G1 X77.079 Y77.835 E0.02365
G1 X77.079 Y132.214 E1.70500
G1 X77.833 Y132.214 E0.02365
G1 X77.833 Y77.835 E1.70500
G1 X78.587 Y77.835 E0.02365
G1 X78.587 Y132.214 E1.70500
G1 X79.342 Y132.214 E0.02365
G1 X79.342 Y77.835 E1.70500
G1 X80.096 Y77.835 E0.02365
G1 X80.096 Y132.214 E1.70500
M73 P2 R52
G1 X80.850 Y132.214 E0.02365
G1 X80.850 Y77.835 E1.70500
G1 X81.604 Y77.835 E0.02365
G1 X81.604 Y132.214 E1.70500
G1 X82.358 Y132.214 E0.02365
G1 X82.358 Y77.835 E1.70500
G1 X83.112 Y77.835 E0.02365
G1 X83.112 Y132.214 E1.70500
G1 X83.867 Y132.214 E0.02365
G1 X83.867 Y77.835 E1.70500
G1 X84.621 Y77.835 E0.02365
G1 X84.621 Y132.214 E1.70500
G1 X85.375 Y132.214 E0.02365
G1 X85.375 Y77.835 E1.70500
G1 X86.129 Y77.835 E0.02365
G1 X86.129 Y132.214 E1.70500
G1 X86.883 Y132.214 E0.02365
G1 X86.883 Y77.835 E1.70500
G1 X87.637 Y77.835 E0.02365
G1 X87.637 Y132.214 E1.70500
G1 X88.391 Y132.214 E0.02365
G1 X88.391 Y77.835 E1.70500
G1 X89.146 Y77.835 E0.02365
G1 X89.146 Y132.214 E1.70500
G1 X89.900 Y132.214 E0.02365
G1 X89.900 Y77.835 E1.70500
G1 X90.654 Y77.835 E0.02365
G1 X90.654 Y132.214 E1.70500
G1 X91.408 Y132.214 E0.02365
G1 X91.408 Y77.835 E1.70500
G1 X92.162 Y77.835 E0.02365
G1 X92.162 Y132.214 E1.70500
G1 X92.916 Y132.214 E0.02365
G1 X92.916 Y77.835 E1.70500
G1 X93.671 Y77.835 E0.02365
G1 X93.671 Y132.214 E1.70500
G1 X94.425 Y132.214 E0.02365
G1 X94.425 Y77.835 E1.70500
G1 X95.179 Y77.835 E0.02365
G1 X95.179 Y132.214 E1.70500
G1 X95.933 Y132.214 E0.02365
G1 X95.933 Y112.441 E0.61995
G1 X96.520 Y112.441 E0.01840
G1 X96.520 Y111.450 E0.03108
G1 X95.933 Y111.450 E0.01840
G1 X95.933 Y91.678 E0.61995
G1 X96.520 Y91.678 E0.01840
G1 X96.520 Y88.379 E0.10342
G1 X95.933 Y88.379 E0.01840
G1 X95.933 Y77.835 E0.33060
G1 X96.687 Y77.835 E0.02365
G1 X96.687 Y132.214 E1.70500
M73 P3 R51
G1 X97.441 Y132.214 E0.02365
G1 X97.441 Y77.835 E1.70500
G1 X98.196 Y77.835 E0.02365
G1 X98.196 Y132.214 E1.70500
G1 X98.950 Y132.214 E0.02365
G1 X98.950 Y77.835 E1.70500
G1 X99.704 Y77.835 E0.02365
G1 X99.704 Y80.458 E0.08224
G1 X100.458 Y80.458 E0.02365
G1 X100.458 Y77.835 E0.08224
G1 X101.212 Y77.835 E0.02365
G1 X101.212 Y80.628 E0.08756
G1 F8640
G1 X101.212 Y77.835 E-0.64480
G1 X100.713 Y77.835 E-0.11520
G1 E-0.04000 F2100.00000
G1 Z0.800 F10800.000
G1 X101.718 Y81.507
G1 Z0.200
G1 E0.80000 F2100.00000
G1 F1200
G1 X101.718 Y80.800 E0.01806
G1 X101.211 Y80.800 E0.01295
G1 X101.211 Y81.449 E0.01658
G1 X101.069 Y81.591 E0.00511
G1 X101.069 Y83.107 E0.03872
G1 X100.704 Y83.107 E0.00933
G1 X100.704 Y80.800 E0.05891
G1 X100.196 Y80.800 E0.01295
G1 X100.196 Y83.107 E0.05891
G1 X99.689 Y83.107 E0.01295
G1 X99.689 Y80.662 E0.06244
G1 X101.966 Y81.932 F10800.000
G1 F1200
G1 X101.966 Y77.835 E0.12847
G1 X102.721 Y77.835 E0.02365
G1 X102.721 Y81.763 E0.12315
G1 X103.475 Y81.763 E0.02365
G1 X103.475 Y77.835 E0.12315
G1 X104.229 Y77.835 E0.02365
G1 X104.229 Y81.763 E0.12315
G1 X104.983 Y81.763 E0.02365
G1 X104.983 Y77.835 E0.12315
G1 X105.737 Y77.835 E0.02365
G1 X105.737 Y81.763 E0.12315
G1 X106.491 Y81.763 E0.02365
G1 X106.491 Y77.835 E0.12315
G1 X107.245 Y77.835 E0.02365
G1 X107.245 Y81.763 E0.12315
G1 X108.000 Y81.763 E0.02365
G1 X108.000 Y77.835 E0.12315
G1 X108.754 Y77.835 E0.02365
G1 X108.754 Y81.763 E0.12315
G1 X109.508 Y81.763 E0.02365
G1 X109.508 Y77.835 E0.12315
G1 X110.262 Y77.835 E0.02365
G1 X110.262 Y81.763 E0.12315
G1 X111.016 Y81.763 E0.02365
G1 X111.016 Y77.835 E0.12315
G1 X111.770 Y77.835 E0.02365
G1 X111.770 Y81.763 E0.12315
G1 X112.525 Y81.763 E0.02365
G1 X112.525 Y77.835 E0.12315
G1 X113.279 Y77.835 E0.02365
G1 X113.279 Y81.763 E0.12315
G1 X114.033 Y81.763 E0.02365
G1 X114.033 Y77.835 E0.12315
G1 X114.787 Y77.835 E0.02365
G1 X114.787 Y81.763 E0.12315
G1 X115.541 Y81.763 E0.02365
G1 X115.541 Y77.835 E0.12315
G1 X116.295 Y77.835 E0.02365
G1 X116.295 Y81.763 E0.12315
G1 X117.050 Y81.763 E0.02365
G1 X117.050 Y77.835 E0.12315
G1 X117.804 Y77.835 E0.02365
G1 X117.804 Y81.763 E0.12315
G1 X118.558 Y81.763 E0.02365
G1 X118.558 Y77.835 E0.12315
G1 X119.312 Y77.835 E0.02365
G1 X119.312 Y81.763 E0.12315
G1 X120.066 Y81.763 E0.02365
G1 X120.066 Y77.835 E0.12315
G1 X120.820 Y77.835 E0.02365
G1 X120.820 Y81.763 E0.12315
G1 X121.574 Y81.763 E0.02365
G1 X121.574 Y77.835 E0.12315
G1 X122.329 Y77.835 E0.02365
G1 X122.329 Y81.763 E0.12315
G1 X123.083 Y81.763 E0.02365
G1 X123.083 Y77.835 E0.12315
G1 X123.837 Y77.835 E0.02365
G1 X123.837 Y81.763 E0.12315
G1 X124.591 Y81.763 E0.02365
G1 X124.591 Y77.835 E0.12315
G1 X125.345 Y77.835 E0.02365
G1 X125.345 Y81.763 E0.12315
G1 X126.099 Y81.763 E0.02365
G1 X126.099 Y77.835 E0.12315
G1 X126.854 Y77.835 E0.02365
G1 X126.854 Y81.763 E0.12315
G1 X127.608 Y81.763 E0.02365
G1 X127.608 Y77.835 E0.12315
G1 X128.362 Y77.835 E0.02365
G1 X128.362 Y81.763 E0.12315
G1 X129.116 Y81.763 E0.02365
G1 X129.116 Y77.835 E0.12315
G1 X129.870 Y77.835 E0.02365
G1 X129.870 Y81.763 E0.12315
G1 X130.624 Y81.763 E0.02365
G1 X130.624 Y77.835 E0.12315
G1 X131.379 Y77.835 E0.02365
G1 X131.379 Y81.763 E0.12315
G1 X132.133 Y81.763 E0.02365
G1 X132.133 Y77.835 E0.12315
G1 X132.887 Y77.835 E0.02365
G1 X132.887 Y81.763 E0.12315
G1 X133.641 Y81.763 E0.02365
G1 X133.641 Y77.835 E0.12315
G1 X134.395 Y77.835 E0.02365
G1 X134.395 Y81.763 E0.12315
G1 X135.149 Y81.763 E0.02365
G1 X135.149 Y77.835 E0.12315
G1 X135.904 Y77.835 E0.02365
G1 X135.904 Y81.763 E0.12315
G1 X136.658 Y81.763 E0.02365
G1 X136.658 Y77.835 E0.12315
G1 X137.412 Y77.835 E0.02365
G1 X137.412 Y81.763 E0.12315
G1 X138.166 Y81.763 E0.02365
G1 X138.166 Y77.835 E0.12315
G1 X138.920 Y77.835 E0.02365
G1 X138.920 Y81.763 E0.12315
G1 X139.674 Y81.763 E0.02365
G1 X139.674 Y77.835 E0.12315
G1 X140.428 Y77.835 E0.02365
G1 X140.428 Y81.763 E0.12315
G1 X141.183 Y81.763 E0.02365
G1 X141.183 Y77.835 E0.12315
G1 X141.937 Y77.835 E0.02365
G1 X141.937 Y81.763 E0.12315
G1 X142.691 Y81.763 E0.02365
G1 X142.691 Y77.835 E0.12315
G1 X143.445 Y77.835 E0.02365
G1 X143.445 Y81.763 E0.12315
G1 X144.199 Y81.763 E0.02365
G1 X144.199 Y77.835 E0.12315
G1 X144.953 Y77.835 E0.02365
G1 X144.953 Y81.763 E0.12315
G1 X145.708 Y81.763 E0.02365
G1 X145.708 Y77.835 E0.12315
G1 X146.462 Y77.835 E0.02365
G1 X146.462 Y81.932 E0.12847
G1 F8640
G1 X146.462 Y78.641 E-0.76000
G1 E-0.04000 F2100.00000
G1 Z0.800 F10800.000
G1 X148.369 Y81.507
G1 Z0.200
G1 E0.80000 F2100.00000
G1 F1200
G1 X148.369 Y80.800 E0.01806
G1 X148.876 Y80.800 E0.01295
G1 X148.876 Y81.536 E0.01879
G1 X148.931 Y81.591 E0.00199
G1 X148.931 Y83.107 E0.03872
G1 X149.383 Y83.107 E0.01154
G1 X149.383 Y80.800 E0.05891
G1 X149.890 Y80.800 E0.01295
G1 X149.890 Y83.245 E0.06244
G1 X169.841 Y77.665 F10800.000
G1 F1200
G1 X169.841 Y118.371 E1.27630
G1 X169.355 Y118.371 E0.01522
G1 X169.355 Y120.678 E0.07234
G1 X169.087 Y120.678 E0.00842
G1 X169.087 Y77.835 E1.34332
G1 X168.332 Y77.835 E0.02365
G1 X168.332 Y120.678 E1.34332
G1 X167.578 Y120.678 E0.02365
G1 X167.578 Y77.835 E1.34332
G1 X166.824 Y77.835 E0.02365
G1 X166.824 Y120.678 E1.34332
G1 X166.070 Y120.678 E0.02365
G1 X166.070 Y77.835 E1.34332
G1 X165.316 Y77.835 E0.02365
G1 X165.316 Y120.678 E1.34332
G1 X164.562 Y120.678 E0.02365
G1 X164.562 Y77.835 E1.34332
G1 X163.807 Y77.835 E0.02365
G1 X163.807 Y120.678 E1.34332
G1 X163.053 Y120.678 E0.02365
G1 X163.053 Y77.835 E1.34332
G1 X162.299 Y77.835 E0.02365
G1 X162.299 Y132.214 E1.70500
G1 X163.053 Y132.214 E0.02365
G1 X163.053 Y121.670 E0.33060
G1 X163.807 Y121.670 E0.02365
G1 X163.807 Y132.214 E0.33060
G1 X164.562 Y132.214 E0.02365
G1 X164.562 Y121.670 E0.33060
G1 X165.316 Y121.670 E0.02365
G1 X165.316 Y132.214 E0.33060
G1 X166.070 Y132.214 E0.02365
G1 X166.070 Y121.670 E0.33060
G1 X166.824 Y121.670 E0.02365
G1 X166.824 Y132.214 E0.33060
G1 X167.578 Y132.214 E0.02365
G1 X167.578 Y121.670 E0.33060
G1 X168.332 Y121.670 E0.02365
G1 X168.332 Y132.214 E0.33060
G1 X169.087 Y132.214 E0.02365
G1 X169.087 Y121.670 E0.33060
G1 X169.841 Y121.670 E0.02365
G1 X169.841 Y132.214 E0.33060
G1 X170.595 Y132.214 E0.02365
G1 X170.595 Y77.835 E1.70500
G1 X171.349 Y77.835 E0.02365
G1 X171.349 Y132.214 E1.70500
M73 P5 R50
G1 X172.103 Y132.214 E0.02365
G1 X172.103 Y77.835 E1.70500
G1 X172.857 Y77.835 E0.02365
G1 X172.857 Y132.214 E1.70500
G1 X173.611 Y132.214 E0.02365
G1 X173.611 Y77.835 E1.70500
G1 X174.366 Y77.835 E0.02365
G1 X174.366 Y132.214 E1.70500
G1 X175.120 Y132.214 E0.02365
G1 X175.120 Y77.835 E1.70500
G1 X175.874 Y77.835 E0.02365
G1 X175.874 Y132.214 E1.70500
G1 X176.628 Y132.214 E0.02365
G1 X176.628 Y77.835 E1.70500
G1 X177.382 Y77.835 E0.02365
G1 X177.382 Y132.214 E1.70500
G1 X178.136 Y132.214 E0.02365
G1 X178.136 Y77.835 E1.70500
G1 X178.891 Y77.835 E0.02365
G1 X178.891 Y132.214 E1.70500
G1 X179.645 Y132.214 E0.02365
G1 X179.645 Y77.835 E1.70500
G1 X180.399 Y77.835 E0.02365
G1 X180.399 Y132.383 E1.71032
G1 X161.545 Y132.383 F10800.000
G1 F1200
G1 X161.545 Y77.835 E1.71032
G1 X160.791 Y77.835 E0.02365
G1 X160.791 Y132.214 E1.70500
G1 X160.037 Y132.214 E0.02365
G1 X160.037 Y77.835 E1.70500
G1 X159.282 Y77.835 E0.02365
G1 X159.282 Y132.214 E1.70500
G1 X158.528 Y132.214 E0.02365
G1 X158.528 Y77.835 E1.70500
G1 X157.774 Y77.835 E0.02365
G1 X157.774 Y132.214 E1.70500
G1 X157.020 Y132.214 E0.02365
G1 X157.020 Y77.835 E1.70500
G1 X156.266 Y77.835 E0.02365
G1 X156.266 Y132.214 E1.70500
G1 X155.512 Y132.214 E0.02365
G1 X155.512 Y77.835 E1.70500
G1 X154.757 Y77.835 E0.02365
G1 X154.757 Y132.214 E1.70500
M73 P7 R49
G1 X154.003 Y132.214 E0.02365
G1 X154.003 Y112.441 E0.61995
G1 X154.197 Y112.441 E0.00607
G1 X154.197 Y111.450 E0.03108
G1 X154.003 Y111.450 E0.00607
G1 X154.003 Y91.678 E0.61995
G1 X154.197 Y91.678 E0.00607
G1 X154.197 Y88.379 E0.10342
G1 X154.003 Y88.379 E0.00607
G1 X154.003 Y77.835 E0.33060
G1 X153.249 Y77.835 E0.02365
G1 X153.249 Y132.214 E1.70500
G1 X152.495 Y132.214 E0.02365
G1 X152.495 Y77.835 E1.70500
G1 X151.741 Y77.835 E0.02365
G1 X151.741 Y132.214 E1.70500
G1 X150.987 Y132.214 E0.02365
G1 X150.987 Y77.835 E1.70500
G1 X150.233 Y77.835 E0.02365
G1 X150.233 Y80.458 E0.08224
G1 X149.478 Y80.458 E0.02365
G1 X149.478 Y77.835 E0.08224
G1 X148.724 Y77.835 E0.02365
G1 X148.724 Y80.458 E0.08224
G1 X147.970 Y80.458 E0.02365
G1 X147.970 Y77.835 E0.08224
G1 X147.216 Y77.835 E0.02365
G1 X147.216 Y81.763 E0.12315
G1 X147.970 Y81.763 E0.02365
G1 X147.970 Y81.711 E0.00162
G1 X148.568 Y81.711 E0.01874
G1 X148.589 Y81.732 E0.00095
G1 X148.589 Y83.449 E0.05383
G1 X148.724 Y83.449 E0.00424
G1 X148.724 Y126.599 E1.35295
G1 X149.478 Y126.599 E0.02365
G1 X149.478 Y83.449 E1.35295
G1 X150.233 Y83.449 E0.02365
G1 X150.233 Y126.599 E1.35295
G1 X150.583 Y126.599 E0.01098
G1 X150.583 Y129.591 E0.09379
G1 X150.233 Y129.591 E0.01098
G1 X150.233 Y132.214 E0.08224
G1 X149.478 Y132.214 E0.02365
G1 X149.478 Y129.591 E0.08224
G1 X148.724 Y129.591 E0.02365
G1 X148.724 Y132.214 E0.08224
G1 X147.970 Y132.214 E0.02365
G1 X147.970 Y129.591 E0.08224
G1 X147.591 Y129.591 E0.01187
G1 X147.591 Y128.289 E0.04082
G1 X147.970 Y128.289 E0.01187
G1 X147.970 Y128.237 E0.00162
G1 X147.216 Y128.237 E0.02365
G1 X147.216 Y132.214 E0.12467
G1 X146.462 Y132.214 E0.02365
G1 X146.462 Y128.237 E0.12467
G1 X145.708 Y128.237 E0.02365
G1 X145.708 Y132.214 E0.12467
G1 X144.953 Y132.214 E0.02365
G1 X144.953 Y128.237 E0.12467
G1 X144.199 Y128.237 E0.02365
G1 X144.199 Y132.214 E0.12467
G1 X143.445 Y132.214 E0.02365
G1 X143.445 Y128.237 E0.12467
G1 X142.691 Y128.237 E0.02365
G1 X142.691 Y132.214 E0.12467
G1 X141.937 Y132.214 E0.02365
G1 X141.937 Y128.237 E0.12467
G1 X141.183 Y128.237 E0.02365
G1 X141.183 Y132.214 E0.12467
G1 X140.428 Y132.214 E0.02365
G1 X140.428 Y128.237 E0.12467
G1 X139.674 Y128.237 E0.02365
G1 X139.674 Y132.214 E0.12467
G1 X138.920 Y132.214 E0.02365
G1 X138.920 Y128.237 E0.12467
G1 X138.166 Y128.237 E0.02365
G1 X138.166 Y132.214 E0.12467
G1 X137.412 Y132.214 E0.02365
G1 X137.412 Y128.237 E0.12467
G1 X136.658 Y128.237 E0.02365
G1 X136.658 Y132.214 E0.12467
G1 X135.904 Y132.214 E0.02365
G1 X135.904 Y128.237 E0.12467
G1 X135.149 Y128.237 E0.02365
G1 X135.149 Y132.214 E0.12467
G1 X134.395 Y132.214 E0.02365
G1 X134.395 Y128.237 E0.12467
G1 X133.641 Y128.237 E0.02365
G1 X133.641 Y132.214 E0.12467
G1 X132.887 Y132.214 E0.02365
G1 X132.887 Y128.237 E0.12467
G1 X132.133 Y128.237 E0.02365
G1 X132.133 Y132.214 E0.12467
G1 X131.379 Y132.214 E0.02365
G1 X131.379 Y128.237 E0.12467
G1 X130.624 Y128.237 E0.02365
G1 X130.624 Y132.214 E0.12467
G1 X129.870 Y132.214 E0.02365
G1 X129.870 Y128.237 E0.12467
G1 X129.116 Y128.237 E0.02365
G1 X129.116 Y132.214 E0.12467
G1 X128.362 Y132.214 E0.02365
G1 X128.362 Y128.237 E0.12467
G1 X127.608 Y128.237 E0.02365
G1 X127.608 Y132.214 E0.12467
G1 X126.854 Y132.214 E0.02365
G1 X126.854 Y128.237 E0.12467
G1 X126.099 Y128.237 E0.02365
G1 X126.099 Y132.214 E0.12467
G1 X125.345 Y132.214 E0.02365
G1 X125.345 Y128.237 E0.12467
G1 X124.591 Y128.237 E0.02365
G1 X124.591 Y132.214 E0.12467
G1 X123.837 Y132.214 E0.02365
G1 X123.837 Y128.237 E0.12467
G1 X123.083 Y128.237 E0.02365
G1 X123.083 Y132.214 E0.12467
G1 X122.329 Y132.214 E0.02365
G1 X122.329 Y128.237 E0.12467
G1 X121.574 Y128.237 E0.02365
G1 X121.574 Y132.214 E0.12467
