; generated by Slic3r Prusa Edition 1.41.3+linux64 on 2019-03-09 at 14:12:51

; 

; external perimeters extrusion width = 0.45mm
; perimeters extrusion width = 0.45mm
; infill extrusion width = 0.45mm
; solid infill extrusion width = 0.45mm
; top infill extrusion width = 0.40mm
; support material extrusion width = 0.35mm
; first layer extrusion width = 0.42mm

M73 P0 R68
M201 X9000 Y9000 Z500 E10000 ; sets maximum accelerations, mm/sec^2
M203 X500 Y500 Z12 E120 ; sets maximum feedrates, mm/sec
M204 P2000 R1500 T2000 ; sets acceleration (P, T) and retract acceleration (R), mm/sec^2
M205 X10.00 Y10.00 Z0.20 E2.50 ; sets the jerk limits, mm/sec
M205 S0 T0 ; sets the minimum extruding and travel feed rate, mm/sec
M107
M115 U3.5.1 ; tell printer latest fw version
M83  ; extruder relative mode
M104 S215 ; set extruder temp
M140 S60 ; set bed temp
M190 S60 ; wait for bed temp
M109 S215 ; wait for extruder temp
G28 W ; home all without mesh bed level
G80 ; mesh bed leveling
G1 Y-3.0 F1000.0 ; go outside print area
G92 E0.0
G1 X60.0 E9.0  F1000.0 ; intro line
M73 P0 R68
G1 X100.0 E12.5  F1000.0 ; intro line
G92 E0.0
M900 K30 ; Filament gcode
G21 ; set units to millimeters
G90 ; use absolute coordinates
M83 ; use relative distances for extrusion
;BEFORE_LAYER_CHANGE
G92 E0.0
;0.2


G1 E-0.80000 F2100.00000
G1 Z0.600 F10800.000
;AFTER_LAYER_CHANGE
;0.2
G1 X73.033 Y131.885
G1 Z0.200
G1 E0.80000 F2100.00000
M204 S1000
G1 F1200
G1 X69.714 Y129.143 E0.13499
G1 X69.236 Y128.418 E0.02721
G1 X68.223 Y125.857 E0.08636
G1 X68.103 Y125.143 E0.02270
G1 X68.104 Y84.780 E1.26555
G1 X68.229 Y84.126 E0.02089
G1 X69.224 Y81.620 E0.08454
G1 X69.685 Y80.919 E0.02631
G1 X72.602 Y78.238 E0.12420
G1 X72.984 Y77.964 E0.01475
G1 X73.539 Y77.743 E0.01873
G1 X76.381 Y77.128 E0.09116
G1 X124.595 Y73.170 E1.51681
G1 X148.720 Y73.343 E0.75644
G1 X176.098 Y75.658 E0.86149
G1 X176.816 Y75.860 E0.02338
G1 X177.425 Y76.291 E0.02338
G1 X177.742 Y76.695 E0.01612
G1 X180.841 Y81.880 E0.18940
G1 X181.547 Y83.938 E0.06822
G1 X181.778 Y84.848 E0.02943
G1 X184.847 Y110.015 E0.79495
G1 X184.850 Y123.162 E0.41221
G1 X184.790 Y123.662 E0.01578
G1 X184.622 Y124.128 E0.01555
G1 X184.352 Y124.545 E0.01555
G1 X180.277 Y129.152 E0.19287
G1 X177.328 Y131.865 E0.12562
G1 X176.884 Y132.171 E0.01692
G1 X176.299 Y132.376 E0.01942
G1 X172.971 Y132.943 E0.10585
G1 X104.231 Y133.145 E2.15532
G1 X76.828 Y132.926 E0.85923
G1 X75.389 Y132.673 E0.04579
G1 X73.090 Y131.904 E0.07601
; PURGING FINISHED
G1 F8640
G1 X70.542 Y129.820 E-0.76000
G1 E-0.04000 F2100.00000
G1 Z0.800 F10800.000
G1 X74.062 Y128.099
G1 Z0.200
G1 E0.80000 F2100.00000
G1 F1200
G1 X74.062 Y129.953 E0.05815
G1 X74.817 Y130.202 E0.02490
G1 X74.817 Y128.796 E0.04411
G1 X75.177 Y128.981 E0.01270
G1 X75.571 Y129.149 E0.01344
G1 X75.571 Y130.451 E0.04081
G1 X76.325 Y130.642 E0.02439
G1 X76.325 Y129.397 E0.03904
G1 X77.079 Y129.548 E0.02412
G1 X77.079 Y130.752 E0.03775
G1 X77.833 Y130.786 E0.02367
G1 X77.833 Y129.610 E0.03690
G1 X78.587 Y129.614 E0.02365
G1 X78.587 Y130.786 E0.03677
G1 X79.342 Y130.786 E0.02365
G1 X79.342 Y129.614 E0.03677
G1 X80.096 Y129.614 E0.02365
G1 X80.096 Y130.786 E0.03677
G1 X80.850 Y130.786 E0.02365
G1 X80.850 Y129.614 E0.03677
G1 X81.604 Y129.614 E0.02365
G1 X81.604 Y130.786 E0.03677
G1 X82.358 Y130.786 E0.02365
G1 X82.358 Y129.614 E0.03677
G1 X83.112 Y129.614 E0.02365
G1 X83.112 Y130.786 E0.03677
G1 X83.867 Y130.786 E0.02365
G1 X83.867 Y129.614 E0.03677
G1 X84.621 Y129.614 E0.02365
G1 X84.621 Y130.786 E0.03677
G1 X85.375 Y130.786 E0.02365
G1 X85.375 Y129.614 E0.03677
G1 X86.129 Y129.614 E0.02365
G1 X86.129 Y130.786 E0.03677
G1 X86.883 Y130.786 E0.02365
G1 X86.883 Y129.614 E0.03677
G1 X87.637 Y129.614 E0.02365
G1 X87.637 Y130.786 E0.03677
G1 X88.391 Y130.786 E0.02365
G1 X88.391 Y129.614 E0.03677
G1 X89.146 Y129.614 E0.02365
G1 X89.146 Y130.786 E0.03677
G1 X89.900 Y130.786 E0.02365
G1 X89.900 Y129.614 E0.03677
G1 X90.654 Y129.614 E0.02365
G1 X90.654 Y130.786 E0.03677
G1 X91.408 Y130.786 E0.02365
G1 X91.408 Y129.614 E0.03677
G1 X92.162 Y129.614 E0.02365
G1 X92.162 Y130.786 E0.03677
G1 X92.916 Y130.786 E0.02365
G1 X92.916 Y129.614 E0.03677
G1 X93.671 Y129.614 E0.02365
G1 X93.671 Y130.786 E0.03677
G1 X94.425 Y130.786 E0.02365
G1 X94.425 Y129.614 E0.03677
G1 X95.179 Y129.614 E0.02365
G1 X95.179 Y130.786 E0.03677
G1 X95.933 Y130.786 E0.02365
G1 X95.933 Y129.614 E0.03677
G1 X96.687 Y129.614 E0.02365
G1 X96.687 Y130.786 E0.03677
G1 X97.441 Y130.786 E0.02365
G1 X97.441 Y129.614 E0.03677
G1 X98.196 Y129.614 E0.02365
G1 X98.196 Y130.786 E0.03677
G1 X98.950 Y130.786 E0.02365
G1 X98.950 Y129.614 E0.03677
G1 X99.704 Y129.614 E0.02365
G1 X99.704 Y130.786 E0.03677
G1 X100.458 Y130.786 E0.02365
G1 X100.458 Y129.614 E0.03677
G1 X101.212 Y129.614 E0.02365
G1 X101.212 Y130.786 E0.03677
G1 X101.966 Y130.786 E0.02365
G1 X101.966 Y129.614 E0.03677
G1 X102.721 Y129.614 E0.02365
G1 X102.721 Y130.786 E0.03677
G1 X103.475 Y130.786 E0.02365
G1 X103.475 Y129.614 E0.03677
G1 X104.229 Y129.614 E0.02365
G1 X104.229 Y130.956 E0.04209
G1 F8640
G1 X104.229 Y129.614 E-0.30999
G1 X103.475 Y129.614 E-0.17414
G1 X103.475 Y130.786 E-0.27081
G1 X103.453 Y130.786 E-0.00507
G1 E-0.04000 F2100.00000
G1 Z0.800 F10800.000
G1 X111.770 Y127.769
G1 Z0.200
G1 E0.80000 F2100.00000
G1 F1200
G1 X111.770 Y82.449 E1.42097
G1 X111.016 Y82.449 E0.02365
G1 X111.016 Y127.599 E1.41565
G1 X110.262 Y127.599 E0.02365
G1 X110.262 Y82.449 E1.41565
G1 X109.508 Y82.449 E0.02365
G1 X109.508 Y127.599 E1.41565
G1 X108.754 Y127.599 E0.02365
G1 X108.754 Y82.449 E1.41565
G1 X108.000 Y82.449 E0.02365
G1 X108.000 Y127.599 E1.41565
G1 X107.245 Y127.599 E0.02365
G1 X107.245 Y82.449 E1.41565
G1 X106.491 Y82.449 E0.02365
G1 X106.491 Y127.599 E1.41565
G1 X105.737 Y127.599 E0.02365
G1 X105.737 Y82.449 E1.41565
G1 X104.983 Y82.449 E0.02365
G1 X104.983 Y127.599 E1.41565
G1 X104.757 Y127.599 E0.00709
G1 X104.757 Y127.786 E0.00586
G1 X104.229 Y127.786 E0.01656
G1 X104.229 Y82.214 E1.42891
G1 X103.475 Y82.214 E0.02365
G1 X103.475 Y127.786 E1.42891
G1 X102.721 Y127.786 E0.02365
G1 X102.721 Y82.214 E1.42891
G1 X101.966 Y82.214 E0.02365
G1 X101.966 Y127.786 E1.42891
G1 X101.212 Y127.786 E0.02365
G1 X101.212 Y82.214 E1.42891
G1 X100.458 Y82.214 E0.02365
G1 X100.458 Y127.786 E1.42891
M73 P1 R67
G1 X99.704 Y127.786 E0.02365
G1 X99.704 Y82.214 E1.42891
G1 X98.950 Y82.214 E0.02365
G1 X98.950 Y127.786 E1.42891
G1 X98.196 Y127.786 E0.02365
G1 X98.196 Y82.214 E1.42891
G1 X97.441 Y82.214 E0.02365
G1 X97.441 Y127.786 E1.42891
G1 X96.687 Y127.786 E0.02365
G1 X96.687 Y82.214 E1.42891
G1 X95.933 Y82.214 E0.02365
G1 X95.933 Y127.786 E1.42891
G1 X95.179 Y127.786 E0.02365
G1 X95.179 Y82.214 E1.42891
G1 X94.425 Y82.214 E0.02365
G1 X94.425 Y127.786 E1.42891
G1 X93.671 Y127.786 E0.02365
G1 X93.671 Y82.214 E1.42891
G1 X92.916 Y82.214 E0.02365
G1 X92.916 Y127.786 E1.42891
G1 X92.162 Y127.786 E0.02365
G1 X92.162 Y82.214 E1.42891
G1 X91.408 Y82.214 E0.02365
G1 X91.408 Y127.786 E1.42891
G1 X90.654 Y127.786 E0.02365
G1 X90.654 Y82.214 E1.42891
G1 X89.900 Y82.214 E0.02365
G1 X89.900 Y127.786 E1.42891
G1 X89.146 Y127.786 E0.02365
G1 X89.146 Y82.214 E1.42891
G1 X88.391 Y82.214 E0.02365
G1 X88.391 Y127.786 E1.42891
G1 X87.637 Y127.786 E0.02365
G1 X87.637 Y82.214 E1.42891
G1 X86.883 Y82.214 E0.02365
G1 X86.883 Y127.786 E1.42891
G1 X86.129 Y127.786 E0.02365
G1 X86.129 Y82.214 E1.42891
G1 X85.375 Y82.214 E0.02365
G1 X85.375 Y127.786 E1.42891
G1 X84.621 Y127.786 E0.02365
G1 X84.621 Y82.214 E1.42891
G1 X83.867 Y82.214 E0.02365
G1 X83.867 Y127.786 E1.42891
G1 X83.112 Y127.786 E0.02365
G1 X83.112 Y82.214 E1.42891
G1 X82.358 Y82.214 E0.02365
G1 X82.358 Y127.786 E1.42891
G1 X81.604 Y127.786 E0.02365
G1 X81.604 Y82.214 E1.42891
G1 X80.850 Y82.214 E0.02365
G1 X80.850 Y127.786 E1.42891
M73 P3 R66
G1 X80.096 Y127.786 E0.02365
G1 X80.096 Y82.214 E1.42891
G1 X79.342 Y82.214 E0.02365
G1 X79.342 Y127.786 E1.42891
G1 X78.587 Y127.786 E0.02365
G1 X78.587 Y82.214 E1.42891
G1 X77.833 Y82.214 E0.02365
G1 X77.833 Y84.985 E0.08688
G1 X77.639 Y84.852 E0.00738
G1 X77.477 Y84.776 E0.00559
G1 X77.253 Y84.711 E0.00733
G1 X77.079 Y84.689 E0.00549
G1 X77.079 Y82.272 E0.07579
G1 X76.686 Y82.351 E0.01259
G1 X76.325 Y82.459 E0.01180
G1 X76.325 Y84.874 E0.07572
G1 X76.047 Y85.096 E0.01116
G1 X75.852 Y85.361 E0.01032
G1 X75.729 Y85.667 E0.01032
G1 X75.686 Y85.993 E0.01033
G1 X75.726 Y86.321 E0.01034
G1 X75.852 Y86.639 E0.01072
G1 X76.047 Y86.904 E0.01032
G1 X76.325 Y87.126 E0.01116
G1 X76.325 Y122.874 E1.12083
G1 X76.510 Y122.781 E0.00649
G1 X76.679 Y122.726 E0.00558
G1 X76.842 Y122.696 E0.00518
G1 X77.072 Y122.689 E0.00722
G1 X77.079 Y87.311 E1.10923
G1 X77.253 Y87.289 E0.00548
G1 X77.478 Y87.224 E0.00735
G1 X77.639 Y87.148 E0.00558
G1 X77.833 Y87.015 E0.00738
G1 X77.833 Y97.607 E0.33210
G1 X78.063 Y97.607 E0.00721
G1 X78.063 Y98.599 E0.03108
G1 X77.833 Y98.599 E0.00721
G1 X77.833 Y118.371 E0.61995
G1 X78.063 Y118.371 E0.00721
G1 X78.063 Y123.229 E0.15231
G1 X78.154 Y123.373 E0.00535
G1 X78.247 Y123.588 E0.00734
G1 X78.292 Y123.760 E0.00558
G1 X78.314 Y123.993 E0.00734
G1 X78.289 Y124.253 E0.00816
G1 X78.186 Y124.565 E0.01031
G1 X78.016 Y124.832 E0.00992
G1 X77.833 Y125.015 E0.00813
G1 X77.833 Y127.786 E0.08688
G1 X77.350 Y127.764 E0.01515
G1 X77.079 Y127.728 E0.00858
G1 X77.079 Y125.311 E0.07579
G1 X76.911 Y125.311 E0.00527
G1 X76.679 Y125.274 E0.00736
G1 X76.510 Y125.219 E0.00557
G1 X76.325 Y125.126 E0.00649
G1 X76.325 Y127.541 E0.07572
G1 X75.839 Y127.346 E0.01642
G1 X75.571 Y127.207 E0.00948
G1 X75.571 Y82.793 E1.39255
G1 X75.252 Y82.987 E0.01169
G1 X74.817 Y83.318 E0.01716
G1 X74.817 Y126.682 E1.35963
G1 X74.402 Y126.280 E0.01811
G1 X74.062 Y125.856 E0.01703
G1 X74.062 Y84.144 E1.30783
G1 X73.755 Y84.638 E0.01823
G1 X73.563 Y85.045 E0.01411
G1 X73.411 Y85.469 E0.01411
G1 X73.308 Y85.876 E0.01318
G1 X73.308 Y124.761 E1.21920
G1 F8640
G1 X73.308 Y121.469 E-0.76000
G1 E-0.04000 F2100.00000
G1 Z0.800 F10800.000
G1 X70.292 Y125.143
G1 Z0.200
G1 E0.80000 F2100.00000
G1 F1200
G1 X70.292 Y84.857 E1.26314
G1 X72.554 Y82.280 F10800.000
G1 F1200
G1 X72.554 Y83.250 E0.03043
G1 X72.165 Y83.887 E0.02341
G1 X72.019 Y84.177 E0.01017
G1 X71.800 Y84.702 E0.01783
G1 X71.800 Y82.449 E0.07063
G1 X71.250 Y82.449 E0.01726
G1 X71.046 Y83.066 E0.02036
G1 X71.046 Y126.934 E1.37547
G1 X71.266 Y127.599 E0.02196
G1 X71.800 Y127.599 E0.01676
G1 X71.800 Y125.298 E0.07215
G1 X72.019 Y125.823 E0.01783
G1 X72.165 Y126.113 E0.01018
G1 X72.554 Y126.750 E0.02340
G1 X72.554 Y127.769 E0.03196
G1 F8640
G1 X72.554 Y126.750 E-0.23534
G1 X72.165 Y126.113 E-0.17231
G1 X72.019 Y125.823 E-0.07495
G1 X71.800 Y125.298 E-0.13133
G1 X71.800 Y125.931 E-0.14606
G1 E-0.04000 F2100.00000
G1 Z0.800 F10800.000
G1 X112.525 Y116.886
G1 Z0.200
G1 E0.80000 F2100.00000
G1 F1200
G1 X112.525 Y127.599 E0.33592
G1 X113.279 Y127.599 E0.02365
G1 X113.279 Y117.055 E0.33060
G1 X114.033 Y117.055 E0.02365
G1 X114.033 Y127.599 E0.33060
G1 X114.787 Y127.599 E0.02365
G1 X114.787 Y117.055 E0.33060
G1 X115.541 Y117.055 E0.02365
G1 X115.541 Y127.599 E0.33060
G1 X116.295 Y127.599 E0.02365
G1 X116.295 Y117.055 E0.33060
G1 X117.050 Y117.055 E0.02365
G1 X117.050 Y127.599 E0.33060
G1 X117.804 Y127.599 E0.02365
G1 X117.804 Y117.055 E0.33060
G1 X118.558 Y117.055 E0.02365
G1 X118.558 Y127.599 E0.33060
G1 X119.312 Y127.599 E0.02365
G1 X119.312 Y117.055 E0.33060
G1 X120.066 Y117.055 E0.02365
G1 X120.066 Y127.599 E0.33060
G1 X120.820 Y127.599 E0.02365
G1 X120.820 Y117.055 E0.33060
G1 X121.574 Y117.055 E0.02365
G1 X121.574 Y127.599 E0.33060
G1 X122.329 Y127.599 E0.02365
G1 X122.329 Y117.055 E0.33060
G1 X123.083 Y117.055 E0.02365
G1 X123.083 Y127.599 E0.33060
G1 X123.837 Y127.599 E0.02365
G1 X123.837 Y117.055 E0.33060
G1 X124.591 Y117.055 E0.02365
G1 X124.591 Y127.599 E0.33060
G1 X125.345 Y127.599 E0.02365
G1 X125.345 Y117.055 E0.33060
G1 X126.099 Y117.055 E0.02365
G1 X126.099 Y127.599 E0.33060
G1 X126.854 Y127.599 E0.02365
G1 X126.854 Y117.055 E0.33060
G1 X127.608 Y117.055 E0.02365
G1 X127.608 Y127.599 E0.33060
G1 X128.362 Y127.599 E0.02365
G1 X128.362 Y117.055 E0.33060
G1 X129.116 Y117.055 E0.02365
G1 X129.116 Y127.599 E0.33060
G1 X129.870 Y127.599 E0.02365
G1 X129.870 Y117.055 E0.33060
G1 X130.624 Y117.055 E0.02365
G1 X130.624 Y127.599 E0.33060
G1 X131.379 Y127.599 E0.02365
G1 X131.379 Y117.055 E0.33060
G1 X132.133 Y117.055 E0.02365
G1 X132.133 Y127.599 E0.33060
G1 X132.887 Y127.599 E0.02365
G1 X132.887 Y117.055 E0.33060
G1 X133.641 Y117.055 E0.02365
G1 X133.641 Y127.599 E0.33060
G1 X134.395 Y127.599 E0.02365
G1 X134.395 Y117.055 E0.33060
G1 X135.149 Y117.055 E0.02365
G1 X135.149 Y127.599 E0.33060
G1 X135.904 Y127.599 E0.02365
G1 X135.904 Y117.055 E0.33060
G1 X136.658 Y117.055 E0.02365
G1 X136.658 Y127.599 E0.33060
G1 X137.412 Y127.599 E0.02365
G1 X137.412 Y117.055 E0.33060
G1 X138.166 Y117.055 E0.02365
G1 X138.166 Y127.599 E0.33060
G1 X138.920 Y127.599 E0.02365
G1 X138.920 Y117.055 E0.33060
G1 X139.674 Y117.055 E0.02365
G1 X139.674 Y127.599 E0.33060
G1 X140.428 Y127.599 E0.02365
G1 X140.428 Y75.528 E1.63266
G1 X141.183 Y75.528 E0.02365
G1 X141.183 Y127.599 E1.63266
G1 X141.937 Y127.599 E0.02365
G1 X141.937 Y75.528 E1.63266
G1 X142.691 Y75.528 E0.02365
G1 X142.691 Y127.599 E1.63266
M73 P4 R65
G1 X143.445 Y127.599 E0.02365
G1 X143.445 Y75.528 E1.63266
G1 X144.199 Y75.528 E0.02365
G1 X144.199 Y127.599 E1.63266
G1 X144.953 Y127.599 E0.02365
G1 X144.953 Y82.138 E1.42540
G1 X144.786 Y81.971 E0.00740
G1 X144.786 Y80.971 E0.03136
G1 X144.733 Y80.697 E0.00876
G1 X144.953 Y80.421 E0.01109
G1 X144.953 Y75.528 E0.15341
G1 X145.708 Y75.528 E0.02365
G1 X145.708 Y80.386 E0.15233
G1 X146.462 Y80.386 E0.02365
G1 X146.462 Y75.528 E0.15233
G1 X147.216 Y75.528 E0.02365
G1 X147.216 Y80.386 E0.15233
G1 X147.970 Y80.386 E0.02365
G1 X147.970 Y75.528 E0.15233
G1 X148.591 Y75.528 E0.01948
G1 X148.591 Y79.214 E0.11556
G1 X148.724 Y79.214 E0.00416
G1 X148.724 Y80.386 E0.03677
G1 X149.478 Y80.386 E0.02365
G1 X149.478 Y79.214 E0.03677
G1 X150.233 Y79.214 E0.02365
G1 X150.233 Y80.386 E0.03677
G1 X150.987 Y80.386 E0.02365
G1 X150.987 Y79.214 E0.03677
G1 X151.741 Y79.214 E0.02365
G1 X151.741 Y80.386 E0.03677
G1 X152.495 Y80.386 E0.02365
G1 X152.495 Y79.214 E0.03677
G1 X153.249 Y79.214 E0.02365
G1 X153.249 Y80.386 E0.03677
G1 X154.003 Y80.386 E0.02365
G1 X154.003 Y79.214 E0.03677
G1 X154.757 Y79.214 E0.02365
G1 X154.757 Y80.386 E0.03677
G1 X155.512 Y80.386 E0.02365
G1 X155.512 Y79.214 E0.03677
G1 X156.266 Y79.214 E0.02365
G1 X156.266 Y80.386 E0.03677
G1 X157.020 Y80.386 E0.02365
G1 X157.020 Y79.214 E0.03677
G1 X157.774 Y79.214 E0.02365
G1 X157.774 Y80.386 E0.03677
G1 X158.528 Y80.386 E0.02365
G1 X158.528 Y79.214 E0.03677
G1 X159.282 Y79.214 E0.02365
G1 X159.282 Y80.386 E0.03677
G1 X160.037 Y80.386 E0.02365
G1 X160.037 Y79.214 E0.03677
G1 X160.791 Y79.214 E0.02365
G1 X160.791 Y80.386 E0.03677
G1 X161.545 Y80.386 E0.02365
G1 X161.545 Y79.214 E0.03677
G1 X162.299 Y79.214 E0.02365
G1 X162.299 Y80.386 E0.03677
G1 X163.053 Y80.386 E0.02365
G1 X163.053 Y79.214 E0.03677
G1 X163.807 Y79.214 E0.02365
G1 X163.807 Y80.386 E0.03677
G1 X164.562 Y80.386 E0.02365
G1 X164.562 Y79.214 E0.03677
G1 X165.316 Y79.214 E0.02365
G1 X165.316 Y80.386 E0.03677
G1 X166.070 Y80.386 E0.02365
G1 X166.070 Y79.214 E0.03677
G1 X166.824 Y79.214 E0.02365
G1 X166.824 Y80.386 E0.03677
G1 X167.578 Y80.386 E0.02365
G1 X167.578 Y79.214 E0.03677
G1 X168.332 Y79.214 E0.02365
G1 X168.332 Y80.386 E0.03677
G1 X169.087 Y80.386 E0.02365
G1 X169.087 Y79.214 E0.03677
G1 X169.841 Y79.214 E0.02365
G1 X169.841 Y80.386 E0.03677
G1 X170.595 Y80.386 E0.02365
G1 X170.595 Y77.835 E0.08000
G1 X171.349 Y77.835 E0.02365
G1 X171.349 Y80.386 E0.08000
G1 X172.103 Y80.389 E0.02365
G1 X172.103 Y77.835 E0.08007
G1 X172.857 Y77.835 E0.02365
G1 X172.857 Y80.444 E0.08180
G1 X173.611 Y80.586 E0.02406
G1 X173.611 Y77.835 E0.08625
G1 X174.366 Y77.835 E0.02365
G1 X174.366 Y80.826 E0.09378
G1 X174.823 Y81.019 E0.01557
G1 X175.120 Y81.169 E0.01041
G1 X175.120 Y77.835 E0.10452
G1 X175.874 Y77.835 E0.02365
G1 X175.874 Y81.852 E0.12594
G1 F8640
G1 X175.874 Y78.560 E-0.76000
G1 E-0.04000 F2100.00000
