; generated by Slic3r Prusa Edition 1.41.3+linux64 on 2019-03-08 at 23:33:08

; 

; external perimeters extrusion width = 0.45mm
; perimeters extrusion width = 0.45mm
; infill extrusion width = 0.45mm
; solid infill extrusion width = 0.45mm
; top infill extrusion width = 0.40mm
; support material extrusion width = 0.35mm
; first layer extrusion width = 0.42mm

M73 P0 R59
M201 X9000 Y9000 Z500 E10000 ; sets maximum accelerations, mm/sec^2
M203 X500 Y500 Z12 E120 ; sets maximum feedrates, mm/sec
M204 P2000 R1500 T2000 ; sets acceleration (P, T) and retract acceleration (R), mm/sec^2
M205 X10.00 Y10.00 Z0.20 E2.50 ; sets the jerk limits, mm/sec
M205 S0 T0 ; sets the minimum extruding and travel feed rate, mm/sec
M107
M115 U3.5.1 ; tell printer latest fw version
M83  ; extruder relative mode
M104 S215 ; set extruder temp
M140 S60 ; set bed temp
M190 S60 ; wait for bed temp
M109 S215 ; wait for extruder temp
G28 W ; home all without mesh bed level
G80 ; mesh bed leveling
G1 Y-3.0 F1000.0 ; go outside print area
G92 E0.0
G1 X60.0 E9.0  F1000.0 ; intro line
M73 P0 R59
G1 X100.0 E12.5  F1000.0 ; intro line
G92 E0.0
M900 K30 ; Filament gcode
G21 ; set units to millimeters
G90 ; use absolute coordinates
M83 ; use relative distances for extrusion
;BEFORE_LAYER_CHANGE
G92 E0.0
;0.2


G1 E-0.80000 F2100.00000
G1 Z0.600 F10800.000
;AFTER_LAYER_CHANGE
;0.2
G1 X69.955 Y80.107
G1 Z0.200
G1 E0.80000 F2100.00000
M204 S1000
G1 F1200
G1 X73.141 Y77.883 E0.12183
G1 X76.391 Y77.127 E0.10461
G1 X124.595 Y73.170 E1.51648
G1 X148.720 Y73.343 E0.75644
G1 X176.098 Y75.658 E0.86149
G1 X176.816 Y75.860 E0.02338
G1 X177.425 Y76.291 E0.02338
G1 X177.742 Y76.695 E0.01612
G1 X180.841 Y81.880 E0.18940
G1 X181.547 Y83.938 E0.06822
G1 X181.778 Y84.848 E0.02943
G1 X184.847 Y110.015 E0.79495
G1 X184.850 Y123.162 E0.41221
G1 X184.790 Y123.662 E0.01578
G1 X184.622 Y124.128 E0.01555
G1 X184.352 Y124.545 E0.01555
G1 X180.277 Y129.152 E0.19287
G1 X177.328 Y131.865 E0.12562
G1 X176.884 Y132.171 E0.01692
G1 X176.299 Y132.376 E0.01942
G1 X172.973 Y132.942 E0.10578
G1 X104.231 Y133.145 E2.15539
G1 X76.829 Y132.927 E0.85919
G1 X75.393 Y132.674 E0.04571
G1 X73.034 Y131.890 E0.07794
G1 X69.715 Y129.144 E0.13508
G1 X69.241 Y128.430 E0.02687
G1 X68.229 Y125.874 E0.08617
G1 X68.105 Y125.224 E0.02078
G1 X68.103 Y84.848 E1.26594
G1 X68.222 Y84.149 E0.02225
G1 X69.478 Y80.844 E0.11084
G1 X69.923 Y80.157 E0.02566
; PURGING FINISHED
G1 F8640
G1 X72.611 Y78.258 E-0.76000
G1 E-0.04000 F2100.00000
G1 Z0.800 F10800.000
G1 X74.062 Y79.868
G1 Z0.200
G1 E0.80000 F2100.00000
G1 F1200
G1 X74.062 Y81.686 E0.05701
G1 X74.330 Y81.498 E0.01025
G1 X74.817 Y81.204 E0.01782
G1 X74.817 Y79.798 E0.04411
G1 X75.571 Y79.548 E0.02490
G1 X75.571 Y80.850 E0.04083
G1 X76.325 Y80.603 E0.02488
G1 X76.325 Y79.359 E0.03903
G1 X77.079 Y79.248 E0.02390
G1 X77.079 Y80.452 E0.03775
G1 X77.833 Y80.390 E0.02372
G1 X77.833 Y79.214 E0.03690
G1 X78.587 Y79.214 E0.02365
G1 X78.587 Y80.386 E0.03677
G1 X79.342 Y80.386 E0.02365
G1 X79.342 Y79.214 E0.03677
G1 X80.096 Y79.214 E0.02365
G1 X80.096 Y80.386 E0.03677
G1 X80.850 Y80.386 E0.02365
G1 X80.850 Y79.214 E0.03677
G1 X81.604 Y79.214 E0.02365
G1 X81.604 Y80.386 E0.03677
G1 X82.358 Y80.386 E0.02365
G1 X82.358 Y79.214 E0.03677
G1 X83.112 Y79.214 E0.02365
G1 X83.112 Y80.386 E0.03677
G1 X83.867 Y80.386 E0.02365
G1 X83.867 Y79.214 E0.03677
G1 X84.621 Y79.214 E0.02365
G1 X84.621 Y80.386 E0.03677
G1 X85.375 Y80.386 E0.02365
G1 X85.375 Y79.214 E0.03677
G1 X86.129 Y79.214 E0.02365
G1 X86.129 Y80.386 E0.03677
G1 X86.883 Y80.386 E0.02365
G1 X86.883 Y79.214 E0.03677
G1 X87.637 Y79.214 E0.02365
G1 X87.637 Y80.386 E0.03677
G1 X88.391 Y80.386 E0.02365
G1 X88.391 Y79.214 E0.03677
G1 X89.146 Y79.214 E0.02365
G1 X89.146 Y80.386 E0.03677
G1 X89.900 Y80.386 E0.02365
G1 X89.900 Y79.214 E0.03677
G1 X90.654 Y79.214 E0.02365
G1 X90.654 Y80.386 E0.03677
G1 X91.408 Y80.386 E0.02365
G1 X91.408 Y79.214 E0.03677
G1 X92.162 Y79.214 E0.02365
G1 X92.162 Y80.386 E0.03677
G1 X92.916 Y80.386 E0.02365
G1 X92.916 Y79.214 E0.03677
G1 X93.671 Y79.214 E0.02365
G1 X93.671 Y80.386 E0.03677
G1 X94.425 Y80.386 E0.02365
G1 X94.425 Y79.214 E0.03677
G1 X95.179 Y79.214 E0.02365
G1 X95.179 Y80.386 E0.03677
G1 X95.933 Y80.386 E0.02365
G1 X95.933 Y79.214 E0.03677
G1 X96.687 Y79.214 E0.02365
G1 X96.687 Y80.386 E0.03677
G1 X97.441 Y80.386 E0.02365
G1 X97.441 Y79.214 E0.03677
G1 X98.196 Y79.214 E0.02365
G1 X98.196 Y80.386 E0.03677
G1 X98.950 Y80.386 E0.02365
G1 X98.950 Y79.214 E0.03677
G1 X99.704 Y79.214 E0.02365
G1 X99.704 Y80.386 E0.03677
G1 X100.458 Y80.386 E0.02365
G1 X100.458 Y79.214 E0.03677
G1 X101.212 Y79.214 E0.02365
G1 X101.212 Y80.386 E0.03677
G1 X101.966 Y80.386 E0.02365
G1 X101.966 Y79.214 E0.03677
G1 X102.721 Y79.214 E0.02365
G1 X102.721 Y80.386 E0.03677
G1 X103.475 Y80.386 E0.02365
G1 X103.475 Y79.214 E0.03677
G1 X104.229 Y79.214 E0.02365
G1 X104.229 Y80.556 E0.04209
G1 F8640
G1 X104.229 Y79.214 E-0.30999
G1 X103.475 Y79.214 E-0.17414
G1 X103.475 Y80.386 E-0.27081
G1 X103.453 Y80.386 E-0.00506
G1 E-0.04000 F2100.00000
G1 Z0.800 F10800.000
G1 X112.525 Y95.470
G1 Z0.200
G1 E0.80000 F2100.00000
G1 F1200
G1 X112.525 Y82.449 E0.40826
G1 X113.279 Y82.449 E0.02365
G1 X113.279 Y95.300 E0.40294
G1 X114.033 Y95.300 E0.02365
G1 X114.033 Y82.449 E0.40294
G1 X114.787 Y82.449 E0.02365
G1 X114.787 Y95.300 E0.40294
G1 X115.541 Y95.300 E0.02365
G1 X115.541 Y82.449 E0.40294
G1 X116.295 Y82.449 E0.02365
G1 X116.295 Y95.300 E0.40294
G1 X117.050 Y95.300 E0.02365
G1 X117.050 Y82.449 E0.40294
G1 X117.804 Y82.449 E0.02365
G1 X117.804 Y95.300 E0.40294
G1 X118.558 Y95.300 E0.02365
G1 X118.558 Y82.449 E0.40294
G1 X119.312 Y82.449 E0.02365
G1 X119.312 Y95.300 E0.40294
G1 X120.066 Y95.300 E0.02365
G1 X120.066 Y82.449 E0.40294
G1 X120.820 Y82.449 E0.02365
G1 X120.820 Y95.300 E0.40294
G1 X121.574 Y95.300 E0.02365
G1 X121.574 Y82.449 E0.40294
G1 X122.329 Y82.449 E0.02365
G1 X122.329 Y95.300 E0.40294
G1 X123.083 Y95.300 E0.02365
G1 X123.083 Y82.449 E0.40294
G1 X123.837 Y82.449 E0.02365
G1 X123.837 Y95.300 E0.40294
G1 X124.591 Y95.300 E0.02365
G1 X124.591 Y82.214 E0.41033
G1 X125.345 Y82.214 E0.02365
G1 X125.345 Y95.300 E0.41033
G1 X126.099 Y95.300 E0.02365
G1 X126.099 Y82.214 E0.41033
G1 X126.854 Y82.214 E0.02365
G1 X126.854 Y95.300 E0.41033
G1 X127.608 Y95.300 E0.02365
G1 X127.608 Y82.214 E0.41033
G1 X128.362 Y82.214 E0.02365
G1 X128.362 Y95.470 E0.41565
G1 X139.674 Y95.470 F10800.000
G1 F1200
G1 X139.674 Y75.528 E0.62527
G1 X138.920 Y75.528 E0.02365
G1 X138.920 Y95.300 E0.61995
G1 X138.166 Y95.300 E0.02365
G1 X138.166 Y75.528 E0.61995
G1 X137.412 Y75.528 E0.02365
G1 X137.412 Y95.300 E0.61995
G1 X136.658 Y95.300 E0.02365
G1 X136.658 Y75.528 E0.61995
G1 X135.904 Y75.528 E0.02365
G1 X135.904 Y95.300 E0.61995
G1 X135.149 Y95.300 E0.02365
G1 X135.149 Y75.528 E0.61995
G1 X134.395 Y75.528 E0.02365
G1 X134.395 Y95.300 E0.61995
G1 X133.641 Y95.300 E0.02365
G1 X133.641 Y75.528 E0.61995
G1 X132.887 Y75.528 E0.02365
G1 X132.887 Y95.300 E0.61995
G1 X132.133 Y95.300 E0.02365
G1 X132.133 Y75.528 E0.61995
G1 X131.379 Y75.528 E0.02365
G1 X131.379 Y95.300 E0.61995
G1 X130.624 Y95.300 E0.02365
G1 X130.624 Y75.528 E0.61995
G1 X129.870 Y75.528 E0.02365
G1 X129.870 Y95.300 E0.61995
G1 X129.116 Y95.300 E0.02365
G1 X129.116 Y75.528 E0.61995
G1 X128.362 Y75.528 E0.02365
G1 X128.362 Y80.386 E0.15233
G1 X127.608 Y80.386 E0.02365
G1 X127.608 Y75.528 E0.15233
G1 X126.854 Y75.528 E0.02365
G1 X126.854 Y80.386 E0.15233
G1 X126.099 Y80.386 E0.02365
G1 X126.099 Y75.528 E0.15233
G1 X125.345 Y75.528 E0.02365
G1 X125.345 Y80.386 E0.15233
G1 X124.591 Y80.386 E0.02365
G1 X124.591 Y75.358 E0.15765
G1 F8640
G1 X124.591 Y78.650 E-0.76000
G1 E-0.04000 F2100.00000
G1 Z0.800 F10800.000
G1 X145.708 Y82.044
G1 Z0.200
G1 E0.80000 F2100.00000
G1 F1200
G1 X145.708 Y127.786 E1.43423
M73 P1 R58
G1 X146.462 Y127.786 E0.02365
G1 X146.462 Y82.214 E1.42891
G1 X147.216 Y82.214 E0.02365
G1 X147.216 Y127.786 E1.42891
G1 X147.970 Y127.786 E0.02365
G1 X147.970 Y82.214 E1.42891
G1 X148.724 Y82.214 E0.02365
G1 X148.724 Y127.786 E1.42891
G1 X149.478 Y127.786 E0.02365
G1 X149.478 Y82.214 E1.42891
G1 X150.233 Y82.214 E0.02365
G1 X150.233 Y127.786 E1.42891
G1 X150.987 Y127.786 E0.02365
G1 X150.987 Y82.214 E1.42891
G1 X151.741 Y82.214 E0.02365
G1 X151.741 Y127.786 E1.42891
G1 X152.495 Y127.786 E0.02365
G1 X152.495 Y82.214 E1.42891
G1 X153.249 Y82.214 E0.02365
G1 X153.249 Y127.786 E1.42891
G1 X154.003 Y127.786 E0.02365
G1 X154.003 Y123.977 E0.11945
G1 X154.197 Y123.977 E0.00607
G1 X154.197 Y118.371 E0.17576
G1 X154.003 Y118.371 E0.00607
G1 X154.003 Y98.599 E0.61995
G1 X154.197 Y98.599 E0.00607
G1 X154.197 Y97.607 E0.03108
G1 X154.003 Y97.607 E0.00607
G1 X154.003 Y82.214 E0.48266
G1 X154.757 Y82.214 E0.02365
G1 X154.757 Y127.786 E1.42891
G1 X155.512 Y127.786 E0.02365
G1 X155.512 Y82.214 E1.42891
G1 X156.266 Y82.214 E0.02365
G1 X156.266 Y127.786 E1.42891
G1 X157.020 Y127.786 E0.02365
G1 X157.020 Y82.214 E1.42891
G1 X157.774 Y82.214 E0.02365
G1 X157.774 Y127.786 E1.42891
G1 X158.528 Y127.786 E0.02365
G1 X158.528 Y82.214 E1.42891
G1 X159.282 Y82.214 E0.02365
G1 X159.282 Y127.786 E1.42891
G1 X160.037 Y127.786 E0.02365
G1 X160.037 Y82.214 E1.42891
G1 X160.791 Y82.214 E0.02365
G1 X160.791 Y127.786 E1.42891
G1 X161.545 Y127.786 E0.02365
G1 X161.545 Y82.214 E1.42891
G1 X162.299 Y82.214 E0.02365
G1 X162.299 Y127.956 E1.43423
G1 F8640
G1 X162.299 Y124.665 E-0.76000
G1 E-0.04000 F2100.00000
G1 Z0.800 F10800.000
G1 X175.874 Y130.229
G1 Z0.200
G1 E0.80000 F2100.00000
G1 F1200
G1 X175.874 Y128.358 E0.05865
G1 X175.404 Y128.670 E0.01767
G1 X175.120 Y128.831 E0.01026
G1 X175.120 Y130.262 E0.04485
G1 X174.366 Y130.471 E0.02454
G1 X174.366 Y129.174 E0.04065
G1 X173.611 Y129.414 E0.02482
G1 X173.611 Y130.653 E0.03883
G1 X172.857 Y130.756 E0.02387
G1 X172.857 Y129.556 E0.03764
G1 X172.103 Y129.611 E0.02371
G1 X172.103 Y130.786 E0.03685
G1 X171.349 Y130.786 E0.02365
G1 X171.349 Y129.614 E0.03677
G1 X170.595 Y129.614 E0.02365
G1 X170.595 Y130.786 E0.03677
G1 X169.841 Y130.786 E0.02365
G1 X169.841 Y129.614 E0.03677
G1 X169.087 Y129.614 E0.02365
G1 X169.087 Y130.786 E0.03677
G1 X168.332 Y130.786 E0.02365
G1 X168.332 Y129.614 E0.03677
G1 X167.578 Y129.614 E0.02365
G1 X167.578 Y130.786 E0.03677
G1 X166.824 Y130.786 E0.02365
G1 X166.824 Y129.614 E0.03677
G1 X166.070 Y129.614 E0.02365
G1 X166.070 Y130.786 E0.03677
G1 X165.316 Y130.786 E0.02365
G1 X165.316 Y129.614 E0.03677
G1 X164.562 Y129.614 E0.02365
G1 X164.562 Y130.786 E0.03677
G1 X163.807 Y130.786 E0.02365
G1 X163.807 Y129.614 E0.03677
G1 X163.053 Y129.614 E0.02365
G1 X163.053 Y130.786 E0.03677
G1 X162.299 Y130.786 E0.02365
G1 X162.299 Y129.614 E0.03677
G1 X161.545 Y129.614 E0.02365
G1 X161.545 Y130.786 E0.03677
G1 X160.791 Y130.786 E0.02365
G1 X160.791 Y129.614 E0.03677
G1 X160.037 Y129.614 E0.02365
G1 X160.037 Y130.786 E0.03677
G1 X159.282 Y130.786 E0.02365
G1 X159.282 Y129.614 E0.03677
G1 X158.528 Y129.614 E0.02365
G1 X158.528 Y130.786 E0.03677
G1 X157.774 Y130.786 E0.02365
G1 X157.774 Y129.614 E0.03677
G1 X157.020 Y129.614 E0.02365
G1 X157.020 Y130.786 E0.03677
G1 X156.266 Y130.786 E0.02365
G1 X156.266 Y129.614 E0.03677
G1 X155.512 Y129.614 E0.02365
G1 X155.512 Y130.786 E0.03677
G1 X154.757 Y130.786 E0.02365
G1 X154.757 Y129.614 E0.03677
G1 X154.003 Y129.614 E0.02365
G1 X154.003 Y130.786 E0.03677
G1 X153.249 Y130.786 E0.02365
G1 X153.249 Y129.614 E0.03677
G1 X152.495 Y129.614 E0.02365
G1 X152.495 Y130.786 E0.03677
G1 X151.741 Y130.786 E0.02365
G1 X151.741 Y129.614 E0.03677
G1 X150.987 Y129.614 E0.02365
G1 X150.987 Y130.786 E0.03677
G1 X150.233 Y130.786 E0.02365
G1 X150.233 Y129.614 E0.03677
G1 X149.478 Y129.614 E0.02365
G1 X149.478 Y130.786 E0.03677
G1 X148.724 Y130.786 E0.02365
G1 X148.724 Y129.614 E0.03677
G1 X147.970 Y129.614 E0.02365
G1 X147.970 Y130.786 E0.03677
G1 X147.216 Y130.786 E0.02365
G1 X147.216 Y129.614 E0.03677
G1 X146.462 Y129.614 E0.02365
G1 X146.462 Y130.786 E0.03677
G1 X145.708 Y130.786 E0.02365
G1 X145.708 Y129.444 E0.04209
G1 F8640
G1 X145.708 Y130.786 E-0.30999
G1 X146.462 Y130.786 E-0.17414
G1 X146.462 Y129.614 E-0.27081
G1 X146.484 Y129.614 E-0.00507
G1 E-0.04000 F2100.00000
G1 Z0.800 F10800.000
G1 X177.382 Y127.769
G1 Z0.200
G1 E0.80000 F2100.00000
G1 F1200
G1 X177.382 Y126.840 E0.02913
G1 X177.670 Y126.404 E0.01637
G1 X177.830 Y126.122 E0.01019
G1 X178.136 Y125.463 E0.02277
G1 X178.136 Y127.599 E0.06698
G1 X178.734 Y127.599 E0.01875
G1 X178.891 Y127.127 E0.01561
G1 X178.891 Y82.873 E1.38753
G1 X179.460 Y84.597 E0.05693
G1 X179.645 Y85.339 E0.02398
G1 X179.645 Y124.661 E1.23289
M73 P3 R57
G1 X179.751 Y123.944 E0.02272
G1 X179.778 Y123.572 E0.01167
G1 X179.786 Y122.985 E0.01841
G1 X180.399 Y122.985 E0.01921
G1 X180.399 Y110.134 E0.40294
G1 X181.153 Y110.134 E0.02365
G1 X181.153 Y122.985 E0.40294
G1 X181.907 Y122.985 E0.02365
G1 X181.907 Y110.134 E0.40294
G1 X182.661 Y110.134 E0.02365
G1 X182.661 Y123.155 E0.40826
G1 F8640
G1 X182.661 Y119.864 E-0.76000
G1 E-0.04000 F2100.00000
G1 Z0.800 F10800.000
G1 X178.136 Y119.756
G1 Z0.200
G1 E0.80000 F2100.00000
G1 F1200
G1 X178.136 Y114.414 E0.16751
G1 X177.382 Y114.414 E0.02365
G1 X177.382 Y119.586 E0.16219
G1 X177.029 Y119.586 E0.01109
G1 X176.786 Y119.829 E0.01074
G1 X176.781 Y123.425 E0.11276
G1 X176.737 Y123.873 E0.01411
G1 X176.628 Y124.390 E0.01655
G1 X176.628 Y85.610 E1.21590
G1 X176.518 Y85.255 E0.01166
G1 X176.346 Y84.839 E0.01411
G1 X176.134 Y84.442 E0.01411
G1 X175.874 Y84.055 E0.01461
G1 X175.874 Y125.945 E1.31341
G1 X175.598 Y126.280 E0.01361
G1 X175.120 Y126.737 E0.02074
G1 X175.120 Y83.263 E1.36307
G1 X174.748 Y82.987 E0.01453
G1 X174.366 Y82.757 E0.01398
G1 X174.366 Y127.243 E1.39481
G1 X173.955 Y127.437 E0.01424
G1 X173.611 Y127.562 E0.01147
G1 X173.611 Y82.438 E1.41485
G1 X173.314 Y82.351 E0.00970
G1 X172.857 Y82.261 E0.01460
G1 X172.857 Y127.739 E1.42591
G1 X172.425 Y127.781 E0.01362
G1 X172.103 Y127.786 E0.01010
G1 X172.103 Y123.977 E0.11945
G1 X171.662 Y123.977 E0.01382
G1 X171.662 Y118.371 E0.17576
G1 X172.103 Y118.371 E0.01382
G1 X172.103 Y98.599 E0.61995
G1 X171.662 Y98.599 E0.01382
G1 X171.662 Y89.370 E0.28935
G1 X171.349 Y89.370 E0.00982
G1 X171.349 Y127.786 E1.20451
G1 X170.595 Y127.786 E0.02365
G1 X170.595 Y89.370 E1.20451
G1 X169.841 Y89.370 E0.02365
G1 X169.841 Y127.786 E1.20451
G1 X169.087 Y127.786 E0.02365
G1 X169.087 Y89.370 E1.20451
G1 X168.332 Y89.370 E0.02365
G1 X168.332 Y127.786 E1.20451
G1 X167.578 Y127.786 E0.02365
G1 X167.578 Y89.370 E1.20451
G1 X166.824 Y89.370 E0.02365
G1 X166.824 Y127.786 E1.20451
G1 X166.070 Y127.786 E0.02365
G1 X166.070 Y89.370 E1.20451
G1 X165.316 Y89.370 E0.02365
G1 X165.316 Y127.786 E1.20451
G1 X164.562 Y127.786 E0.02365
G1 X164.562 Y89.370 E1.20451
G1 X163.807 Y89.370 E0.02365
G1 X163.807 Y127.786 E1.20451
G1 X163.053 Y127.786 E0.02365
G1 X163.053 Y89.370 E1.20451
G1 X162.434 Y89.370 E0.01942
G1 X162.434 Y86.072 E0.10342
G1 X163.053 Y86.072 E0.01942
G1 X163.053 Y82.214 E0.12098
G1 X163.807 Y82.214 E0.02365
G1 X163.807 Y86.072 E0.12098
G1 X164.562 Y86.072 E0.02365
G1 X164.562 Y82.214 E0.12098
G1 X165.316 Y82.214 E0.02365
G1 X165.316 Y86.072 E0.12098
G1 X166.070 Y86.072 E0.02365
G1 X166.070 Y82.214 E0.12098
G1 X166.824 Y82.214 E0.02365
G1 X166.824 Y86.072 E0.12098
G1 X167.578 Y86.072 E0.02365
G1 X167.578 Y82.214 E0.12098
G1 X168.332 Y82.214 E0.02365
G1 X168.332 Y86.072 E0.12098
G1 X169.087 Y86.072 E0.02365
G1 X169.087 Y82.214 E0.12098
G1 X169.841 Y82.214 E0.02365
G1 X169.841 Y86.072 E0.12098
G1 X170.595 Y86.072 E0.02365
G1 X170.595 Y82.214 E0.12098
G1 X171.349 Y82.214 E0.02365
G1 X171.349 Y86.072 E0.12098
G1 X172.103 Y86.072 E0.02365
G1 X172.103 Y82.044 E0.12630
G1 F8640
G1 X172.103 Y85.335 E-0.76000
G1 E-0.04000 F2100.00000
G1 Z0.800 F10800.000
G1 X175.874 Y81.852
G1 Z0.200
G1 E0.80000 F2100.00000
G1 F1200
G1 X175.874 Y77.835 E0.12594
G1 X175.120 Y77.835 E0.02365
G1 X175.120 Y81.169 E0.10452
G1 X174.823 Y81.019 E0.01041
G1 X174.366 Y80.826 E0.01557
G1 X174.366 Y77.835 E0.09378
G1 X173.611 Y77.835 E0.02365
G1 X173.611 Y80.586 E0.08625
G1 X172.857 Y80.444 E0.02406
G1 X172.857 Y77.835 E0.08180
