; generated by PrusaSlicer 2.0.0+linux64 on 2019-07-23 at 10:45:19

; 

; external perimeters extrusion width = 0.45mm
; perimeters extrusion width = 0.45mm
; infill extrusion width = 0.45mm
; solid infill extrusion width = 0.45mm
; top infill extrusion width = 0.40mm
; support material extrusion width = 0.35mm
; first layer extrusion width = 0.42mm

M73 P0 R83
M201 X9000 Y9000 Z500 E10000 ; sets maximum accelerations, mm/sec^2
M203 X500 Y500 Z12 E120 ; sets maximum feedrates, mm/sec
M204 P2000 R1500 T2000 ; sets acceleration (P, T) and retract acceleration (R), mm/sec^2
M205 X10.00 Y10.00 Z0.20 E2.50 ; sets the jerk limits, mm/sec
M205 S0 T0 ; sets the minimum extruding and travel feed rate, mm/sec
M107
M115 U3.2.3 ; tell printer latest fw version
G90 ; use absolute coordinates
M83 ; extruder relative mode
M204 S2000 T1500 ; MK2 firmware only supports the old M204 format
M104 S215 ; set extruder temp
M140 S60 ; set bed temp
M190 S60 ; wait for bed temp
M109 S215 ; wait for extruder temp
G28 W ; home all without mesh bed level
G80 ; mesh bed leveling
G1 Y-3.0 F1000.0 ; go outside print area
G92 E0.0
G1 X60.0 E9.0  F1000.0 ; intro line
M73 P0 R83
G1 X100.0 E12.5 F1000.0 ; intro line
G92 E0.0
M900 K30 ; Filament gcode
G21 ; set units to millimeters
G90 ; use absolute coordinates
M83 ; use relative distances for extrusion
;BEFORE_LAYER_CHANGE
G92 E0.0
;0.2


G1 E-0.80000 F2100.00000
G1 Z0.600 F10800.000
;AFTER_LAYER_CHANGE
;0.2
G1 X69.131 Y75.685
G1 Z0.200
G1 E0.80000 F2100.00000
M204 S1000
G1 F1200
G1 X69.830 Y75.234 E0.02608
G1 X70.649 Y75.076 E0.02614
G1 X180.006 Y75.247 E3.42881
G1 X180.484 Y75.301 E0.01510
G1 X180.939 Y75.459 E0.01510
G1 X181.447 Y75.794 E0.01908
G1 X181.845 Y76.259 E0.01919
G1 X182.098 Y76.816 E0.01919
G1 X182.187 Y77.422 E0.01919
G1 X182.187 Y124.997 E1.49169
G1 X182.052 Y125.712 E0.02281
G1 X181.221 Y127.610 E0.06497
G1 X180.775 Y128.442 E0.02961
G1 X180.180 Y129.315 E0.03311
G1 X179.274 Y130.349 E0.04311
G1 X178.222 Y131.249 E0.04340
G1 X176.985 Y132.034 E0.04593
G1 X175.472 Y132.677 E0.05154
G1 X174.333 Y132.980 E0.03695
G1 X173.307 Y133.045 E0.03224
G1 X76.180 Y133.047 E3.04535
G1 X74.560 Y132.687 E0.05203
G1 X73.476 Y132.262 E0.03651
G1 X71.798 Y131.268 E0.06116
G1 X70.387 Y129.997 E0.05954
G1 X68.794 Y127.999 E0.08012
G1 X68.560 Y127.493 E0.01749
G1 X68.460 Y126.940 E0.01760
G1 X68.459 Y77.173 E1.56041
G1 X68.651 Y76.364 E0.02608
G1 X69.097 Y75.734 E0.02420
G1 F8640
G1 X69.830 Y75.234 E-0.20500
G1 X70.649 Y75.076 E-0.19253
G1 X72.219 Y75.079 E-0.36248
G1 E-0.04000 F2100.00000
G1 Z0.800 F10800.000
G1 X70.646 Y77.265
G1 Z0.200
G1 E0.80000 F2100.00000
G1 F1200
G1 X70.646 Y126.832 E1.55414
G1 F8640
G1 X70.646 Y123.540 E-0.76000
G1 E-0.04000 F2100.00000
G1 Z0.800 F10800.000
G1 X73.662 Y126.066
G1 Z0.200
G1 E0.80000 F2100.00000
G1 F1200
G1 X73.662 Y84.249 E1.31116
G1 X74.055 Y83.690 E0.02139
G1 X74.417 Y83.300 E0.01669
G1 X74.417 Y126.700 E1.36076
G1 X74.690 Y126.945 E0.01153
G1 X75.171 Y127.289 E0.01851
G1 X75.171 Y82.711 E1.39769
G1 X75.639 Y82.454 E0.01675
G1 X75.925 Y82.332 E0.00975
G1 X75.925 Y127.668 E1.42148
G1 X76.531 Y127.859 E0.01992
G1 X76.679 Y127.859 E0.00465
G1 X76.679 Y82.141 E1.43346
G1 X77.433 Y82.141 E0.02365
G1 X77.433 Y127.859 E1.43346
G1 X78.187 Y127.859 E0.02365
G1 X78.187 Y82.141 E1.43346
G1 X78.942 Y82.141 E0.02365
G1 X78.942 Y127.859 E1.43346
G1 X79.696 Y127.859 E0.02365
G1 X79.696 Y82.141 E1.43346
G1 X80.450 Y82.141 E0.02365
G1 X80.450 Y127.859 E1.43346
G1 X81.204 Y127.859 E0.02365
G1 X81.204 Y82.141 E1.43346
G1 X81.958 Y82.141 E0.02365
G1 X81.958 Y127.859 E1.43346
G1 X82.712 Y127.859 E0.02365
G1 X82.712 Y82.141 E1.43346
G1 X83.467 Y82.141 E0.02365
G1 X83.467 Y127.859 E1.43346
G1 X84.221 Y127.859 E0.02365
G1 X84.221 Y82.141 E1.43346
G1 X84.975 Y82.141 E0.02365
G1 X84.975 Y127.859 E1.43346
M73 P1 R82
G1 X85.729 Y127.859 E0.02365
G1 X85.729 Y82.141 E1.43346
G1 X86.483 Y82.141 E0.02365
G1 X86.483 Y127.859 E1.43346
G1 X87.237 Y127.859 E0.02365
G1 X87.237 Y82.141 E1.43346
G1 X87.992 Y82.141 E0.02365
G1 X87.991 Y127.859 E1.43346
G1 X88.746 Y127.859 E0.02365
G1 X88.746 Y82.141 E1.43346
G1 X89.500 Y82.141 E0.02365
G1 X89.500 Y127.859 E1.43346
G1 X90.254 Y127.859 E0.02365
G1 X90.254 Y82.141 E1.43346
G1 X91.008 Y82.141 E0.02365
G1 X91.008 Y127.859 E1.43346
G1 X91.762 Y127.859 E0.02365
G1 X91.762 Y82.141 E1.43346
G1 X92.516 Y82.141 E0.02365
G1 X92.516 Y127.859 E1.43346
G1 X93.271 Y127.859 E0.02365
G1 X93.271 Y82.141 E1.43346
G1 X94.025 Y82.141 E0.02365
G1 X94.025 Y127.859 E1.43346
G1 X94.779 Y127.859 E0.02365
G1 X94.779 Y82.141 E1.43346
G1 X95.533 Y82.141 E0.02365
G1 X95.533 Y127.859 E1.43346
G1 X96.287 Y127.859 E0.02365
G1 X96.287 Y82.141 E1.43346
G1 X97.041 Y82.141 E0.02365
G1 X97.041 Y127.859 E1.43346
G1 X97.796 Y127.859 E0.02365
G1 X97.796 Y82.141 E1.43346
G1 X98.550 Y82.141 E0.02365
G1 X98.550 Y127.859 E1.43346
G1 X99.304 Y127.859 E0.02365
G1 X99.304 Y82.141 E1.43346
G1 X100.058 Y82.141 E0.02365
G1 X100.058 Y127.859 E1.43346
G1 X100.812 Y127.859 E0.02365
G1 X100.812 Y82.141 E1.43346
G1 X101.566 Y82.141 E0.02365
G1 X101.566 Y127.859 E1.43346
G1 X102.321 Y127.859 E0.02365
G1 X102.321 Y82.141 E1.43346
G1 X103.075 Y82.141 E0.02365
G1 X103.075 Y127.859 E1.43346
G1 X103.829 Y127.859 E0.02365
G1 X103.829 Y82.141 E1.43346
G1 X104.583 Y82.141 E0.02365
G1 X104.583 Y127.859 E1.43346
M73 P2 R81
G1 X105.337 Y127.859 E0.02365
G1 X105.337 Y82.141 E1.43346
G1 X106.091 Y82.141 E0.02365
G1 X106.091 Y127.859 E1.43346
G1 X106.845 Y127.859 E0.02365
G1 X106.845 Y82.141 E1.43346
G1 X107.600 Y82.141 E0.02365
G1 X107.600 Y127.859 E1.43346
G1 X108.354 Y127.859 E0.02365
G1 X108.354 Y82.141 E1.43346
G1 X109.108 Y82.141 E0.02365
G1 X109.108 Y127.859 E1.43346
G1 X109.862 Y127.859 E0.02365
G1 X109.862 Y82.141 E1.43346
G1 X110.616 Y82.141 E0.02365
G1 X110.616 Y127.859 E1.43346
G1 X111.370 Y127.859 E0.02365
G1 X111.370 Y82.141 E1.43346
G1 X112.125 Y82.141 E0.02365
G1 X112.125 Y94.900 E0.40006
G1 X112.879 Y94.900 E0.02365
G1 X112.879 Y82.141 E0.40006
G1 X113.633 Y82.141 E0.02365
G1 X113.633 Y94.900 E0.40006
G1 X114.387 Y94.900 E0.02365
G1 X114.387 Y82.141 E0.40006
G1 X115.141 Y82.141 E0.02365
G1 X115.141 Y94.900 E0.40006
G1 X115.895 Y94.900 E0.02365
G1 X115.895 Y82.141 E0.40006
G1 X116.650 Y82.141 E0.02365
G1 X116.650 Y94.900 E0.40006
G1 X117.404 Y94.900 E0.02365
G1 X117.404 Y82.141 E0.40006
G1 X118.158 Y82.141 E0.02365
G1 X118.158 Y94.900 E0.40006
G1 X118.912 Y94.900 E0.02365
G1 X118.912 Y82.141 E0.40006
G1 X119.666 Y82.141 E0.02365
G1 X119.666 Y94.900 E0.40006
G1 X120.420 Y94.900 E0.02365
G1 X120.420 Y82.141 E0.40006
G1 X121.174 Y82.141 E0.02365
G1 X121.174 Y94.900 E0.40006
G1 X121.929 Y94.900 E0.02365
G1 X121.929 Y82.141 E0.40006
G1 X122.683 Y82.141 E0.02365
G1 X122.683 Y94.900 E0.40006
G1 X123.437 Y94.900 E0.02365
G1 X123.437 Y82.141 E0.40006
G1 X124.191 Y82.141 E0.02365
G1 X124.191 Y94.900 E0.40006
G1 X124.945 Y94.900 E0.02365
G1 X124.945 Y82.141 E0.40006
G1 X125.699 Y82.141 E0.02365
G1 X125.699 Y94.900 E0.40006
G1 X126.454 Y94.900 E0.02365
G1 X126.454 Y82.141 E0.40006
G1 X127.208 Y82.141 E0.02365
G1 X127.208 Y94.900 E0.40006
G1 X127.962 Y94.900 E0.02365
G1 X127.962 Y82.141 E0.40006
G1 X128.716 Y82.141 E0.02365
G1 X128.716 Y94.900 E0.40006
G1 X129.470 Y94.900 E0.02365
G1 X129.470 Y82.141 E0.40006
G1 X130.224 Y82.141 E0.02365
G1 X130.224 Y94.900 E0.40006
G1 X130.979 Y94.900 E0.02365
G1 X130.979 Y82.141 E0.40006
G1 X131.733 Y82.141 E0.02365
G1 X131.733 Y94.900 E0.40006
G1 X132.487 Y94.900 E0.02365
G1 X132.487 Y82.141 E0.40006
G1 X133.241 Y82.141 E0.02365
G1 X133.241 Y94.900 E0.40006
G1 X133.995 Y94.900 E0.02365
G1 X133.995 Y82.141 E0.40006
G1 X134.749 Y82.141 E0.02365
G1 X134.749 Y94.900 E0.40006
G1 X135.504 Y94.900 E0.02365
G1 X135.504 Y82.141 E0.40006
G1 X136.258 Y82.141 E0.02365
G1 X136.258 Y94.900 E0.40006
G1 X137.012 Y94.900 E0.02365
G1 X137.012 Y82.141 E0.40006
G1 X137.766 Y82.141 E0.02365
G1 X137.766 Y94.900 E0.40006
G1 X138.520 Y94.900 E0.02365
G1 X138.520 Y82.141 E0.40006
G1 X139.274 Y82.141 E0.02365
G1 X139.274 Y95.070 E0.40538
G1 F8640
G1 X139.274 Y91.779 E-0.76000
G1 E-0.04000 F2100.00000
G1 Z0.800 F10800.000
G1 X140.028 Y80.156
G1 Z0.200
G1 E0.80000 F2100.00000
G1 F1200
G1 X140.028 Y79.141 E0.03183
G1 X140.783 Y79.141 E0.02365
G1 X140.783 Y79.986 E0.02651
G1 X141.537 Y79.986 E0.02365
G1 X141.537 Y79.141 E0.02651
G1 X142.291 Y79.141 E0.02365
G1 X142.291 Y79.986 E0.02651
G1 X143.045 Y79.986 E0.02365
G1 X143.045 Y79.141 E0.02651
G1 X143.799 Y79.141 E0.02365
G1 X143.799 Y79.986 E0.02651
G1 X144.553 Y79.986 E0.02365
G1 X144.553 Y79.141 E0.02651
G1 X145.308 Y79.141 E0.02365
G1 X145.308 Y79.986 E0.02651
G1 X146.062 Y79.986 E0.02365
G1 X146.062 Y79.141 E0.02651
G1 X146.816 Y79.141 E0.02365
G1 X146.816 Y79.986 E0.02651
G1 X147.570 Y79.986 E0.02365
G1 X147.570 Y79.141 E0.02651
G1 X148.324 Y79.141 E0.02365
G1 X148.324 Y79.986 E0.02651
G1 X149.078 Y79.986 E0.02365
G1 X149.078 Y79.141 E0.02651
G1 X149.833 Y79.141 E0.02365
G1 X149.833 Y79.986 E0.02651
G1 X150.587 Y79.986 E0.02365
G1 X150.587 Y79.141 E0.02651
G1 X151.341 Y79.141 E0.02365
G1 X151.341 Y79.986 E0.02651
G1 X152.095 Y79.986 E0.02365
G1 X152.095 Y79.141 E0.02651
G1 X152.849 Y79.141 E0.02365
G1 X152.849 Y79.986 E0.02651
G1 X153.603 Y79.986 E0.02365
G1 X153.603 Y79.141 E0.02651
G1 X154.357 Y79.141 E0.02365
G1 X154.357 Y79.986 E0.02651
G1 X155.112 Y79.986 E0.02365
G1 X155.112 Y79.141 E0.02651
G1 X155.866 Y79.141 E0.02365
G1 X155.866 Y79.986 E0.02651
G1 X156.620 Y79.986 E0.02365
G1 X156.620 Y79.141 E0.02651
G1 X157.374 Y79.141 E0.02365
G1 X157.374 Y79.986 E0.02651
G1 X158.128 Y79.986 E0.02365
G1 X158.128 Y79.141 E0.02651
G1 X158.882 Y79.141 E0.02365
G1 X158.882 Y79.986 E0.02651
G1 X159.637 Y79.986 E0.02365
G1 X159.637 Y79.141 E0.02651
G1 X160.391 Y79.141 E0.02365
G1 X160.391 Y79.986 E0.02651
G1 X161.145 Y79.986 E0.02365
G1 X161.145 Y79.141 E0.02651
G1 X161.899 Y79.141 E0.02365
G1 X161.899 Y79.986 E0.02651
G1 X162.653 Y79.986 E0.02365
G1 X162.653 Y79.141 E0.02651
G1 X163.407 Y79.141 E0.02365
G1 X163.407 Y79.986 E0.02651
G1 X164.162 Y79.986 E0.02365
G1 X164.162 Y79.141 E0.02651
G1 X164.916 Y79.141 E0.02365
G1 X164.916 Y79.986 E0.02651
G1 X165.670 Y79.986 E0.02365
G1 X165.670 Y79.141 E0.02651
G1 X166.424 Y79.141 E0.02365
G1 X166.424 Y79.986 E0.02651
G1 X167.178 Y79.986 E0.02365
G1 X167.178 Y79.141 E0.02651
G1 X167.932 Y79.141 E0.02365
G1 X167.932 Y79.986 E0.02651
G1 X168.687 Y79.986 E0.02365
G1 X168.687 Y79.141 E0.02651
G1 X169.441 Y79.141 E0.02365
G1 X169.441 Y79.986 E0.02651
G1 X170.195 Y79.986 E0.02365
G1 X170.195 Y79.141 E0.02651
G1 X170.236 Y79.141 E0.00130
G1 X170.346 Y77.435 E0.05360
G1 X170.949 Y77.435 E0.01889
G1 X170.949 Y79.986 E0.08000
G1 X171.703 Y79.986 E0.02365
G1 X171.703 Y77.435 E0.08000
G1 X172.457 Y77.435 E0.02365
G1 X172.457 Y80.003 E0.08052
G1 X173.211 Y80.094 E0.02382
G1 X173.211 Y77.435 E0.08337
G1 X173.966 Y77.435 E0.02365
G1 X173.966 Y80.269 E0.08885
G1 X174.720 Y80.536 E0.02509
G1 X174.720 Y77.435 E0.09723
G1 X175.474 Y77.435 E0.02365
G1 X175.474 Y80.910 E0.10894
G1 X175.892 Y81.166 E0.01538
G1 X176.228 Y81.406 E0.01294
G1 X176.228 Y77.435 E0.12449
G1 X176.982 Y77.435 E0.02365
G1 X176.982 Y82.065 E0.14516
G1 X177.418 Y82.547 E0.02038
G1 X177.736 Y82.968 E0.01656
G1 X177.736 Y77.435 E0.17349
G1 X178.491 Y77.435 E0.02365
G1 X178.491 Y84.836 E0.23204
G1 F8640
G1 X178.491 Y81.544 E-0.76000
G1 E-0.04000 F2100.00000
G1 Z0.800 F10800.000
G1 X167.178 Y81.971
G1 Z0.200
G1 E0.80000 F2100.00000
G1 F1200
G1 X167.178 Y90.286 E0.26071
G1 X166.424 Y90.286 E0.02365
G1 X166.424 Y82.141 E0.25539
G1 X165.670 Y82.141 E0.02365
G1 X165.670 Y90.286 E0.25539
G1 X165.332 Y90.286 E0.01058
G1 X165.332 Y87.979 E0.07234
G1 X164.916 Y87.979 E0.01306
G1 X164.916 Y82.141 E0.18305
G1 X164.162 Y82.141 E0.02365
G1 X164.162 Y87.979 E0.18305
G1 X163.407 Y87.979 E0.02365
G1 X163.407 Y82.141 E0.18305
G1 X162.653 Y82.141 E0.02365
G1 X162.653 Y87.979 E0.18305
G1 X162.034 Y87.979 E0.01942
G1 X162.034 Y91.278 E0.10342
G1 X162.653 Y91.278 E0.01942
G1 X162.653 Y127.859 E1.14699
G1 X163.407 Y127.859 E0.02365
G1 X163.407 Y91.278 E1.14699
M73 P3 R80
G1 X164.162 Y91.278 E0.02365
G1 X164.162 Y127.859 E1.14699
G1 X164.916 Y127.859 E0.02365
G1 X164.916 Y91.278 E1.14699
G1 X165.670 Y91.278 E0.02365
G1 X165.670 Y127.859 E1.14699
G1 X166.424 Y127.859 E0.02365
G1 X166.424 Y91.278 E1.14699
G1 X167.178 Y91.278 E0.02365
G1 X167.178 Y127.859 E1.14699
G1 X167.932 Y127.859 E0.02365
G1 X167.932 Y82.141 E1.43346
G1 X168.687 Y82.141 E0.02365
G1 X168.687 Y127.859 E1.43346
G1 X169.441 Y127.859 E0.02365
G1 X169.441 Y82.141 E1.43346
G1 X170.195 Y82.141 E0.02365
G1 X170.195 Y127.859 E1.43346
G1 X170.949 Y127.859 E0.02365
G1 X170.949 Y82.141 E1.43346
G1 X171.703 Y82.141 E0.02365
G1 X171.703 Y92.593 E0.32773
G1 X171.262 Y92.593 E0.01382
G1 X171.262 Y93.585 E0.03108
G1 X171.703 Y93.585 E0.01382
G1 X171.703 Y127.859 E1.07465
G1 X172.457 Y127.859 E0.02365
G1 X172.457 Y82.141 E1.43346
G1 X173.211 Y82.141 E0.02365
G1 X173.211 Y127.859 E1.43346
G1 X173.469 Y127.859 E0.00808
G1 X173.966 Y127.710 E0.01625
G1 X173.966 Y82.290 E1.42413
G1 X174.361 Y82.454 E0.01342
G1 X174.720 Y82.645 E0.01274
G1 X174.720 Y127.355 E1.40187
G1 X175.132 Y127.084 E0.01548
G1 X175.474 Y126.804 E0.01386
G1 X175.474 Y83.196 E1.36727
G1 X175.945 Y83.690 E0.02141
G1 X176.228 Y84.075 E0.01497
G1 X176.228 Y126.222 E1.32148
G1 F8640
G1 X176.228 Y122.930 E-0.76000
G1 E-0.04000 F2100.00000
G1 Z0.800 F10800.000
G1 X179.999 Y124.953
G1 Z0.200
G1 E0.80000 F2100.00000
G1 F1200
G1 X179.999 Y77.435 E1.48989
G1 X179.245 Y77.435 E0.02365
G1 X179.245 Y126.670 E1.54374
G1 X178.908 Y127.300 E0.02240
G1 X178.491 Y127.923 E0.02350
G1 X178.491 Y125.656 E0.07109
G1 X178.183 Y126.311 E0.02268
G1 X178.013 Y126.610 E0.01080
G1 X177.736 Y127.032 E0.01582
G1 X177.736 Y128.792 E0.05519
G1 X177.496 Y129.021 E0.01043
G1 X176.982 Y129.445 E0.02087
G1 X176.982 Y127.935 E0.04734
G1 X176.706 Y128.200 E0.01199
G1 X176.228 Y128.594 E0.01943
G1 X176.228 Y129.949 E0.04246
G1 X175.644 Y130.259 E0.02073
G1 X175.474 Y130.334 E0.00583
G1 X175.474 Y129.090 E0.03899
G1 X175.003 Y129.338 E0.01667
G1 X174.720 Y129.464 E0.00973
G1 X174.720 Y130.622 E0.03630
G1 X173.966 Y130.822 E0.02447
G1 X173.966 Y129.731 E0.03421
G1 X173.211 Y129.906 E0.02427
G1 X173.211 Y130.859 E0.02988
G1 X172.457 Y130.859 E0.02365
G1 X172.457 Y129.997 E0.02703
G1 X171.703 Y130.014 E0.02365
G1 X171.703 Y130.859 E0.02651
G1 X170.949 Y130.859 E0.02365
G1 X170.949 Y130.014 E0.02651
G1 X170.195 Y130.014 E0.02365
G1 X170.195 Y130.859 E0.02651
G1 X169.441 Y130.859 E0.02365
G1 X169.441 Y130.014 E0.02651
G1 X168.687 Y130.014 E0.02365
G1 X168.687 Y130.859 E0.02651
G1 X167.932 Y130.859 E0.02365
G1 X167.932 Y130.014 E0.02651
G1 X167.178 Y130.014 E0.02365
G1 X167.178 Y130.859 E0.02651
G1 X166.424 Y130.859 E0.02365
G1 X166.424 Y130.014 E0.02651
G1 X165.670 Y130.014 E0.02365
G1 X165.670 Y130.859 E0.02651
G1 X164.916 Y130.859 E0.02365
G1 X164.916 Y130.014 E0.02651
G1 X164.162 Y130.014 E0.02365
G1 X164.162 Y130.859 E0.02651
G1 X163.407 Y130.859 E0.02365
G1 X163.407 Y130.014 E0.02651
G1 X162.653 Y130.014 E0.02365
G1 X162.653 Y130.859 E0.02651
G1 X161.899 Y130.859 E0.02365
G1 X161.899 Y130.014 E0.02651
G1 X161.145 Y130.014 E0.02365
G1 X161.145 Y130.859 E0.02651
G1 X160.391 Y130.859 E0.02365
G1 X160.391 Y130.014 E0.02651
G1 X159.637 Y130.014 E0.02365
G1 X159.637 Y130.859 E0.02651
G1 X158.882 Y130.859 E0.02365
G1 X158.882 Y130.014 E0.02651
G1 X158.128 Y130.014 E0.02365
G1 X158.128 Y130.859 E0.02651
G1 X157.374 Y130.859 E0.02365
G1 X157.374 Y130.014 E0.02651
G1 X156.620 Y130.014 E0.02365
G1 X156.620 Y130.859 E0.02651
G1 X155.866 Y130.859 E0.02365
G1 X155.866 Y130.014 E0.02651
G1 X155.112 Y130.014 E0.02365
G1 X155.112 Y130.859 E0.02651
G1 X154.357 Y130.859 E0.02365
G1 X154.357 Y130.014 E0.02651
G1 X153.603 Y130.014 E0.02365
G1 X153.603 Y130.859 E0.02651
G1 X152.849 Y130.859 E0.02365
G1 X152.849 Y130.014 E0.02651
G1 X152.095 Y130.014 E0.02365
G1 X152.095 Y130.859 E0.02651
G1 X151.341 Y130.859 E0.02365
G1 X151.341 Y130.014 E0.02651
G1 X150.587 Y130.014 E0.02365
G1 X150.587 Y130.859 E0.02651
