; generated by Slic3r Prusa Edition 1.41.3+linux64 on 2019-03-09 at 16:45:26

; 

; external perimeters extrusion width = 0.45mm
; perimeters extrusion width = 0.45mm
; infill extrusion width = 0.45mm
; solid infill extrusion width = 0.45mm
; top infill extrusion width = 0.40mm
; support material extrusion width = 0.35mm
; first layer extrusion width = 0.42mm

M73 P0 R167
M201 X9000 Y9000 Z500 E10000 ; sets maximum accelerations, mm/sec^2
M203 X500 Y500 Z12 E120 ; sets maximum feedrates, mm/sec
M204 P2000 R1500 T2000 ; sets acceleration (P, T) and retract acceleration (R), mm/sec^2
M205 X10.00 Y10.00 Z0.20 E2.50 ; sets the jerk limits, mm/sec
M205 S0 T0 ; sets the minimum extruding and travel feed rate, mm/sec
M107
M115 U3.5.1 ; tell printer latest fw version
M83  ; extruder relative mode
M104 S215 ; set extruder temp
M140 S60 ; set bed temp
M190 S60 ; wait for bed temp
M109 S215 ; wait for extruder temp
G28 W ; home all without mesh bed level
G80 ; mesh bed leveling
G1 Y-3.0 F1000.0 ; go outside print area
G92 E0.0
G1 X60.0 E9.0  F1000.0 ; intro line
M73 P0 R167
G1 X100.0 E12.5  F1000.0 ; intro line
G92 E0.0
M900 K30 ; Filament gcode
G21 ; set units to millimeters
G90 ; use absolute coordinates
M83 ; use relative distances for extrusion
;BEFORE_LAYER_CHANGE
G92 E0.0
;0.2


G1 E-0.80000 F2100.00000
G1 Z0.600 F10800.000
;AFTER_LAYER_CHANGE
;0.2
G1 X67.234 Y93.482
G1 Z0.200
G1 E0.80000 F2100.00000
M204 S1000
G1 F1200
G1 X67.919 Y93.043 E0.02552
G1 X74.994 Y90.812 E0.23261
G1 X102.602 Y88.441 E0.86882
G1 X147.170 Y88.439 E1.39739
G1 X182.157 Y93.074 E1.10658
G1 X182.945 Y93.341 E0.02608
G1 X183.383 Y93.669 E0.01714
G1 X183.725 Y94.095 E0.01714
G1 X183.951 Y94.593 E0.01714
G1 X184.047 Y95.131 E0.01714
G1 X184.049 Y108.307 E0.41312
G1 X183.971 Y108.844 E0.01703
G1 X183.761 Y109.349 E0.01714
G1 X183.417 Y109.802 E0.01783
G1 X182.969 Y110.151 E0.01783
G1 X182.445 Y110.372 E0.01783
G1 X181.882 Y110.451 E0.01783
G1 X71.740 Y110.451 E3.45343
G1 X68.564 Y110.275 E0.09973
G1 X68.004 Y110.155 E0.01794
G1 X67.525 Y109.915 E0.01680
G1 X67.119 Y109.566 E0.01680
G1 X66.807 Y109.125 E0.01692
G1 X66.615 Y108.625 E0.01680
G1 X66.549 Y108.104 E0.01646
G1 X66.549 Y95.051 E0.40928
G1 X66.604 Y94.587 E0.01464
G1 X66.757 Y94.142 E0.01475
G1 X67.199 Y93.531 E0.02364
; PURGING FINISHED
G1 F8640
G1 X67.919 Y93.043 E-0.20090
G1 X70.228 Y92.315 E-0.55910
G1 E-0.04000 F2100.00000
G1 Z0.800 F10800.000
G1 X68.738 Y95.072
G1 Z0.200
G1 E0.80000 F2100.00000
G1 F1200
G1 X68.738 Y108.093 E0.40826
G1 X69.492 Y108.093 E0.02365
G1 X69.492 Y95.242 E0.40294
G1 X70.246 Y95.242 E0.02365
G1 X70.246 Y108.093 E0.40294
G1 X71.000 Y108.093 E0.02365
G1 X71.000 Y95.242 E0.40294
G1 X71.754 Y95.242 E0.02365
G1 X71.754 Y108.263 E0.40826
G1 X75.525 Y99.503 F10800.000
G1 F1200
G1 X75.525 Y104.996 E0.17224
G1 X75.585 Y105.006 E0.00190
G1 X75.585 Y104.663 E0.01077
G1 X75.958 Y105.036 E0.01656
G1 X76.279 Y105.036 E0.01007
G1 X76.279 Y99.911 E0.16070
G1 X77.033 Y99.911 E0.02365
G1 X77.033 Y99.963 E0.00162
G1 X77.787 Y99.963 E0.02365
G1 X77.787 Y99.911 E0.00162
G1 X78.263 Y99.911 E0.01492
G1 X78.263 Y97.865 E0.06415
G1 X77.787 Y97.865 E0.01492
G1 X77.787 Y92.935 E0.15457
G1 X77.033 Y92.935 E0.02365
G1 X77.033 Y97.865 E0.15457
G1 X76.279 Y97.865 E0.02365
G1 X76.279 Y92.935 E0.15457
G1 X75.525 Y92.935 E0.02365
G1 X75.525 Y97.865 E0.15457
G1 X74.771 Y97.865 E0.02365
G1 X74.771 Y95.242 E0.08224
G1 X74.017 Y95.242 E0.02365
G1 X74.017 Y97.865 E0.08224
G1 X73.262 Y97.865 E0.02365
G1 X73.262 Y95.242 E0.08224
G1 X72.508 Y95.242 E0.02365
G1 X72.508 Y108.093 E0.40294
G1 X73.262 Y108.093 E0.02365
G1 X73.262 Y105.470 E0.08224
G1 X74.017 Y105.470 E0.02365
G1 X74.017 Y108.093 E0.08224
G1 X74.771 Y108.093 E0.02365
G1 X74.771 Y105.470 E0.08224
G1 X75.525 Y105.470 E0.02365
G1 X75.525 Y108.093 E0.08224
G1 X76.279 Y108.093 E0.02365
G1 X76.279 Y105.470 E0.08224
G1 X77.033 Y105.470 E0.02365
G1 X77.033 Y108.093 E0.08224
G1 X77.787 Y108.093 E0.02365
G1 X77.787 Y105.470 E0.08224
G1 X78.263 Y105.470 E0.01492
G1 X78.263 Y105.414 E0.00178
G1 X78.542 Y105.414 E0.00873
G1 X78.542 Y108.093 E0.08402
G1 X79.296 Y108.093 E0.02365
G1 X79.296 Y105.414 E0.08402
G1 X80.050 Y105.414 E0.02365
G1 X80.050 Y108.093 E0.08402
G1 X80.804 Y108.093 E0.02365
G1 X80.804 Y105.414 E0.08402
G1 X81.558 Y105.414 E0.02365
G1 X81.558 Y108.093 E0.08402
G1 X82.312 Y108.093 E0.02365
G1 X82.312 Y105.414 E0.08402
G1 X83.067 Y105.414 E0.02365
G1 X83.067 Y108.093 E0.08402
G1 X83.821 Y108.093 E0.02365
G1 X83.821 Y105.414 E0.08402
G1 X84.575 Y105.414 E0.02365
G1 X84.575 Y108.093 E0.08402
G1 X85.329 Y108.093 E0.02365
G1 X85.329 Y105.414 E0.08402
G1 X86.083 Y105.414 E0.02365
G1 X86.083 Y108.093 E0.08402
G1 X86.837 Y108.093 E0.02365
G1 X86.837 Y105.414 E0.08402
G1 X87.592 Y105.414 E0.02365
G1 X87.592 Y108.093 E0.08402
G1 X88.346 Y108.093 E0.02365
G1 X88.346 Y105.414 E0.08402
G1 X89.100 Y105.414 E0.02365
G1 X89.100 Y108.093 E0.08402
G1 X89.854 Y108.093 E0.02365
G1 X89.854 Y105.414 E0.08402
G1 X90.608 Y105.414 E0.02365
G1 X90.608 Y108.093 E0.08402
G1 X91.362 Y108.093 E0.02365
G1 X91.362 Y105.414 E0.08402
G1 X92.116 Y105.414 E0.02365
G1 X92.116 Y108.093 E0.08402
G1 X92.871 Y108.093 E0.02365
G1 X92.871 Y105.414 E0.08402
G1 X93.625 Y105.414 E0.02365
G1 X93.625 Y108.093 E0.08402
G1 X94.379 Y108.093 E0.02365
G1 X94.379 Y105.414 E0.08402
G1 X95.133 Y105.414 E0.02365
G1 X95.133 Y108.093 E0.08402
G1 X95.887 Y108.093 E0.02365
G1 X95.887 Y105.414 E0.08402
G1 X96.641 Y105.414 E0.02365
G1 X96.641 Y108.093 E0.08402
G1 X97.396 Y108.093 E0.02365
G1 X97.396 Y105.414 E0.08402
G1 X98.150 Y105.414 E0.02365
G1 X98.150 Y108.093 E0.08402
G1 X98.904 Y108.093 E0.02365
G1 X98.904 Y105.414 E0.08402
G1 X99.658 Y105.414 E0.02365
G1 X99.658 Y108.093 E0.08402
G1 X100.412 Y108.093 E0.02365
G1 X100.412 Y105.414 E0.08402
G1 X101.166 Y105.414 E0.02365
G1 X101.166 Y108.093 E0.08402
G1 X101.921 Y108.093 E0.02365
G1 X101.921 Y105.414 E0.08402
G1 X102.675 Y105.414 E0.02365
G1 X102.675 Y108.093 E0.08402
G1 X103.429 Y108.093 E0.02365
G1 X103.429 Y105.414 E0.08402
G1 X104.183 Y105.414 E0.02365
G1 X104.183 Y108.093 E0.08402
G1 X104.937 Y108.093 E0.02365
G1 X104.937 Y105.414 E0.08402
G1 X105.691 Y105.414 E0.02365
G1 X105.691 Y108.093 E0.08402
G1 X106.445 Y108.093 E0.02365
G1 X106.445 Y105.414 E0.08402
G1 X107.200 Y105.414 E0.02365
G1 X107.200 Y108.093 E0.08402
G1 X107.954 Y108.093 E0.02365
G1 X107.954 Y105.414 E0.08402
G1 X108.708 Y105.414 E0.02365
G1 X108.708 Y108.093 E0.08402
G1 X109.462 Y108.093 E0.02365
G1 X109.462 Y105.414 E0.08402
G1 X110.216 Y105.414 E0.02365
G1 X110.216 Y108.093 E0.08402
G1 X110.970 Y108.093 E0.02365
G1 X110.970 Y105.414 E0.08402
G1 X111.725 Y105.414 E0.02365
G1 X111.725 Y108.093 E0.08402
G1 X112.479 Y108.093 E0.02365
G1 X112.479 Y105.414 E0.08402
G1 X113.233 Y105.414 E0.02365
G1 X113.233 Y108.093 E0.08402
G1 X113.987 Y108.093 E0.02365
G1 X113.987 Y105.414 E0.08402
G1 X114.741 Y105.414 E0.02365
G1 X114.741 Y108.093 E0.08402
G1 X115.495 Y108.093 E0.02365
G1 X115.495 Y105.414 E0.08402
G1 X116.250 Y105.414 E0.02365
G1 X116.250 Y108.093 E0.08402
G1 X117.004 Y108.093 E0.02365
G1 X117.004 Y105.414 E0.08402
G1 X117.758 Y105.414 E0.02365
G1 X117.758 Y108.093 E0.08402
G1 X118.512 Y108.093 E0.02365
G1 X118.512 Y105.414 E0.08402
G1 X119.266 Y105.414 E0.02365
G1 X119.266 Y108.093 E0.08402
G1 X120.020 Y108.093 E0.02365
G1 X120.020 Y105.414 E0.08402
G1 X120.774 Y105.414 E0.02365
G1 X120.774 Y108.093 E0.08402
G1 X121.529 Y108.093 E0.02365
G1 X121.529 Y105.414 E0.08402
G1 X122.283 Y105.414 E0.02365
G1 X122.283 Y108.093 E0.08402
G1 X123.037 Y108.093 E0.02365
G1 X123.037 Y105.414 E0.08402
G1 X123.791 Y105.414 E0.02365
G1 X123.791 Y108.093 E0.08402
G1 X124.545 Y108.093 E0.02365
G1 X124.545 Y105.414 E0.08402
G1 X125.299 Y105.414 E0.02365
G1 X125.299 Y108.093 E0.08402
G1 X126.054 Y108.093 E0.02365
G1 X126.054 Y105.414 E0.08402
G1 X126.808 Y105.414 E0.02365
G1 X126.808 Y108.093 E0.08402
G1 X127.562 Y108.093 E0.02365
G1 X127.562 Y105.414 E0.08402
G1 X128.316 Y105.414 E0.02365
G1 X128.316 Y108.093 E0.08402
G1 X129.070 Y108.093 E0.02365
G1 X129.070 Y105.315 E0.08712
G1 X129.214 Y105.171 E0.00635
G1 X129.214 Y100.714 E0.13977
G1 X129.824 Y100.714 E0.01915
G1 X129.824 Y108.093 E0.23138
G1 X130.579 Y108.093 E0.02365
G1 X130.579 Y100.714 E0.23138
G1 X131.333 Y100.714 E0.02365
G1 X131.333 Y108.093 E0.23138
G1 X132.087 Y108.093 E0.02365
G1 X132.087 Y100.714 E0.23138
G1 X132.841 Y100.714 E0.02365
G1 X132.841 Y108.093 E0.23138
G1 X133.595 Y108.093 E0.02365
G1 X133.595 Y100.714 E0.23138
G1 X134.349 Y100.714 E0.02365
G1 X134.349 Y108.093 E0.23138
G1 X135.104 Y108.093 E0.02365
G1 X135.104 Y100.714 E0.23138
G1 X135.858 Y100.714 E0.02365
G1 X135.858 Y108.093 E0.23138
G1 X136.612 Y108.093 E0.02365
G1 X136.612 Y100.714 E0.23138
G1 X137.366 Y100.714 E0.02365
G1 X137.366 Y108.093 E0.23138
G1 X138.120 Y108.093 E0.02365
G1 X138.120 Y100.714 E0.23138
G1 X138.874 Y100.714 E0.02365
G1 X138.874 Y108.093 E0.23138
G1 X139.628 Y108.093 E0.02365
G1 X139.628 Y100.714 E0.23138
G1 X140.383 Y100.714 E0.02365
G1 X140.383 Y108.093 E0.23138
G1 X141.137 Y108.093 E0.02365
G1 X141.137 Y100.714 E0.23138
G1 X141.891 Y100.714 E0.02365
G1 X141.891 Y108.093 E0.23138
G1 X142.645 Y108.093 E0.02365
G1 X142.645 Y100.714 E0.23138
G1 X143.399 Y100.714 E0.02365
G1 X143.399 Y108.093 E0.23138
G1 X144.153 Y108.093 E0.02365
G1 X144.153 Y100.714 E0.23138
G1 X144.786 Y100.714 E0.01985
G1 X144.786 Y105.171 E0.13977
G1 X144.908 Y105.292 E0.00537
G1 X144.908 Y108.093 E0.08782
G1 X145.662 Y108.093 E0.02365
G1 X145.662 Y105.414 E0.08402
G1 X146.416 Y105.414 E0.02365
G1 X146.416 Y108.093 E0.08402
G1 X147.170 Y108.093 E0.02365
G1 X147.170 Y105.414 E0.08402
G1 X147.924 Y105.414 E0.02365
G1 X147.924 Y108.093 E0.08402
G1 X148.678 Y108.093 E0.02365
G1 X148.678 Y105.414 E0.08402
G1 X149.433 Y105.414 E0.02365
G1 X149.433 Y108.093 E0.08402
G1 X150.187 Y108.093 E0.02365
G1 X150.187 Y105.414 E0.08402
G1 X150.941 Y105.414 E0.02365
G1 X150.941 Y108.093 E0.08402
G1 X151.695 Y108.093 E0.02365
G1 X151.695 Y105.414 E0.08402
G1 X152.449 Y105.414 E0.02365
G1 X152.449 Y108.093 E0.08402
G1 X153.203 Y108.093 E0.02365
G1 X153.203 Y105.414 E0.08402
G1 X153.957 Y105.414 E0.02365
G1 X153.957 Y108.093 E0.08402
G1 X154.712 Y108.093 E0.02365
G1 X154.712 Y105.414 E0.08402
G1 X155.466 Y105.414 E0.02365
G1 X155.466 Y108.093 E0.08402
G1 X156.220 Y108.093 E0.02365
G1 X156.220 Y105.414 E0.08402
G1 X156.974 Y105.414 E0.02365
G1 X156.974 Y108.093 E0.08402
G1 X157.728 Y108.093 E0.02365
G1 X157.728 Y105.414 E0.08402
G1 X158.482 Y105.414 E0.02365
G1 X158.482 Y108.093 E0.08402
G1 X159.237 Y108.093 E0.02365
G1 X159.237 Y105.414 E0.08402
G1 X159.991 Y105.414 E0.02365
G1 X159.991 Y108.093 E0.08402
G1 X160.745 Y108.093 E0.02365
G1 X160.745 Y105.414 E0.08402
G1 X161.499 Y105.414 E0.02365
G1 X161.499 Y108.093 E0.08402
G1 X162.253 Y108.093 E0.02365
G1 X162.253 Y105.414 E0.08402
G1 X163.007 Y105.414 E0.02365
G1 X163.007 Y108.093 E0.08402
G1 X163.762 Y108.093 E0.02365
G1 X163.762 Y105.414 E0.08402
G1 X164.516 Y105.414 E0.02365
G1 X164.516 Y108.093 E0.08402
G1 X165.270 Y108.093 E0.02365
G1 X165.270 Y105.414 E0.08402
G1 X166.024 Y105.414 E0.02365
G1 X166.024 Y108.093 E0.08402
G1 X166.778 Y108.093 E0.02365
G1 X166.778 Y105.414 E0.08402
G1 X167.532 Y105.414 E0.02365
G1 X167.532 Y108.093 E0.08402
G1 X168.287 Y108.093 E0.02365
G1 X168.287 Y105.414 E0.08402
G1 X169.041 Y105.414 E0.02365
G1 X169.041 Y108.093 E0.08402
G1 X169.795 Y108.093 E0.02365
G1 X169.795 Y105.414 E0.08402
G1 X170.549 Y105.414 E0.02365
G1 X170.549 Y108.093 E0.08402
G1 X171.303 Y108.093 E0.02365
G1 X171.303 Y105.414 E0.08402
G1 X172.057 Y105.414 E0.02365
G1 X172.057 Y108.093 E0.08402
G1 X172.811 Y108.093 E0.02365
G1 X172.811 Y105.470 E0.08224
G1 X173.566 Y105.470 E0.02365
G1 X173.566 Y108.093 E0.08224
G1 X174.320 Y108.093 E0.02365
G1 X174.320 Y105.470 E0.08224
G1 X175.074 Y105.470 E0.02365
G1 X175.074 Y108.093 E0.08224
G1 X175.828 Y108.093 E0.02365
G1 X175.828 Y105.470 E0.08224
G1 X176.582 Y105.470 E0.02365
G1 X176.582 Y108.263 E0.08756
G1 F8640
G1 X176.582 Y105.470 E-0.64480
G1 X176.083 Y105.470 E-0.11520
G1 E-0.04000 F2100.00000
G1 Z0.800 F10800.000
G1 X176.980 Y105.267
G1 Z0.200
G1 E0.80000 F2100.00000
G1 F1200
G1 X176.980 Y98.207 E0.18025
G1 X176.472 Y98.207 E0.01295
G1 X176.472 Y105.128 E0.17673
G1 X175.965 Y105.128 E0.01295
G1 X175.965 Y98.207 E0.17673
G1 X175.458 Y98.207 E0.01295
G1 X175.458 Y105.128 E0.17673
G1 X174.951 Y105.128 E0.01295
G1 X174.951 Y98.207 E0.17673
G1 X174.444 Y98.207 E0.01295
G1 X174.444 Y99.330 E0.02868
G1 X174.073 Y99.330 E0.00947
G1 X174.073 Y99.569 E0.00610
G1 X173.937 Y99.569 E0.00348
G1 X173.937 Y98.207 E0.03477
G1 X173.430 Y98.207 E0.01295
G1 X173.430 Y99.569 E0.03477
G1 X172.923 Y99.569 E0.01295
G1 X172.923 Y98.069 E0.03830
G1 X174.320 Y99.503 F10800.000
G1 F1200
G1 X174.320 Y104.759 E0.16480
G1 X174.042 Y105.036 E0.01232
G1 X173.580 Y105.036 E0.01448
G1 X173.580 Y100.381 E0.14597
G1 X173.566 Y99.911 E0.01474
G1 X172.811 Y99.911 E0.02365
G1 X172.811 Y99.963 E0.00162
G1 X172.057 Y99.963 E0.02365
G1 X172.057 Y95.242 E0.14801
G1 X172.811 Y95.242 E0.02365
G1 X172.811 Y97.865 E0.08224
G1 X173.566 Y97.865 E0.02365
G1 X173.566 Y95.242 E0.08224
G1 X174.320 Y95.242 E0.02365
G1 X174.320 Y97.865 E0.08224
G1 X175.074 Y97.865 E0.02365
G1 X175.074 Y95.242 E0.08224
G1 X175.828 Y95.242 E0.02365
G1 X175.828 Y97.865 E0.08224
G1 X176.582 Y97.865 E0.02365
G1 X176.582 Y95.242 E0.08224
G1 X177.336 Y95.242 E0.02365
G1 X177.336 Y108.093 E0.40294
G1 X178.091 Y108.093 E0.02365
G1 X178.091 Y95.242 E0.40294
M73 P0 R166
G1 X178.845 Y95.242 E0.02365
G1 X178.845 Y108.093 E0.40294
G1 X179.599 Y108.093 E0.02365
G1 X179.599 Y95.242 E0.40294
G1 X180.353 Y95.242 E0.02365
G1 X180.353 Y108.093 E0.40294
G1 X181.107 Y108.093 E0.02365
G1 X181.107 Y95.242 E0.40294
G1 X181.861 Y95.242 E0.02365
G1 X181.861 Y108.263 E0.40826
G1 F8640
G1 X181.861 Y104.971 E-0.76000
G1 E-0.04000 F2100.00000
G1 Z0.800 F10800.000
G1 X171.303 Y100.132
G1 Z0.200
G1 E0.80000 F2100.00000
G1 F1200
G1 X171.303 Y95.242 E0.15333
G1 X170.549 Y95.242 E0.02365
G1 X170.549 Y99.963 E0.14801
G1 X169.795 Y99.963 E0.02365
G1 X169.795 Y95.242 E0.14801
G1 X169.041 Y95.242 E0.02365
G1 X169.041 Y99.963 E0.14801
G1 X168.287 Y99.963 E0.02365
G1 X168.287 Y95.242 E0.14801
G1 X167.532 Y95.242 E0.02365
G1 X167.532 Y99.963 E0.14801
G1 X166.778 Y99.963 E0.02365
G1 X166.778 Y95.242 E0.14801
G1 X166.024 Y95.242 E0.02365
G1 X166.024 Y99.963 E0.14801
G1 X165.270 Y99.963 E0.02365
G1 X165.270 Y95.242 E0.14801
G1 X164.516 Y95.242 E0.02365
G1 X164.516 Y99.963 E0.14801
G1 X163.762 Y99.963 E0.02365
G1 X163.762 Y95.242 E0.14801
G1 X163.007 Y95.242 E0.02365
G1 X163.007 Y99.963 E0.14801
G1 X162.253 Y99.963 E0.02365
G1 X162.253 Y95.242 E0.14801
G1 X161.499 Y95.242 E0.02365
G1 X161.499 Y99.963 E0.14801
G1 X160.745 Y99.963 E0.02365
G1 X160.745 Y95.242 E0.14801
G1 X159.991 Y95.242 E0.02365
G1 X159.991 Y99.963 E0.14801
G1 X159.237 Y99.963 E0.02365
G1 X159.237 Y95.242 E0.14801
G1 X158.482 Y95.242 E0.02365
G1 X158.482 Y99.963 E0.14801
G1 X157.728 Y99.963 E0.02365
G1 X157.728 Y95.242 E0.14801
G1 X156.974 Y95.242 E0.02365
G1 X156.974 Y99.963 E0.14801
G1 X156.220 Y99.963 E0.02365
G1 X156.220 Y95.242 E0.14801
G1 X155.466 Y95.242 E0.02365
G1 X155.466 Y99.963 E0.14801
G1 X154.712 Y99.963 E0.02365
G1 X154.712 Y95.242 E0.14801
G1 X153.957 Y95.242 E0.02365
G1 X153.957 Y99.963 E0.14801
G1 X153.203 Y99.963 E0.02365
G1 X153.203 Y95.242 E0.14801
G1 X152.449 Y95.242 E0.02365
G1 X152.449 Y99.963 E0.14801
G1 X151.695 Y99.963 E0.02365
G1 X151.695 Y92.935 E0.22034
G1 X150.941 Y92.935 E0.02365
G1 X150.941 Y99.963 E0.22034
G1 X150.187 Y99.963 E0.02365
G1 X150.187 Y92.935 E0.22034
G1 X149.433 Y92.935 E0.02365
G1 X149.433 Y95.558 E0.08224
G1 X148.678 Y95.558 E0.02365
G1 X148.678 Y92.935 E0.08224
G1 X147.924 Y92.935 E0.02365
G1 X147.924 Y95.558 E0.08224
G1 X147.170 Y95.558 E0.02365
G1 X147.170 Y90.628 E0.15457
G1 X146.416 Y90.628 E0.02365
G1 X146.416 Y95.558 E0.15457
G1 X145.662 Y95.558 E0.02365
G1 X145.662 Y90.628 E0.15457
G1 X144.908 Y90.628 E0.02365
G1 X144.908 Y95.558 E0.15457
G1 X144.153 Y95.558 E0.02365
