; generated by Slic3r Prusa Edition 1.41.3+linux64 on 2019-03-07 at 23:34:33

; 

; external perimeters extrusion width = 0.45mm
; perimeters extrusion width = 0.45mm
; infill extrusion width = 0.45mm
; solid infill extrusion width = 0.45mm
; top infill extrusion width = 0.40mm
; support material extrusion width = 0.35mm
; first layer extrusion width = 0.42mm

M73 P0 R54
M201 X9000 Y9000 Z500 E10000 ; sets maximum accelerations, mm/sec^2
M203 X500 Y500 Z12 E120 ; sets maximum feedrates, mm/sec
M204 P2000 R1500 T2000 ; sets acceleration (P, T) and retract acceleration (R), mm/sec^2
M205 X10.00 Y10.00 Z0.20 E2.50 ; sets the jerk limits, mm/sec
M205 S0 T0 ; sets the minimum extruding and travel feed rate, mm/sec
M107
M115 U3.5.1 ; tell printer latest fw version
M83  ; extruder relative mode
M104 S215 ; set extruder temp
M140 S60 ; set bed temp
M190 S60 ; wait for bed temp
M109 S215 ; wait for extruder temp
G28 W ; home all without mesh bed level
G80 ; mesh bed leveling
G1 Y-3.0 F1000.0 ; go outside print area
G92 E0.0
G1 X60.0 E9.0  F1000.0 ; intro line
M73 P0 R54
G1 X100.0 E12.5  F1000.0 ; intro line
G92 E0.0
M900 K30 ; Filament gcode
G21 ; set units to millimeters
G90 ; use absolute coordinates
M83 ; use relative distances for extrusion
;BEFORE_LAYER_CHANGE
G92 E0.0
;0.2


G1 E-0.80000 F2100.00000
G1 Z0.600 F10800.000
;AFTER_LAYER_CHANGE
;0.2
G1 X69.731 Y80.376
G1 Z0.200
G1 E0.80000 F2100.00000
M204 S1000
G1 F1200
G1 X70.205 Y79.888 E0.02134
G1 X72.821 Y78.066 E0.09996
G1 X73.537 Y77.744 E0.02462
G1 X75.887 Y77.214 E0.07552
G1 X76.844 Y77.071 E0.03035
G1 X122.193 Y73.344 E1.42668
G1 X150.236 Y73.339 E0.87927
G1 X176.468 Y75.729 E0.82590
G1 X177.135 Y76.046 E0.02315
G1 X177.660 Y76.571 E0.02326
G1 X180.893 Y81.989 E0.19783
G1 X181.565 Y83.998 E0.06642
G1 X181.833 Y85.292 E0.04144
G1 X181.828 Y125.530 E1.26163
G1 X181.694 Y126.142 E0.01964
G1 X180.657 Y128.645 E0.08497
G1 X177.718 Y133.562 E0.17961
G1 X177.115 Y134.186 E0.02721
G1 X176.511 Y134.477 E0.02100
G1 X175.848 Y134.572 E0.02100
G1 X77.336 Y132.964 E3.08919
G1 X75.439 Y132.686 E0.06012
G1 X73.047 Y131.897 E0.07897
G1 X69.846 Y129.265 E0.12992
G1 X69.461 Y128.837 E0.01805
G1 X68.241 Y125.909 E0.09947
G1 X68.104 Y125.209 E0.02236
G1 X68.108 Y84.717 E1.26960
G1 X68.241 Y84.094 E0.01998
G1 X69.485 Y80.827 E0.10958
G1 X69.702 Y80.428 E0.01424
; PURGING FINISHED
G1 F8640
G1 X70.205 Y79.888 E-0.17055
G1 X72.300 Y78.429 E-0.58945
G1 E-0.04000 F2100.00000
G1 Z0.800 F10800.000
G1 X73.308 Y82.585
G1 Z0.200
G1 E0.80000 F2100.00000
G1 F1200
G1 X73.308 Y82.232 E0.01108
G1 X72.554 Y81.983 E0.02490
G1 X72.554 Y83.250 E0.03974
G1 X72.165 Y83.887 E0.02341
G1 X72.019 Y84.177 E0.01017
G1 X71.800 Y84.702 E0.01783
G1 X71.800 Y81.733 E0.09307
G1 X71.517 Y81.640 E0.00935
G1 X71.046 Y83.066 E0.04708
G1 X71.046 Y126.934 E1.37548
G1 X71.266 Y127.599 E0.02196
G1 X71.800 Y127.599 E0.01676
G1 X71.800 Y125.298 E0.07215
G1 X72.019 Y125.823 E0.01783
G1 X72.165 Y126.113 E0.01018
G1 X72.554 Y126.750 E0.02340
G1 X72.554 Y127.769 E0.03196
G1 F8640
G1 X72.554 Y126.750 E-0.23534
G1 X72.165 Y126.113 E-0.17231
G1 X72.019 Y125.823 E-0.07496
G1 X71.800 Y125.298 E-0.13133
G1 X71.800 Y125.931 E-0.14606
G1 E-0.04000 F2100.00000
G1 Z0.800 F10800.000
G1 X74.062 Y128.099
G1 Z0.200
G1 E0.80000 F2100.00000
G1 F1200
G1 X74.062 Y129.958 E0.05831
G1 X74.817 Y130.205 E0.02487
G1 X74.817 Y128.796 E0.04418
G1 X75.177 Y128.981 E0.01270
G1 X75.571 Y129.149 E0.01343
G1 X75.571 Y130.451 E0.04080
G1 X76.325 Y130.642 E0.02439
G1 X76.325 Y129.397 E0.03904
G1 X77.079 Y129.548 E0.02412
G1 X77.079 Y130.752 E0.03776
G1 X77.833 Y130.786 E0.02367
G1 X77.833 Y129.610 E0.03690
G1 X78.587 Y129.614 E0.02365
G1 X78.587 Y130.786 E0.03677
G1 X79.342 Y130.786 E0.02365
G1 X79.342 Y129.614 E0.03677
G1 X80.096 Y129.614 E0.02365
G1 X80.096 Y130.786 E0.03677
G1 X80.850 Y130.786 E0.02365
G1 X80.850 Y129.614 E0.03677
G1 X81.604 Y129.614 E0.02365
G1 X81.604 Y130.786 E0.03677
G1 X82.358 Y130.786 E0.02365
G1 X82.358 Y129.614 E0.03677
G1 X83.112 Y129.614 E0.02365
G1 X83.112 Y130.786 E0.03677
G1 X83.867 Y130.786 E0.02365
G1 X83.867 Y129.614 E0.03677
G1 X84.621 Y129.614 E0.02365
G1 X84.621 Y130.786 E0.03677
G1 X85.375 Y130.786 E0.02365
G1 X85.375 Y129.614 E0.03677
G1 X86.129 Y129.614 E0.02365
G1 X86.129 Y130.786 E0.03677
G1 X86.883 Y130.786 E0.02365
G1 X86.883 Y129.614 E0.03677
G1 X87.637 Y129.614 E0.02365
G1 X87.637 Y130.786 E0.03677
G1 X88.391 Y130.786 E0.02365
G1 X88.391 Y129.614 E0.03677
G1 X89.146 Y129.614 E0.02365
G1 X89.146 Y130.786 E0.03677
G1 X89.900 Y130.786 E0.02365
G1 X89.900 Y129.614 E0.03677
G1 X90.654 Y129.614 E0.02365
G1 X90.654 Y130.786 E0.03677
G1 X91.408 Y130.786 E0.02365
G1 X91.408 Y129.614 E0.03677
G1 X92.162 Y129.614 E0.02365
G1 X92.162 Y130.786 E0.03677
G1 X92.916 Y130.786 E0.02365
G1 X92.916 Y129.614 E0.03677
G1 X93.671 Y129.614 E0.02365
G1 X93.671 Y130.786 E0.03677
G1 X94.425 Y130.786 E0.02365
G1 X94.425 Y129.614 E0.03677
G1 X95.179 Y129.614 E0.02365
G1 X95.179 Y130.786 E0.03677
G1 X95.933 Y130.786 E0.02365
G1 X95.933 Y129.614 E0.03677
G1 X96.687 Y129.614 E0.02365
G1 X96.687 Y130.786 E0.03677
G1 X97.441 Y130.786 E0.02365
G1 X97.441 Y129.614 E0.03677
G1 X98.196 Y129.614 E0.02365
G1 X98.196 Y130.786 E0.03677
G1 X98.950 Y130.786 E0.02365
G1 X98.950 Y129.614 E0.03677
G1 X99.704 Y129.614 E0.02365
G1 X99.704 Y130.786 E0.03677
G1 X100.458 Y130.786 E0.02365
G1 X100.458 Y129.614 E0.03677
G1 X101.212 Y129.614 E0.02365
G1 X101.212 Y130.786 E0.03677
G1 X101.966 Y130.786 E0.02365
G1 X101.966 Y129.614 E0.03677
G1 X102.721 Y129.614 E0.02365
G1 X102.721 Y130.786 E0.03677
G1 X103.475 Y130.786 E0.02365
G1 X103.475 Y129.614 E0.03677
G1 X104.229 Y129.614 E0.02365
G1 X104.229 Y130.956 E0.04209
G1 F8640
G1 X104.229 Y129.614 E-0.30999
G1 X103.475 Y129.614 E-0.17414
G1 X103.475 Y130.786 E-0.27081
G1 X103.453 Y130.786 E-0.00507
G1 E-0.04000 F2100.00000
G1 Z0.800 F10800.000
G1 X112.525 Y116.886
G1 Z0.200
G1 E0.80000 F2100.00000
G1 F1200
G1 X112.525 Y127.599 E0.33592
G1 X113.279 Y127.599 E0.02365
G1 X113.279 Y117.055 E0.33060
G1 X114.033 Y117.055 E0.02365
G1 X114.033 Y127.599 E0.33060
G1 X114.787 Y127.599 E0.02365
G1 X114.787 Y117.055 E0.33060
G1 X115.541 Y117.055 E0.02365
G1 X115.541 Y127.599 E0.33060
G1 X116.295 Y127.599 E0.02365
G1 X116.295 Y117.055 E0.33060
G1 X117.050 Y117.055 E0.02365
G1 X117.050 Y127.599 E0.33060
G1 X117.804 Y127.599 E0.02365
G1 X117.804 Y117.055 E0.33060
G1 X118.558 Y117.055 E0.02365
G1 X118.558 Y127.599 E0.33060
G1 X119.312 Y127.599 E0.02365
G1 X119.312 Y117.055 E0.33060
G1 X120.066 Y117.055 E0.02365
G1 X120.066 Y127.599 E0.33060
G1 X120.820 Y127.599 E0.02365
G1 X120.820 Y117.055 E0.33060
G1 X121.574 Y117.055 E0.02365
G1 X121.574 Y127.599 E0.33060
G1 X122.329 Y127.599 E0.02365
G1 X122.329 Y117.055 E0.33060
G1 X123.083 Y117.055 E0.02365
G1 X123.083 Y127.599 E0.33060
G1 X123.837 Y127.599 E0.02365
G1 X123.837 Y117.055 E0.33060
G1 X124.591 Y117.055 E0.02365
G1 X124.591 Y127.599 E0.33060
G1 X125.345 Y127.599 E0.02365
G1 X125.345 Y117.055 E0.33060
G1 X126.099 Y117.055 E0.02365
G1 X126.099 Y127.599 E0.33060
G1 X126.854 Y127.599 E0.02365
G1 X126.854 Y117.055 E0.33060
G1 X127.608 Y117.055 E0.02365
G1 X127.608 Y127.599 E0.33060
G1 X128.362 Y127.599 E0.02365
G1 X128.362 Y117.055 E0.33060
G1 X129.116 Y117.055 E0.02365
G1 X129.116 Y127.599 E0.33060
G1 X129.870 Y127.599 E0.02365
G1 X129.870 Y117.055 E0.33060
G1 X130.624 Y117.055 E0.02365
G1 X130.624 Y127.599 E0.33060
G1 X131.379 Y127.599 E0.02365
G1 X131.379 Y117.055 E0.33060
G1 X132.133 Y117.055 E0.02365
G1 X132.133 Y127.599 E0.33060
G1 X132.887 Y127.599 E0.02365
G1 X132.887 Y117.055 E0.33060
G1 X133.641 Y117.055 E0.02365
G1 X133.641 Y127.599 E0.33060
G1 X134.395 Y127.599 E0.02365
G1 X134.395 Y117.055 E0.33060
G1 X135.149 Y117.055 E0.02365
G1 X135.149 Y127.599 E0.33060
G1 X135.904 Y127.599 E0.02365
G1 X135.904 Y117.055 E0.33060
G1 X136.658 Y117.055 E0.02365
G1 X136.658 Y127.599 E0.33060
G1 X137.412 Y127.599 E0.02365
G1 X137.412 Y117.055 E0.33060
G1 X138.166 Y117.055 E0.02365
G1 X138.166 Y127.599 E0.33060
G1 X138.920 Y127.599 E0.02365
G1 X138.920 Y117.055 E0.33060
G1 X139.674 Y117.055 E0.02365
G1 X139.674 Y127.599 E0.33060
G1 X140.355 Y127.599 E0.02133
G1 X140.355 Y127.786 E0.00586
G1 X140.428 Y127.786 E0.00232
G1 X140.428 Y82.214 E1.42891
G1 X141.183 Y82.214 E0.02365
G1 X141.183 Y127.786 E1.42891
G1 X141.937 Y127.786 E0.02365
G1 X141.937 Y82.214 E1.42891
G1 X142.691 Y82.214 E0.02365
G1 X142.691 Y127.786 E1.42891
G1 X143.445 Y127.786 E0.02365
G1 X143.445 Y82.214 E1.42891
M73 P2 R53
G1 X144.199 Y82.214 E0.02365
G1 X144.199 Y127.786 E1.42891
G1 X144.953 Y127.786 E0.02365
G1 X144.953 Y82.214 E1.42891
G1 X145.708 Y82.214 E0.02365
G1 X145.708 Y127.786 E1.42891
G1 X146.462 Y127.786 E0.02365
G1 X146.462 Y82.214 E1.42891
G1 X147.216 Y82.214 E0.02365
G1 X147.216 Y127.786 E1.42891
G1 X147.970 Y127.786 E0.02365
G1 X147.970 Y82.214 E1.42891
G1 X148.724 Y82.214 E0.02365
G1 X148.724 Y127.786 E1.42891
G1 X149.478 Y127.786 E0.02365
G1 X149.478 Y82.214 E1.42891
G1 X150.233 Y82.214 E0.02365
G1 X150.233 Y127.786 E1.42891
G1 X150.987 Y127.786 E0.02365
G1 X150.987 Y82.214 E1.42891
G1 X151.741 Y82.214 E0.02365
G1 X151.741 Y127.786 E1.42891
G1 X152.495 Y127.786 E0.02365
G1 X152.495 Y82.214 E1.42891
G1 X153.249 Y82.214 E0.02365
G1 X153.249 Y127.786 E1.42891
G1 X154.003 Y127.786 E0.02365
G1 X154.003 Y119.362 E0.26413
G1 X154.197 Y119.362 E0.00607
G1 X154.197 Y118.371 E0.03108
G1 X154.003 Y118.371 E0.00607
G1 X154.003 Y98.599 E0.61995
G1 X154.197 Y98.599 E0.00607
G1 X154.197 Y97.607 E0.03108
G1 X154.003 Y97.607 E0.00607
G1 X154.003 Y82.214 E0.48266
G1 X154.757 Y82.214 E0.02365
G1 X154.757 Y127.786 E1.42891
G1 X155.512 Y127.786 E0.02365
G1 X155.512 Y82.214 E1.42891
G1 X156.266 Y82.214 E0.02365
G1 X156.266 Y127.786 E1.42891
G1 X157.020 Y127.786 E0.02365
G1 X157.020 Y82.214 E1.42891
G1 X157.774 Y82.214 E0.02365
G1 X157.774 Y127.786 E1.42891
G1 X158.528 Y127.786 E0.02365
G1 X158.528 Y82.214 E1.42891
G1 X159.282 Y82.214 E0.02365
G1 X159.282 Y127.786 E1.42891
G1 X160.037 Y127.786 E0.02365
G1 X160.037 Y82.214 E1.42891
G1 X160.791 Y82.214 E0.02365
G1 X160.791 Y127.786 E1.42891
G1 X161.545 Y127.786 E0.02365
G1 X161.545 Y82.214 E1.42891
G1 X162.299 Y82.214 E0.02365
G1 X162.299 Y127.956 E1.43423
G1 F8640
G1 X162.299 Y124.665 E-0.76000
G1 E-0.04000 F2100.00000
G1 Z0.800 F10800.000
G1 X175.874 Y132.383
G1 Z0.200
G1 E0.80000 F2100.00000
G1 F1200
G1 X175.874 Y128.358 E0.12619
G1 X175.404 Y128.670 E0.01767
G1 X175.120 Y128.831 E0.01026
G1 X175.120 Y132.214 E0.10604
G1 X174.366 Y132.214 E0.02365
G1 X174.366 Y129.174 E0.09530
G1 X173.611 Y129.414 E0.02482
G1 X173.611 Y132.214 E0.08777
G1 X172.857 Y132.214 E0.02365
G1 X172.857 Y129.556 E0.08333
G1 X172.103 Y129.611 E0.02371
G1 X172.103 Y132.214 E0.08160
G1 X171.349 Y132.214 E0.02365
M73 P3 R52
G1 X171.349 Y129.614 E0.08152
G1 X170.595 Y129.614 E0.02365
G1 X170.595 Y132.214 E0.08152
G1 X169.841 Y132.214 E0.02365
G1 X169.841 Y129.614 E0.08152
G1 X169.087 Y129.614 E0.02365
G1 X169.087 Y130.786 E0.03677
G1 X168.332 Y130.786 E0.02365
G1 X168.332 Y129.614 E0.03677
G1 X167.578 Y129.614 E0.02365
G1 X167.578 Y130.786 E0.03677
G1 X166.824 Y130.786 E0.02365
G1 X166.824 Y129.614 E0.03677
G1 X166.070 Y129.614 E0.02365
G1 X166.070 Y130.786 E0.03677
G1 X165.316 Y130.786 E0.02365
G1 X165.316 Y129.614 E0.03677
G1 X164.562 Y129.614 E0.02365
G1 X164.562 Y130.786 E0.03677
G1 X163.807 Y130.786 E0.02365
G1 X163.807 Y129.614 E0.03677
G1 X163.053 Y129.614 E0.02365
G1 X163.053 Y130.786 E0.03677
G1 X162.299 Y130.786 E0.02365
G1 X162.299 Y129.614 E0.03677
G1 X161.545 Y129.614 E0.02365
G1 X161.545 Y130.786 E0.03677
G1 X160.791 Y130.786 E0.02365
G1 X160.791 Y129.614 E0.03677
G1 X160.037 Y129.614 E0.02365
G1 X160.037 Y130.786 E0.03677
G1 X159.282 Y130.786 E0.02365
G1 X159.282 Y129.614 E0.03677
G1 X158.528 Y129.614 E0.02365
G1 X158.528 Y130.786 E0.03677
G1 X157.774 Y130.786 E0.02365
G1 X157.774 Y129.614 E0.03677
G1 X157.020 Y129.614 E0.02365
G1 X157.020 Y130.786 E0.03677
G1 X156.266 Y130.786 E0.02365
G1 X156.266 Y129.614 E0.03677
G1 X155.512 Y129.614 E0.02365
G1 X155.512 Y130.786 E0.03677
G1 X154.757 Y130.786 E0.02365
G1 X154.757 Y129.614 E0.03677
G1 X154.003 Y129.614 E0.02365
G1 X154.003 Y130.786 E0.03677
G1 X153.249 Y130.786 E0.02365
G1 X153.249 Y129.614 E0.03677
G1 X152.495 Y129.614 E0.02365
G1 X152.495 Y130.786 E0.03677
G1 X151.741 Y130.786 E0.02365
G1 X151.741 Y129.614 E0.03677
G1 X150.987 Y129.614 E0.02365
G1 X150.987 Y130.786 E0.03677
G1 X150.233 Y130.786 E0.02365
G1 X150.233 Y129.614 E0.03677
G1 X149.478 Y129.614 E0.02365
G1 X149.478 Y130.786 E0.03677
G1 X148.724 Y130.786 E0.02365
G1 X148.724 Y129.614 E0.03677
G1 X147.970 Y129.614 E0.02365
G1 X147.970 Y130.786 E0.03677
G1 X147.216 Y130.786 E0.02365
G1 X147.216 Y129.614 E0.03677
G1 X146.462 Y129.614 E0.02365
G1 X146.462 Y130.786 E0.03677
G1 X145.708 Y130.786 E0.02365
G1 X145.708 Y129.614 E0.03677
G1 X144.953 Y129.614 E0.02365
G1 X144.953 Y130.786 E0.03677
G1 X144.199 Y130.786 E0.02365
G1 X144.199 Y129.614 E0.03677
G1 X143.445 Y129.614 E0.02365
G1 X143.445 Y130.786 E0.03677
G1 X142.691 Y130.786 E0.02365
G1 X142.691 Y129.614 E0.03677
G1 X141.937 Y129.614 E0.02365
G1 X141.937 Y130.786 E0.03677
G1 X141.183 Y130.786 E0.02365
G1 X141.183 Y129.614 E0.03677
G1 X140.428 Y129.614 E0.02365
G1 X140.428 Y130.956 E0.04209
G1 F8640
G1 X140.428 Y129.614 E-0.30999
G1 X141.183 Y129.614 E-0.17414
G1 X141.183 Y130.786 E-0.27081
G1 X141.205 Y130.786 E-0.00507
G1 E-0.04000 F2100.00000
G1 Z0.800 F10800.000
G1 X139.674 Y95.470
G1 Z0.200
G1 E0.80000 F2100.00000
G1 F1200
G1 X139.674 Y82.214 E0.41565
G1 X138.920 Y82.214 E0.02365
G1 X138.920 Y95.300 E0.41033
G1 X138.166 Y95.300 E0.02365
G1 X138.166 Y82.214 E0.41033
G1 X137.412 Y82.214 E0.02365
G1 X137.412 Y95.300 E0.41033
G1 X136.658 Y95.300 E0.02365
G1 X136.658 Y82.214 E0.41033
G1 X135.904 Y82.214 E0.02365
G1 X135.904 Y95.300 E0.41033
G1 X135.149 Y95.300 E0.02365
G1 X135.149 Y82.214 E0.41033
G1 X134.395 Y82.214 E0.02365
G1 X134.395 Y95.300 E0.41033
G1 X133.641 Y95.300 E0.02365
G1 X133.641 Y82.214 E0.41033
G1 X132.887 Y82.214 E0.02365
G1 X132.887 Y95.300 E0.41033
G1 X132.133 Y95.300 E0.02365
G1 X132.133 Y82.214 E0.41033
G1 X131.379 Y82.214 E0.02365
G1 X131.379 Y95.300 E0.41033
G1 X130.624 Y95.300 E0.02365
G1 X130.624 Y82.214 E0.41033
G1 X129.870 Y82.214 E0.02365
G1 X129.870 Y95.300 E0.41033
G1 X129.116 Y95.300 E0.02365
G1 X129.116 Y82.214 E0.41033
G1 X128.362 Y82.214 E0.02365
G1 X128.362 Y95.300 E0.41033
G1 X127.608 Y95.300 E0.02365
G1 X127.608 Y82.214 E0.41033
G1 X126.854 Y82.214 E0.02365
G1 X126.854 Y95.300 E0.41033
G1 X126.099 Y95.300 E0.02365
G1 X126.099 Y82.214 E0.41033
G1 X125.345 Y82.214 E0.02365
G1 X125.345 Y95.300 E0.41033
G1 X124.591 Y95.300 E0.02365
G1 X124.591 Y82.214 E0.41033
G1 X123.837 Y82.214 E0.02365
G1 X123.837 Y95.300 E0.41033
G1 X123.083 Y95.300 E0.02365
G1 X123.083 Y82.214 E0.41033
G1 X122.329 Y82.214 E0.02365
G1 X122.329 Y95.300 E0.41033
G1 X121.574 Y95.300 E0.02365
G1 X121.574 Y82.214 E0.41033
G1 X120.820 Y82.214 E0.02365
G1 X120.820 Y95.300 E0.41033
G1 X120.066 Y95.300 E0.02365
G1 X120.066 Y82.214 E0.41033
G1 X119.591 Y82.214 E0.01491
G1 X119.591 Y82.449 E0.00739
G1 X119.312 Y82.449 E0.00874
G1 X119.312 Y95.300 E0.40294
G1 X118.558 Y95.300 E0.02365
G1 X118.558 Y82.449 E0.40294
G1 X117.804 Y82.449 E0.02365
G1 X117.804 Y95.300 E0.40294
G1 X117.050 Y95.300 E0.02365
G1 X117.050 Y82.449 E0.40294
G1 X116.295 Y82.449 E0.02365
G1 X116.295 Y95.300 E0.40294
G1 X115.541 Y95.300 E0.02365
G1 X115.541 Y82.449 E0.40294
G1 X114.787 Y82.449 E0.02365
G1 X114.787 Y95.300 E0.40294
G1 X114.033 Y95.300 E0.02365
G1 X114.033 Y82.449 E0.40294
G1 X113.279 Y82.449 E0.02365
G1 X113.279 Y95.300 E0.40294
G1 X112.525 Y95.300 E0.02365
G1 X112.525 Y82.449 E0.40294
G1 X111.770 Y82.449 E0.02365
G1 X111.770 Y127.599 E1.41565
G1 X111.016 Y127.599 E0.02365
G1 X111.016 Y82.449 E1.41565
G1 X110.262 Y82.449 E0.02365
G1 X110.262 Y127.599 E1.41565
G1 X109.508 Y127.599 E0.02365
G1 X109.508 Y82.449 E1.41565
G1 X108.754 Y82.449 E0.02365
G1 X108.754 Y127.599 E1.41565
G1 X108.000 Y127.599 E0.02365
G1 X108.000 Y82.449 E1.41565
