; generated by Slic3r Prusa Edition 1.41.3+linux64 on 2019-12-27 at 21:06:27

; 

; external perimeters extrusion width = 0.45mm
; perimeters extrusion width = 0.45mm
; infill extrusion width = 0.45mm
; solid infill extrusion width = 0.45mm
; top infill extrusion width = 0.40mm
; support material extrusion width = 0.35mm
; first layer extrusion width = 0.42mm

M73 P0 R171
M201 X9000 Y9000 Z500 E10000 ; sets maximum accelerations, mm/sec^2
M203 X500 Y500 Z12 E120 ; sets maximum feedrates, mm/sec
M204 P2000 R1500 T2000 ; sets acceleration (P, T) and retract acceleration (R), mm/sec^2
M205 X10.00 Y10.00 Z0.20 E2.50 ; sets the jerk limits, mm/sec
M205 S0 T0 ; sets the minimum extruding and travel feed rate, mm/sec
M107
M115 U3.2.3 ; tell printer latest fw version
M83  ; extruder relative mode
M204 S2000 T1500 ; MK2 firmware only supports the old M204 format
M104 S215 ; set extruder temp
M140 S60 ; set bed temp
M190 S60 ; wait for bed temp
M109 S215 ; wait for extruder temp
G28 W ; home all without mesh bed level
G80 ; mesh bed leveling
G1 Y-3.0 F1000.0 ; go outside print area
G92 E0.0
G1 X60.0 E9.0  F1000.0 ; intro line
M73 P0 R171
G1 X100.0 E12.5  F1000.0 ; intro line
G92 E0.0
M900 K30 ; Filament gcode
G21 ; set units to millimeters
G90 ; use absolute coordinates
M83 ; use relative distances for extrusion
;BEFORE_LAYER_CHANGE
G92 E0.0
;0.2


G1 E-0.80000 F2100.00000
G1 Z0.600 F10800.000
;AFTER_LAYER_CHANGE
;0.2
G1 X64.765 Y53.077
G1 Z0.200
G1 E0.80000 F2100.00000
M204 S1000
G1 F1200
G1 X65.107 Y52.540 E0.01998
G1 X72.166 Y45.501 E0.31255
G1 X72.572 Y45.257 E0.01487
G1 X73.021 Y45.105 E0.01487
G1 X75.265 Y44.824 E0.07091
G1 X169.581 Y44.818 E2.95720
G1 X177.121 Y45.000 E0.23647
G1 X177.617 Y45.085 E0.01578
G1 X178.084 Y45.283 E0.01589
G1 X178.540 Y45.628 E0.01794
G1 X186.234 Y53.324 E0.34120
G1 X186.629 Y53.913 E0.02225
G1 X186.815 Y54.601 E0.02236
G1 X188.026 Y144.336 E2.81382
G1 X187.869 Y146.773 E0.07658
G1 X187.589 Y147.587 E0.02698
G1 X180.903 Y156.499 E0.34933
G1 X176.623 Y160.749 E0.18913
G1 X175.992 Y161.067 E0.02213
G1 X174.369 Y161.543 E0.05305
G1 X173.874 Y161.611 E0.01567
G1 X76.697 Y161.574 E3.04692
G1 X75.332 Y161.304 E0.04363
G1 X74.332 Y161.013 E0.03265
G1 X73.469 Y160.660 E0.02923
G1 X72.177 Y159.933 E0.04649
G1 X71.007 Y159.014 E0.04665
G1 X70.345 Y158.352 E0.02937
G1 X69.668 Y157.510 E0.03384
G1 X68.706 Y155.847 E0.06025
G1 X68.257 Y154.667 E0.03958
G1 X67.873 Y152.775 E0.06053
G1 X64.222 Y94.778 E1.82206
G1 X64.033 Y60.865 E1.06334
G1 X64.592 Y53.691 E0.22561
G1 X64.749 Y53.135 E0.01810
; PURGING FINISHED
G1 F8640
G1 X65.107 Y52.540 E-0.16048
G1 X66.946 Y50.706 E-0.59952
G1 E-0.04000 F2100.00000
G1 Z0.800 F10800.000
G1 X66.222 Y60.911
G1 Z0.200
G1 E0.80000 F2100.00000
G1 F1200
G1 X78.984 Y48.149 E0.56592
G1 X78.451 Y47.615 E0.02365
G1 X67.015 Y59.051 E0.50707
G1 X66.482 Y58.518 E0.02365
G1 X77.918 Y47.082 E0.50707
G1 X77.843 Y47.007 E0.00333
G1 X76.635 Y48.214 E0.05352
G1 X76.177 Y47.756 E0.02032
G1 X67.156 Y56.777 E0.40002
G1 X66.623 Y56.244 E0.02365
G1 X75.644 Y47.223 E0.40002
G1 X75.428 Y47.007 E0.00956
G1 X74.221 Y48.214 E0.05352
G1 X73.904 Y47.896 E0.01408
G1 X67.296 Y54.504 E0.29297
G1 X66.763 Y53.970 E0.02365
G1 X73.490 Y47.243 E0.29830
G1 F8640
G1 X71.163 Y49.571 E-0.76000
G1 E-0.04000 F2100.00000
G1 Z0.800 F10800.000
G1 X77.428 Y56.104
G1 Z0.200
G1 E0.80000 F2100.00000
G1 F1200
G1 X75.644 Y57.888 E0.07910
G1 X75.745 Y58.190 E0.00999
G1 X75.905 Y58.450 E0.00955
G1 X76.019 Y58.580 E0.00542
G1 X77.980 Y56.619 E0.08694
G1 X78.095 Y56.750 E0.00549
G1 X78.215 Y56.932 E0.00683
G1 X78.304 Y57.130 E0.00682
G1 X78.356 Y57.310 E0.00584
G1 X76.570 Y59.095 E0.07919
G1 F8640
G1 X78.356 Y57.310 E-0.58316
G1 X78.304 Y57.130 E-0.04301
G1 X78.215 Y56.932 E-0.05022
G1 X78.095 Y56.750 E-0.05027
G1 X78.000 Y56.642 E-0.03333
G1 E-0.04000 F2100.00000
G1 Z0.800 F10800.000
G1 X75.456 Y95.405
G1 Z0.200
G1 E0.80000 F2100.00000
G1 F1200
G1 X76.583 Y94.278 E0.04996
G1 X76.826 Y94.225 E0.00781
G1 X77.087 Y94.216 E0.00818
G1 X77.344 Y94.257 E0.00817
G1 X77.585 Y94.343 E0.00799
G1 X75.743 Y96.185 E0.08166
G1 X75.829 Y96.343 E0.00565
G1 X75.960 Y96.517 E0.00683
G1 X76.237 Y96.757 E0.01150
G1 X78.157 Y94.837 E0.08515
G1 X78.272 Y95.049 E0.00758
G1 X78.343 Y95.256 E0.00683
G1 X78.380 Y95.469 E0.00681
G1 X78.384 Y95.676 E0.00649
G1 X76.907 Y97.153 E0.06549
G1 F8640
G1 X78.384 Y95.676 E-0.48225
G1 X78.380 Y95.469 E-0.04782
G1 X78.343 Y95.256 E-0.05011
G1 X78.272 Y95.049 E-0.05033
G1 X78.157 Y94.837 E-0.05581
G1 X77.932 Y95.062 E-0.07367
G1 E-0.04000 F2100.00000
G1 Z0.800 F10800.000
G1 X168.109 Y107.273
G1 Z0.200
G1 E0.80000 F2100.00000
G1 F1200
G1 X176.089 Y99.293 E0.35382
G1 X175.022 Y99.293 E0.03344
G1 X167.696 Y106.620 E0.32485
G1 X167.167 Y106.091 E0.02345
G1 X165.960 Y107.298 E0.05352
G1 X173.955 Y99.293 E0.35473
G1 X172.889 Y99.293 E0.03344
G1 X165.422 Y106.760 E0.33108
G1 X164.889 Y106.227 E0.02365
G1 X171.822 Y99.293 E0.30744
G1 X170.756 Y99.293 E0.03344
G1 X163.149 Y106.901 E0.33732
G1 X162.615 Y106.367 E0.02365
G1 X169.689 Y99.293 E0.31367
G1 X168.623 Y99.293 E0.03344
G1 X160.875 Y107.041 E0.34355
G1 X160.342 Y106.508 E0.02365
G1 X167.556 Y99.293 E0.31990
G1 X166.490 Y99.293 E0.03344
G1 X158.601 Y107.182 E0.34978
G1 X158.068 Y106.649 E0.02365
G1 X165.423 Y99.293 E0.32613
G1 X164.357 Y99.293 E0.03344
G1 X157.535 Y106.115 E0.30249
G1 X157.510 Y106.091 E0.00109
G1 X156.303 Y107.298 E0.05352
G1 X155.794 Y106.789 E0.02256
G1 X163.290 Y99.293 E0.33237
G1 X162.224 Y99.293 E0.03344
G1 X155.261 Y106.256 E0.30872
G1 X155.096 Y106.091 E0.00732
G1 X153.889 Y107.298 E0.05352
G1 X153.521 Y106.930 E0.01632
G1 X161.157 Y99.293 E0.33860
G1 X160.090 Y99.293 E0.03344
G1 X152.988 Y106.396 E0.31495
G1 X152.682 Y106.091 E0.01355
G1 X151.475 Y107.298 E0.05352
G1 X151.247 Y107.070 E0.01009
G1 X159.024 Y99.293 E0.34483
G1 X157.957 Y99.293 E0.03344
G1 X150.714 Y106.537 E0.32118
G1 X150.268 Y106.091 E0.01979
G1 X149.061 Y107.298 E0.05352
G1 X148.974 Y107.211 E0.00386
G1 X156.891 Y99.293 E0.35106
G1 X155.824 Y99.293 E0.03344
G1 X148.440 Y106.677 E0.32742
G1 X147.907 Y106.144 E0.02365
G1 X154.758 Y99.293 E0.30377
G1 X153.691 Y99.293 E0.03344
G1 X146.167 Y106.818 E0.33365
G1 X145.633 Y106.285 E0.02365
G1 X152.625 Y99.293 E0.31000
G1 X151.558 Y99.293 E0.03344
G1 X143.893 Y106.959 E0.33988
G1 X143.360 Y106.425 E0.02365
G1 X150.492 Y99.293 E0.31623
G1 X149.425 Y99.293 E0.03344
G1 X141.619 Y107.099 E0.34611
G1 X141.086 Y106.566 E0.02365
G1 X148.358 Y99.293 E0.32247
G1 X147.292 Y99.293 E0.03344
G1 X139.346 Y107.240 E0.35234
G1 X138.813 Y106.706 E0.02365
G1 X146.225 Y99.293 E0.32870
G1 X145.159 Y99.293 E0.03344
G1 X138.279 Y106.173 E0.30505
G1 X138.197 Y106.091 E0.00365
G1 X136.990 Y107.298 E0.05352
G1 X136.539 Y106.847 E0.01999
G1 X144.092 Y99.293 E0.33493
G1 X143.026 Y99.293 E0.03344
G1 X136.006 Y106.314 E0.31128
G1 X135.783 Y106.091 E0.00988
G1 X134.576 Y107.298 E0.05352
G1 X134.265 Y106.987 E0.01376
G1 X141.959 Y99.293 E0.34116
G1 X140.893 Y99.293 E0.03344
G1 X133.732 Y106.454 E0.31752
G1 X133.369 Y106.091 E0.01612
G1 X132.161 Y107.298 E0.05352
G1 X131.992 Y107.128 E0.00753
G1 X139.826 Y99.293 E0.34739
G1 X138.760 Y99.293 E0.03344
G1 X131.458 Y106.595 E0.32375
G1 X130.954 Y106.091 E0.02235
G1 X129.747 Y107.298 E0.05352
G1 X129.718 Y107.269 E0.00130
G1 X137.693 Y99.293 E0.35363
G1 X136.627 Y99.293 E0.03344
G1 X129.185 Y106.735 E0.32998
G1 X128.651 Y106.202 E0.02365
G1 X135.560 Y99.293 E0.30633
G1 X134.493 Y99.293 E0.03344
G1 X126.911 Y106.876 E0.33621
G1 X126.378 Y106.343 E0.02365
G1 X133.427 Y99.293 E0.31257
G1 X132.360 Y99.293 E0.03344
G1 X124.637 Y107.016 E0.34244
G1 X124.104 Y106.483 E0.02365
G1 X131.294 Y99.293 E0.31880
M73 P0 R170
G1 X130.227 Y99.293 E0.03344
G1 X122.364 Y107.157 E0.34868
G1 X121.831 Y106.624 E0.02365
G1 X129.161 Y99.293 E0.32503
G1 X128.094 Y99.293 E0.03344
G1 X120.090 Y107.297 E0.35491
G1 X119.557 Y106.764 E0.02365
G1 X127.028 Y99.293 E0.33126
G1 X125.961 Y99.293 E0.03344
G1 X119.024 Y106.231 E0.30762
G1 X118.883 Y106.091 E0.00622
G1 X117.676 Y107.298 E0.05352
G1 X117.283 Y106.905 E0.01743
G1 X124.895 Y99.293 E0.33749
G1 X123.828 Y99.293 E0.03344
G1 X116.750 Y106.371 E0.31385
G1 X116.469 Y106.091 E0.01245
G1 X115.262 Y107.298 E0.05352
G1 X115.010 Y107.045 E0.01120
G1 X122.761 Y99.293 E0.34373
G1 X121.695 Y99.293 E0.03344
G1 X114.476 Y106.512 E0.32008
G1 X114.055 Y106.091 E0.01868
G1 X112.848 Y107.298 E0.05352
G1 X112.736 Y107.186 E0.00497
G1 X120.628 Y99.293 E0.34996
G1 X119.562 Y99.293 E0.03344
G1 X112.203 Y106.653 E0.32631
G1 X111.670 Y106.119 E0.02365
G1 X118.495 Y99.293 E0.30267
G1 X117.429 Y99.293 E0.03344
G1 X109.929 Y106.793 E0.33254
G1 X109.396 Y106.260 E0.02365
G1 X116.362 Y99.293 E0.30890
G1 X115.296 Y99.293 E0.03344
G1 X107.656 Y106.934 E0.33878
G1 X107.122 Y106.400 E0.02365
G1 X114.229 Y99.293 E0.31513
G1 X113.163 Y99.293 E0.03344
G1 X105.382 Y107.074 E0.34501
G1 X104.849 Y106.541 E0.02365
G1 X112.096 Y99.293 E0.32136
G1 X111.029 Y99.293 E0.03344
G1 X103.108 Y107.215 E0.35124
G1 X102.575 Y106.681 E0.02365
G1 X109.963 Y99.293 E0.32759
G1 X108.896 Y99.293 E0.03344
G1 X102.042 Y106.148 E0.30395
G1 X101.984 Y106.091 E0.00255
G1 X100.777 Y107.298 E0.05352
G1 X100.301 Y106.822 E0.02110
G1 X107.830 Y99.293 E0.33383
G1 X106.763 Y99.293 E0.03344
G1 X99.768 Y106.289 E0.31018
G1 X99.570 Y106.091 E0.00878
G1 X98.363 Y107.298 E0.05352
G1 X98.028 Y106.963 E0.01487
G1 X105.697 Y99.293 E0.34006
G1 X104.630 Y99.293 E0.03344
G1 X97.494 Y106.429 E0.31641
G1 X97.156 Y106.091 E0.01501
G1 X95.949 Y107.298 E0.05352
G1 X95.754 Y107.103 E0.00863
G1 X103.564 Y99.293 E0.34629
G1 X102.497 Y99.293 E0.03344
G1 X95.221 Y106.570 E0.32264
G1 X94.742 Y106.091 E0.02124
G1 X93.535 Y107.298 E0.05352
G1 X93.480 Y107.244 E0.00240
G1 X101.431 Y99.293 E0.35252
G1 X100.364 Y99.293 E0.03344
G1 X92.947 Y106.710 E0.32888
G1 X92.414 Y106.177 E0.02365
G1 X99.298 Y99.293 E0.30523
G1 X98.231 Y99.293 E0.03344
G1 X90.674 Y106.851 E0.33511
G1 X90.140 Y106.318 E0.02365
G1 X97.164 Y99.293 E0.31146
G1 X96.098 Y99.293 E0.03344
G1 X88.400 Y106.991 E0.34134
G1 X87.867 Y106.458 E0.02365
G1 X95.031 Y99.293 E0.31769
G1 X93.965 Y99.293 E0.03344
G1 X86.126 Y107.132 E0.34757
G1 X85.593 Y106.599 E0.02365
G1 X92.898 Y99.293 E0.32393
G1 X91.832 Y99.293 E0.03344
G1 X83.853 Y107.273 E0.35380
G1 X83.319 Y106.739 E0.02365
G1 X90.765 Y99.293 E0.33016
G1 X89.699 Y99.293 E0.03344
G1 X82.786 Y106.206 E0.30651
G1 X82.671 Y106.091 E0.00511
G1 X81.464 Y107.298 E0.05352
G1 X81.046 Y106.880 E0.01853
G1 X88.632 Y99.293 E0.33639
G1 X87.566 Y99.293 E0.03344
G1 X80.513 Y106.347 E0.31274
G1 X80.257 Y106.091 E0.01134
G1 X79.050 Y107.298 E0.05352
G1 X78.772 Y107.020 E0.01230
G1 X86.499 Y99.293 E0.34262
G1 X85.432 Y99.293 E0.03344
G1 X78.239 Y106.487 E0.31898
G1 X77.843 Y106.091 E0.01758
G1 X76.635 Y107.298 E0.05352
G1 X76.499 Y107.161 E0.00607
G1 X84.366 Y99.293 E0.34885
G1 X83.299 Y99.293 E0.03344
G1 X75.965 Y106.628 E0.32521
G1 X75.432 Y106.094 E0.02365
G1 X82.233 Y99.293 E0.30156
G1 X81.166 Y99.293 E0.03344
G1 X73.692 Y106.768 E0.33144
G1 X73.158 Y106.235 E0.02365
G1 X80.100 Y99.293 E0.30779
G1 X79.033 Y99.293 E0.03344
G1 X72.625 Y105.702 E0.28415
G1 X72.092 Y105.168 E0.02365
G1 X77.967 Y99.293 E0.26050
G1 X76.900 Y99.293 E0.03344
G1 X71.559 Y104.635 E0.23686
G1 X71.025 Y104.102 E0.02365
G1 X75.834 Y99.293 E0.21321
G1 X74.767 Y99.293 E0.03344
G1 X70.492 Y103.569 E0.18956
G1 X69.959 Y103.035 E0.02365
G1 X73.701 Y99.293 E0.16592
G1 X73.549 Y99.293 E0.00476
G1 X73.307 Y99.051 E0.01074
G1 X73.307 Y98.621 E0.01349
G1 X69.425 Y102.502 E0.17209
G1 X68.892 Y101.969 E0.02365
G1 X73.307 Y97.554 E0.19574
G1 X73.307 Y96.488 E0.03344
G1 X68.359 Y101.435 E0.21938
G1 X67.826 Y100.902 E0.02365
G1 X73.307 Y95.421 E0.24303
G1 X73.307 Y94.355 E0.03344
G1 X67.292 Y100.369 E0.26668
G1 X66.759 Y99.836 E0.02365
G1 X73.307 Y93.288 E0.29032
G1 X73.307 Y92.222 E0.03344
G1 X67.433 Y98.095 E0.26044
G1 X66.900 Y97.562 E0.02365
G1 X73.307 Y91.155 E0.28409
G1 X73.307 Y90.089 E0.03344
G1 X67.573 Y95.822 E0.25421
G1 X67.040 Y95.288 E0.02365
G1 X73.307 Y89.022 E0.27786
G1 X73.307 Y87.956 E0.03344
G1 X66.507 Y94.755 E0.30150
G1 X66.407 Y94.655 E0.00443
G1 X67.614 Y93.448 E0.05352
G1 X67.181 Y93.015 E0.01921
G1 X73.307 Y86.889 E0.27163
G1 X73.307 Y85.822 E0.03344
G1 X66.647 Y92.481 E0.29527
G1 X66.407 Y92.241 E0.01067
G1 X67.614 Y91.034 E0.05352
G1 X67.321 Y90.741 E0.01298
G1 X73.307 Y84.756 E0.26539
G1 X73.307 Y83.689 E0.03344
G1 X66.788 Y90.208 E0.28904
G1 X66.407 Y89.827 E0.01690
G1 X67.614 Y88.620 E0.05352
G1 X67.462 Y88.467 E0.00675
G1 X73.307 Y82.623 E0.25916
G1 X73.307 Y81.556 E0.03344
G1 X66.929 Y87.934 E0.28281
G1 X66.407 Y87.413 E0.02313
G1 X67.614 Y86.206 E0.05352
G1 X67.602 Y86.194 E0.00052
G1 X73.307 Y80.490 E0.25293
G1 X73.307 Y79.423 E0.03344
G1 X67.069 Y85.661 E0.27658
G1 X66.536 Y85.127 E0.02365
G1 X73.307 Y78.357 E0.30022
G1 X73.307 Y77.290 E0.03344
G1 X67.210 Y83.387 E0.27034
G1 X66.676 Y82.854 E0.02365
G1 X73.307 Y76.224 E0.29399
G1 X73.307 Y75.157 E0.03344
G1 X67.350 Y81.113 E0.26411
G1 X66.817 Y80.580 E0.02365
G1 X73.307 Y74.090 E0.28776
G1 X73.307 Y73.024 E0.03344
G1 X67.491 Y78.840 E0.25788
G1 X66.957 Y78.306 E0.02365
G1 X73.307 Y71.957 E0.28153
G1 X73.307 Y70.891 E0.03344
G1 X66.424 Y77.773 E0.30517
G1 X66.407 Y77.756 E0.00077
G1 X67.614 Y76.549 E0.05352
G1 X67.098 Y76.033 E0.02288
G1 X73.307 Y69.824 E0.27529
G1 X73.307 Y68.758 E0.03344
G1 X66.565 Y75.500 E0.29894
G1 X66.407 Y75.342 E0.00700
G1 X67.614 Y74.135 E0.05352
G1 X67.239 Y73.759 E0.01665
G1 X73.307 Y67.691 E0.26906
G1 X73.307 Y66.625 E0.03344
G1 X66.705 Y73.226 E0.29271
G1 X66.407 Y72.928 E0.01323
G1 X67.614 Y71.720 E0.05352
G1 X67.379 Y71.486 E0.01042
G1 X73.307 Y65.558 E0.26283
G1 X73.307 Y64.492 E0.03344
G1 X66.846 Y70.952 E0.28648
G1 X66.407 Y70.513 E0.01946
G1 X67.614 Y69.306 E0.05352
G1 X67.520 Y69.212 E0.00418
G1 X73.307 Y63.425 E0.25660
G1 X73.307 Y62.359 E0.03344
G1 X66.986 Y68.679 E0.28024
G1 X66.453 Y68.145 E0.02365
G1 X73.307 Y61.292 E0.30389
G1 X73.307 Y60.225 E0.03344
G1 X67.127 Y66.405 E0.27401
G1 X66.594 Y65.872 E0.02365
G1 X73.307 Y59.159 E0.29766
G1 X73.307 Y58.092 E0.03344
G1 X67.267 Y64.131 E0.26778
G1 X66.734 Y63.598 E0.02365
G1 X73.307 Y57.026 E0.29143
G1 X73.307 Y55.959 E0.03344
G1 X67.408 Y61.858 E0.26155
G1 X66.875 Y61.324 E0.02365
G1 X73.307 Y54.893 E0.28519
G1 X73.307 Y54.149 E0.02333
G1 X73.549 Y53.907 E0.01074
G1 X74.293 Y53.907 E0.02333
G1 X80.725 Y47.475 E0.28520
G1 X81.258 Y48.008 E0.02365
G1 X75.359 Y53.907 E0.26155
G1 X76.426 Y53.907 E0.03344
G1 X82.998 Y47.334 E0.29143
G1 X83.531 Y47.867 E0.02365
G1 X77.492 Y53.907 E0.26778
G1 X78.559 Y53.907 E0.03344
G1 X85.272 Y47.194 E0.29766
G1 X85.805 Y47.727 E0.02365
G1 X79.625 Y53.907 E0.27401
G1 X80.692 Y53.907 E0.03344
G1 X87.545 Y47.053 E0.30389
G1 X88.079 Y47.586 E0.02365
G1 X81.759 Y53.907 E0.28025
G1 X82.825 Y53.907 E0.03344
G1 X88.612 Y48.120 E0.25660
G1 X88.706 Y48.214 E0.00418
G1 X89.913 Y47.007 E0.05352
G1 X90.352 Y47.446 E0.01946
G1 X83.892 Y53.907 E0.28648
G1 X84.958 Y53.907 E0.03344
G1 X90.886 Y47.979 E0.26283
G1 X91.120 Y48.214 E0.01042
G1 X92.328 Y47.007 E0.05352
G1 X92.626 Y47.305 E0.01323
G1 X86.025 Y53.907 E0.29271
G1 X87.091 Y53.907 E0.03344
G1 X93.159 Y47.839 E0.26906
G1 X93.535 Y48.214 E0.01665
G1 X94.742 Y47.007 E0.05352
G1 X94.900 Y47.165 E0.00700
G1 X88.158 Y53.907 E0.29894
G1 X89.224 Y53.907 E0.03344
G1 X95.433 Y47.698 E0.27530
G1 X95.949 Y48.214 E0.02288
G1 X97.156 Y47.007 E0.05352
G1 X97.173 Y47.024 E0.00077
G1 X90.291 Y53.907 E0.30517
M73 P1 R169
G1 X91.357 Y53.907 E0.03344
G1 X97.706 Y47.557 E0.28153
G1 X98.240 Y48.091 E0.02365
G1 X92.424 Y53.907 E0.25788
G1 X93.490 Y53.907 E0.03344
G1 X99.980 Y47.417 E0.28776
G1 X100.513 Y47.950 E0.02365
G1 X94.557 Y53.907 E0.26411
G1 X95.624 Y53.907 E0.03344
G1 X102.254 Y47.276 E0.29399
G1 X102.787 Y47.810 E0.02365
G1 X96.690 Y53.907 E0.27035
G1 X97.757 Y53.907 E0.03344
G1 X104.527 Y47.136 E0.30022
G1 X105.061 Y47.669 E0.02365
G1 X98.823 Y53.907 E0.27658
G1 X99.890 Y53.907 E0.03344
G1 X105.594 Y48.202 E0.25293
G1 X105.606 Y48.214 E0.00052
G1 X106.813 Y47.007 E0.05352
