; generated by Slic3r Prusa Edition 1.41.3+linux64 on 2019-03-09 at 21:08:06

; 

; external perimeters extrusion width = 0.45mm
; perimeters extrusion width = 0.45mm
; infill extrusion width = 0.45mm
; solid infill extrusion width = 0.45mm
; top infill extrusion width = 0.40mm
; support material extrusion width = 0.35mm
; first layer extrusion width = 0.42mm

M73 P0 R73
M201 X9000 Y9000 Z500 E10000 ; sets maximum accelerations, mm/sec^2
M203 X500 Y500 Z12 E120 ; sets maximum feedrates, mm/sec
M204 P2000 R1500 T2000 ; sets acceleration (P, T) and retract acceleration (R), mm/sec^2
M205 X10.00 Y10.00 Z0.20 E2.50 ; sets the jerk limits, mm/sec
M205 S0 T0 ; sets the minimum extruding and travel feed rate, mm/sec
M107
M115 U3.5.1 ; tell printer latest fw version
M83  ; extruder relative mode
M104 S215 ; set extruder temp
M140 S60 ; set bed temp
M190 S60 ; wait for bed temp
M109 S215 ; wait for extruder temp
G28 W ; home all without mesh bed level
G80 ; mesh bed leveling
G1 Y-3.0 F1000.0 ; go outside print area
G92 E0.0
G1 X60.0 E9.0  F1000.0 ; intro line
M73 P0 R73
G1 X100.0 E12.5  F1000.0 ; intro line
G92 E0.0
M900 K30 ; Filament gcode
G21 ; set units to millimeters
G90 ; use absolute coordinates
M83 ; use relative distances for extrusion
;BEFORE_LAYER_CHANGE
G92 E0.0
;0.2


G1 E-0.80000 F2100.00000
G1 Z0.600 F10800.000
;AFTER_LAYER_CHANGE
;0.2
G1 X69.998 Y75.376
G1 Z0.200
G1 E0.80000 F2100.00000
M204 S1000
G1 F1200
G1 X70.630 Y75.249 E0.02021
G1 X123.721 Y72.941 E1.66619
G1 X144.557 Y72.770 E0.65334
G1 X147.733 Y72.946 E0.09972
G1 X177.958 Y75.258 E0.95045
G1 X178.463 Y75.371 E0.01623
G1 X178.928 Y75.599 E0.01623
G1 X179.326 Y75.930 E0.01623
G1 X179.635 Y76.346 E0.01623
G1 X179.863 Y76.918 E0.01930
G1 X181.410 Y83.673 E0.21728
G1 X184.439 Y109.519 E0.81595
G1 X184.449 Y125.128 E0.48939
G1 X184.253 Y125.969 E0.02709
G1 X183.744 Y126.672 E0.02721
G1 X178.027 Y131.049 E0.22574
G1 X176.503 Y131.975 E0.05591
G1 X175.450 Y132.419 E0.03583
G1 X174.059 Y132.797 E0.04521
G1 X172.274 Y132.974 E0.05623
G1 X77.384 Y132.966 E2.97522
G1 X76.328 Y132.864 E0.03328
G1 X74.985 Y132.561 E0.04315
G1 X73.540 Y131.993 E0.04868
G1 X72.838 Y131.622 E0.02491
G1 X71.574 Y130.732 E0.04846
G1 X70.926 Y130.149 E0.02734
G1 X69.646 Y128.579 E0.06350
G1 X68.771 Y126.947 E0.05808
G1 X68.527 Y126.271 E0.02255
G1 X68.457 Y125.732 E0.01703
G1 X68.457 Y84.272 E1.29993
G1 X68.553 Y77.393 E0.21571
G1 X68.618 Y76.901 E0.01555
G1 X68.794 Y76.434 E0.01567
G1 X69.070 Y76.021 E0.01555
G1 X69.434 Y75.679 E0.01567
G1 X69.945 Y75.404 E0.01821
; PURGING FINISHED
G1 F8640
G1 X70.630 Y75.249 E-0.16214
G1 X73.217 Y75.136 E-0.59786
G1 E-0.04000 F2100.00000
G1 Z0.800 F10800.000
G1 X73.662 Y125.542
G1 Z0.200
G1 E0.80000 F2100.00000
G1 F1200
G1 X73.662 Y84.822 E1.27675
G1 X73.987 Y84.252 E0.02057
G1 X74.417 Y83.704 E0.02183
G1 X74.417 Y126.296 E1.33542
G1 X74.720 Y126.598 E0.01344
G1 X75.171 Y126.956 E0.01804
G1 X75.171 Y83.044 E1.37684
G1 X75.442 Y82.866 E0.01017
G1 X75.925 Y82.616 E0.01705
G1 X75.925 Y127.384 E1.40367
G1 X76.256 Y127.518 E0.01119
G1 X76.679 Y127.647 E0.01388
G1 X76.679 Y82.353 E1.42017
G1 X77.127 Y82.263 E0.01432
G1 X77.433 Y82.230 E0.00966
G1 X77.433 Y127.770 E1.42790
G1 X78.187 Y127.786 E0.02365
G1 X78.187 Y82.214 E1.42891
G1 X78.942 Y82.214 E0.02365
G1 X78.942 Y127.786 E1.42891
G1 X79.696 Y127.786 E0.02365
G1 X79.696 Y82.214 E1.42891
G1 X80.450 Y82.214 E0.02365
G1 X80.450 Y127.786 E1.42891
G1 X81.204 Y127.786 E0.02365
G1 X81.204 Y82.214 E1.42891
G1 X81.958 Y82.214 E0.02365
G1 X81.958 Y127.786 E1.42891
G1 X82.712 Y127.786 E0.02365
G1 X82.712 Y82.214 E1.42891
G1 X83.467 Y82.214 E0.02365
G1 X83.467 Y127.786 E1.42891
G1 X84.221 Y127.786 E0.02365
G1 X84.221 Y82.214 E1.42891
G1 X84.975 Y82.214 E0.02365
G1 X84.975 Y127.786 E1.42891
G1 X85.729 Y127.786 E0.02365
G1 X85.729 Y82.214 E1.42891
G1 X86.483 Y82.214 E0.02365
G1 X86.483 Y127.786 E1.42891
M73 P1 R72
G1 X87.237 Y127.786 E0.02365
G1 X87.237 Y82.214 E1.42891
G1 X87.992 Y82.214 E0.02365
G1 X87.991 Y127.786 E1.42891
G1 X88.746 Y127.786 E0.02365
G1 X88.746 Y82.214 E1.42891
G1 X89.500 Y82.214 E0.02365
G1 X89.500 Y127.786 E1.42891
G1 X90.254 Y127.786 E0.02365
G1 X90.254 Y82.214 E1.42891
G1 X91.008 Y82.214 E0.02365
G1 X91.008 Y127.786 E1.42891
G1 X91.762 Y127.786 E0.02365
G1 X91.762 Y82.214 E1.42891
G1 X92.516 Y82.214 E0.02365
G1 X92.516 Y127.786 E1.42891
G1 X93.271 Y127.786 E0.02365
G1 X93.271 Y82.214 E1.42891
G1 X94.025 Y82.214 E0.02365
G1 X94.025 Y127.786 E1.42891
G1 X94.779 Y127.786 E0.02365
G1 X94.779 Y82.214 E1.42891
G1 X95.533 Y82.214 E0.02365
G1 X95.533 Y122.585 E1.26583
G1 X95.129 Y122.585 E0.01268
G1 X95.129 Y123.577 E0.03108
G1 X95.533 Y123.577 E0.01268
G1 X95.533 Y127.786 E0.13200
G1 X96.287 Y127.786 E0.02365
G1 X96.287 Y82.214 E1.42891
G1 X97.041 Y82.214 E0.02365
G1 X97.041 Y127.786 E1.42891
G1 X97.796 Y127.786 E0.02365
G1 X97.796 Y82.214 E1.42891
G1 X98.550 Y82.214 E0.02365
G1 X98.550 Y127.786 E1.42891
G1 X99.304 Y127.786 E0.02365
G1 X99.304 Y82.214 E1.42891
G1 X100.058 Y82.214 E0.02365
G1 X100.058 Y127.786 E1.42891
G1 X100.812 Y127.786 E0.02365
G1 X100.812 Y82.214 E1.42891
G1 X101.566 Y82.214 E0.02365
G1 X101.566 Y127.786 E1.42891
G1 X102.321 Y127.786 E0.02365
G1 X102.321 Y82.214 E1.42891
G1 X103.075 Y82.214 E0.02365
G1 X103.075 Y127.786 E1.42891
G1 X103.829 Y127.786 E0.02365
G1 X103.829 Y82.214 E1.42891
G1 X104.583 Y82.214 E0.02365
G1 X104.583 Y127.786 E1.42891
G1 X105.337 Y127.786 E0.02365
G1 X105.337 Y82.214 E1.42891
G1 X106.091 Y82.214 E0.02365
G1 X106.091 Y127.786 E1.42891
M73 P2 R71
G1 X106.845 Y127.786 E0.02365
G1 X106.845 Y82.214 E1.42891
G1 X107.600 Y82.214 E0.02365
G1 X107.600 Y127.786 E1.42891
G1 X108.354 Y127.786 E0.02365
G1 X108.354 Y82.214 E1.42891
G1 X109.108 Y82.214 E0.02365
G1 X109.108 Y127.786 E1.42891
G1 X109.862 Y127.786 E0.02365
G1 X109.862 Y82.214 E1.42891
G1 X110.616 Y82.214 E0.02365
G1 X110.616 Y127.956 E1.43423
G1 X138.520 Y127.956 F10800.000
G1 F1200
G1 X138.520 Y116.655 E0.35433
G1 X137.766 Y116.655 E0.02365
G1 X137.766 Y127.786 E0.34901
G1 X137.012 Y127.786 E0.02365
G1 X137.012 Y116.655 E0.34901
G1 X136.258 Y116.655 E0.02365
G1 X136.258 Y127.786 E0.34901
G1 X135.504 Y127.786 E0.02365
G1 X135.504 Y116.655 E0.34901
G1 X134.749 Y116.655 E0.02365
G1 X134.749 Y127.786 E0.34901
G1 X133.995 Y127.786 E0.02365
G1 X133.995 Y116.655 E0.34901
G1 X133.241 Y116.655 E0.02365
G1 X133.241 Y127.786 E0.34901
G1 X132.487 Y127.786 E0.02365
G1 X132.487 Y116.655 E0.34901
G1 X131.733 Y116.655 E0.02365
G1 X131.733 Y127.786 E0.34901
G1 X130.979 Y127.786 E0.02365
G1 X130.979 Y116.655 E0.34901
G1 X130.224 Y116.655 E0.02365
G1 X130.224 Y127.786 E0.34901
G1 X129.470 Y127.786 E0.02365
G1 X129.470 Y116.655 E0.34901
G1 X128.716 Y116.655 E0.02365
G1 X128.716 Y127.786 E0.34901
G1 X127.962 Y127.786 E0.02365
G1 X127.962 Y116.655 E0.34901
G1 X127.208 Y116.655 E0.02365
G1 X127.208 Y127.786 E0.34901
G1 X126.454 Y127.786 E0.02365
G1 X126.454 Y116.655 E0.34901
G1 X125.699 Y116.655 E0.02365
G1 X125.699 Y127.786 E0.34901
G1 X124.945 Y127.786 E0.02365
G1 X124.945 Y116.655 E0.34901
G1 X124.191 Y116.655 E0.02365
G1 X124.191 Y127.786 E0.34901
G1 X123.437 Y127.786 E0.02365
G1 X123.437 Y116.655 E0.34901
G1 X122.683 Y116.655 E0.02365
G1 X122.683 Y127.786 E0.34901
G1 X121.929 Y127.786 E0.02365
G1 X121.929 Y116.655 E0.34901
G1 X121.174 Y116.655 E0.02365
G1 X121.174 Y127.786 E0.34901
G1 X120.420 Y127.786 E0.02365
G1 X120.420 Y116.655 E0.34901
G1 X119.666 Y116.655 E0.02365
G1 X119.666 Y127.786 E0.34901
G1 X118.912 Y127.786 E0.02365
G1 X118.912 Y116.655 E0.34901
G1 X118.158 Y116.655 E0.02365
G1 X118.158 Y127.786 E0.34901
G1 X117.404 Y127.786 E0.02365
G1 X117.404 Y116.655 E0.34901
G1 X116.650 Y116.655 E0.02365
G1 X116.650 Y127.786 E0.34901
G1 X115.895 Y127.786 E0.02365
G1 X115.895 Y116.655 E0.34901
G1 X115.141 Y116.655 E0.02365
G1 X115.141 Y127.786 E0.34901
G1 X114.387 Y127.786 E0.02365
G1 X114.387 Y116.655 E0.34901
G1 X113.633 Y116.655 E0.02365
G1 X113.633 Y127.786 E0.34901
G1 X112.879 Y127.786 E0.02365
G1 X112.879 Y116.655 E0.34901
G1 X112.125 Y116.655 E0.02365
G1 X112.125 Y127.786 E0.34901
G1 X111.370 Y127.786 E0.02365
G1 X111.370 Y82.214 E1.42891
G1 X112.125 Y82.214 E0.02365
G1 X112.125 Y94.900 E0.39778
G1 X112.879 Y94.900 E0.02365
G1 X112.879 Y82.214 E0.39778
G1 X113.633 Y82.214 E0.02365
G1 X113.633 Y94.900 E0.39778
G1 X114.387 Y94.900 E0.02365
G1 X114.387 Y82.214 E0.39778
G1 X115.141 Y82.214 E0.02365
G1 X115.141 Y94.900 E0.39778
G1 X115.895 Y94.900 E0.02365
G1 X115.895 Y82.214 E0.39778
G1 X116.650 Y82.214 E0.02365
G1 X116.650 Y94.900 E0.39778
G1 X117.404 Y94.900 E0.02365
G1 X117.404 Y82.214 E0.39778
G1 X118.158 Y82.214 E0.02365
G1 X118.158 Y94.900 E0.39778
G1 X118.912 Y94.900 E0.02365
G1 X118.912 Y82.214 E0.39778
G1 X119.666 Y82.214 E0.02365
G1 X119.666 Y94.900 E0.39778
G1 X120.420 Y94.900 E0.02365
G1 X120.420 Y82.214 E0.39778
G1 X121.174 Y82.214 E0.02365
G1 X121.174 Y94.900 E0.39778
G1 X121.929 Y94.900 E0.02365
G1 X121.929 Y82.214 E0.39778
G1 X122.683 Y82.214 E0.02365
G1 X122.683 Y94.900 E0.39778
G1 X123.437 Y94.900 E0.02365
G1 X123.437 Y82.214 E0.39778
G1 X124.191 Y82.214 E0.02365
G1 X124.191 Y94.900 E0.39778
G1 X124.945 Y94.900 E0.02365
G1 X124.945 Y82.214 E0.39778
G1 X125.699 Y82.214 E0.02365
G1 X125.699 Y94.900 E0.39778
G1 X126.454 Y94.900 E0.02365
G1 X126.454 Y82.214 E0.39778
G1 X127.208 Y82.214 E0.02365
G1 X127.208 Y94.900 E0.39778
G1 X127.962 Y94.900 E0.02365
G1 X127.962 Y82.044 E0.40310
G1 F8640
G1 X127.962 Y85.335 E-0.76000
G1 E-0.04000 F2100.00000
G1 Z0.800 F10800.000
G1 X144.553 Y74.958
G1 Z0.200
G1 E0.80000 F2100.00000
G1 F1200
G1 X144.553 Y127.786 E1.65639
G1 X143.799 Y127.786 E0.02365
G1 X143.799 Y75.128 E1.65107
G1 X143.045 Y75.128 E0.02365
G1 X143.045 Y127.786 E1.65107
M73 P4 R70
G1 X142.291 Y127.786 E0.02365
G1 X142.291 Y75.128 E1.65107
G1 X141.537 Y75.128 E0.02365
G1 X141.537 Y127.786 E1.65107
G1 X140.783 Y127.786 E0.02365
G1 X140.783 Y75.128 E1.65107
G1 X140.028 Y75.128 E0.02365
G1 X140.028 Y127.786 E1.65107
G1 X139.274 Y127.786 E0.02365
G1 X139.274 Y116.655 E0.34901
G1 X139.955 Y116.655 E0.02133
G1 X139.955 Y94.900 E0.68212
G1 X139.274 Y94.900 E0.02133
G1 X139.274 Y75.128 E0.61995
G1 X138.520 Y75.128 E0.02365
G1 X138.520 Y94.900 E0.61995
G1 X137.766 Y94.900 E0.02365
G1 X137.766 Y75.128 E0.61995
G1 X137.012 Y75.128 E0.02365
G1 X137.012 Y94.900 E0.61995
G1 X136.258 Y94.900 E0.02365
G1 X136.258 Y75.128 E0.61995
G1 X135.504 Y75.128 E0.02365
G1 X135.504 Y94.900 E0.61995
G1 X134.749 Y94.900 E0.02365
G1 X134.749 Y75.128 E0.61995
G1 X133.995 Y75.128 E0.02365
G1 X133.995 Y94.900 E0.61995
G1 X133.241 Y94.900 E0.02365
G1 X133.241 Y75.128 E0.61995
G1 X132.487 Y75.128 E0.02365
G1 X132.487 Y94.900 E0.61995
G1 X131.733 Y94.900 E0.02365
G1 X131.733 Y75.128 E0.61995
G1 X130.979 Y75.128 E0.02365
G1 X130.979 Y94.900 E0.61995
G1 X130.224 Y94.900 E0.02365
G1 X130.224 Y75.128 E0.61995
G1 X129.470 Y75.128 E0.02365
G1 X129.470 Y94.900 E0.61995
G1 X128.716 Y94.900 E0.02365
G1 X128.716 Y82.214 E0.39778
G1 X128.971 Y82.214 E0.00800
G1 X129.214 Y81.971 E0.01074
G1 X129.214 Y80.229 E0.05464
G1 X128.971 Y79.986 E0.01074
G1 X128.716 Y79.986 E0.00800
G1 X128.716 Y75.128 E0.15233
G1 X127.962 Y75.128 E0.02365
G1 X127.962 Y79.986 E0.15233
G1 X127.208 Y79.986 E0.02365
G1 X127.208 Y75.128 E0.15233
G1 X126.454 Y75.128 E0.02365
G1 X126.454 Y79.986 E0.15233
G1 X125.699 Y79.986 E0.02365
G1 X125.699 Y75.128 E0.15233
G1 X124.945 Y75.128 E0.02365
G1 X124.945 Y79.986 E0.15233
G1 X124.191 Y79.986 E0.02365
G1 X124.191 Y75.128 E0.15233
G1 X123.805 Y75.128 E0.01211
G1 X123.805 Y79.214 E0.12810
G1 X123.437 Y79.214 E0.01154
G1 X123.437 Y79.986 E0.02423
G1 X122.683 Y79.986 E0.02365
G1 X122.683 Y79.214 E0.02423
G1 X121.929 Y79.214 E0.02365
G1 X121.929 Y79.986 E0.02423
G1 X121.174 Y79.986 E0.02365
G1 X121.174 Y79.214 E0.02423
G1 X120.420 Y79.214 E0.02365
G1 X120.420 Y79.986 E0.02423
G1 X119.666 Y79.986 E0.02365
G1 X119.666 Y79.214 E0.02423
G1 X118.912 Y79.214 E0.02365
G1 X118.912 Y79.986 E0.02423
G1 X118.158 Y79.986 E0.02365
G1 X118.158 Y79.214 E0.02423
G1 X117.404 Y79.214 E0.02365
G1 X117.404 Y79.986 E0.02423
G1 X116.650 Y79.986 E0.02365
G1 X116.650 Y79.214 E0.02423
G1 X115.895 Y79.214 E0.02365
G1 X115.895 Y79.986 E0.02423
G1 X115.141 Y79.986 E0.02365
G1 X115.141 Y79.214 E0.02423
G1 X114.387 Y79.214 E0.02365
G1 X114.387 Y79.986 E0.02423
G1 X113.633 Y79.986 E0.02365
G1 X113.633 Y79.214 E0.02423
G1 X112.879 Y79.214 E0.02365
G1 X112.879 Y79.986 E0.02423
G1 X112.125 Y79.986 E0.02365
G1 X112.125 Y79.214 E0.02423
G1 X111.370 Y79.214 E0.02365
G1 X111.370 Y79.986 E0.02423
G1 X110.616 Y79.986 E0.02365
G1 X110.616 Y79.214 E0.02423
G1 X109.862 Y79.214 E0.02365
G1 X109.862 Y79.986 E0.02423
G1 X109.108 Y79.986 E0.02365
G1 X109.108 Y79.214 E0.02423
G1 X108.354 Y79.214 E0.02365
G1 X108.354 Y79.986 E0.02423
G1 X107.600 Y79.986 E0.02365
G1 X107.600 Y79.214 E0.02423
G1 X106.845 Y79.214 E0.02365
G1 X106.845 Y79.986 E0.02423
G1 X106.091 Y79.986 E0.02365
G1 X106.091 Y79.214 E0.02423
G1 X105.337 Y79.214 E0.02365
G1 X105.337 Y79.986 E0.02423
G1 X104.583 Y79.986 E0.02365
G1 X104.583 Y79.214 E0.02423
G1 X103.829 Y79.214 E0.02365
G1 X103.829 Y79.986 E0.02423
G1 X103.075 Y79.986 E0.02365
G1 X103.075 Y79.214 E0.02423
G1 X102.321 Y79.214 E0.02365
G1 X102.321 Y79.986 E0.02423
G1 X101.566 Y79.986 E0.02365
G1 X101.566 Y79.214 E0.02423
G1 X100.812 Y79.214 E0.02365
G1 X100.812 Y79.986 E0.02423
G1 X100.058 Y79.986 E0.02365
G1 X100.058 Y79.214 E0.02423
G1 X99.304 Y79.214 E0.02365
G1 X99.304 Y79.986 E0.02423
G1 X98.550 Y79.986 E0.02365
G1 X98.550 Y79.214 E0.02423
G1 X97.796 Y79.214 E0.02365
G1 X97.796 Y79.986 E0.02423
G1 X97.041 Y79.986 E0.02365
G1 X97.041 Y79.214 E0.02423
G1 X96.287 Y79.214 E0.02365
G1 X96.287 Y79.986 E0.02423
G1 X95.533 Y79.986 E0.02365
G1 X95.533 Y79.214 E0.02423
G1 X94.779 Y79.214 E0.02365
G1 X94.779 Y79.986 E0.02423
G1 X94.025 Y79.986 E0.02365
G1 X94.025 Y79.214 E0.02423
G1 X93.271 Y79.214 E0.02365
G1 X93.271 Y79.986 E0.02423
G1 X92.516 Y79.986 E0.02365
G1 X92.516 Y79.214 E0.02423
G1 X91.762 Y79.214 E0.02365
G1 X91.762 Y79.986 E0.02423
G1 X91.008 Y79.986 E0.02365
G1 X91.008 Y79.214 E0.02423
G1 X90.254 Y79.214 E0.02365
G1 X90.254 Y79.986 E0.02423
G1 X89.500 Y79.986 E0.02365
G1 X89.500 Y79.214 E0.02423
G1 X88.746 Y79.214 E0.02365
G1 X88.746 Y79.986 E0.02423
G1 X87.992 Y79.986 E0.02365
G1 X87.992 Y79.214 E0.02423
G1 X87.237 Y79.214 E0.02365
G1 X87.237 Y79.986 E0.02423
G1 X86.483 Y79.986 E0.02365
G1 X86.483 Y79.214 E0.02423
G1 X85.729 Y79.214 E0.02365
G1 X85.729 Y79.986 E0.02423
G1 X84.975 Y79.986 E0.02365
G1 X84.975 Y79.214 E0.02423
G1 X84.221 Y79.214 E0.02365
G1 X84.221 Y79.986 E0.02423
G1 X83.467 Y79.986 E0.02365
G1 X83.467 Y79.214 E0.02423
G1 X82.712 Y79.214 E0.02365
G1 X82.712 Y79.986 E0.02423
G1 X81.958 Y79.986 E0.02365
G1 X81.958 Y79.214 E0.02423
G1 X81.204 Y79.214 E0.02365
G1 X81.204 Y79.986 E0.02423
G1 X80.450 Y79.986 E0.02365
G1 X80.450 Y79.214 E0.02423
G1 X79.761 Y79.214 E0.02160
G1 X79.696 Y78.217 E0.03131
G1 X79.696 Y79.986 E0.05547
G1 X78.942 Y79.986 E0.02365
G1 X78.942 Y77.436 E0.07996
G1 X78.187 Y77.436 E0.02365
G1 X78.187 Y79.986 E0.07997
G1 X77.433 Y80.011 E0.02366
G1 X77.433 Y77.436 E0.08075
G1 X76.679 Y77.436 E0.02365
G1 X76.679 Y80.113 E0.08394
G1 X75.925 Y80.301 E0.02437
G1 X75.925 Y77.436 E0.08985
G1 X75.171 Y77.435 E0.02365
G1 X75.171 Y80.585 E0.09874
G1 X74.698 Y80.812 E0.01644
G1 X74.417 Y80.971 E0.01015
G1 X74.417 Y77.435 E0.11088
G1 X73.662 Y77.435 E0.02365
G1 X73.662 Y81.491 E0.12717
G1 X73.286 Y81.807 E0.01540
G1 X72.908 Y82.180 E0.01664
G1 X72.908 Y77.435 E0.14876
G1 X72.154 Y77.435 E0.02365
G1 X72.154 Y83.126 E0.17844
G1 X71.817 Y83.689 E0.02059
G1 X71.662 Y83.997 E0.01079
G1 X71.400 Y84.628 E0.02142
G1 X71.400 Y77.435 E0.22553
G1 X70.741 Y77.434 E0.02067
G1 X70.744 Y84.018 E0.20642
G1 X70.646 Y84.276 E0.00866
G1 X70.646 Y125.724 E1.29957
G1 X70.941 Y126.444 E0.02440
G1 X71.109 Y126.777 E0.01168
G1 X71.400 Y127.271 E0.01798
G1 X71.400 Y125.372 E0.05952
G1 X71.662 Y126.003 E0.02142
G1 X71.817 Y126.311 E0.01079
G1 X72.154 Y126.874 E0.02059
G1 X72.154 Y128.267 E0.04368
G1 X72.704 Y128.821 E0.02448
