; generated by PrusaSlicer 2.1.0+linux64 on 2019-12-28 at 23:49:48 UTC

; 

; external perimeters extrusion width = 0.45mm
; perimeters extrusion width = 0.45mm
; infill extrusion width = 0.45mm
; solid infill extrusion width = 0.45mm
; top infill extrusion width = 0.40mm
; support material extrusion width = 0.35mm
; first layer extrusion width = 0.42mm

M73 P0 R177
M201 X9000 Y9000 Z500 E10000 ; sets maximum accelerations, mm/sec^2
M203 X500 Y500 Z12 E120 ; sets maximum feedrates, mm/sec
M204 P2000 R1500 T2000 ; sets acceleration (P, T) and retract acceleration (R), mm/sec^2
M205 X10.00 Y10.00 Z0.20 E2.50 ; sets the jerk limits, mm/sec
M205 S0 T0 ; sets the minimum extruding and travel feed rate, mm/sec
M107
M115 U3.2.3 ; tell printer latest fw version
G90 ; use absolute coordinates
M83 ; extruder relative mode
M204 S2000 T1500 ; MK2 firmware only supports the old M204 format
M104 S215 ; set extruder temp
M140 S60 ; set bed temp
M190 S60 ; wait for bed temp
M109 S215 ; wait for extruder temp
G28 W ; home all without mesh bed level
G80 ; mesh bed leveling
G1 Y-3.0 F1000.0 ; go outside print area
G92 E0.0
G1 X60.0 E9.0  F1000.0 ; intro line
M73 P0 R177
G1 X100.0 E12.5 F1000.0 ; intro line
G92 E0.0
G21 ; set units to millimeters
G90 ; use absolute coordinates
M83 ; use relative distances for extrusion
M900 K30 ; Filament gcode
;BEFORE_LAYER_CHANGE
G92 E0.0
;0.2


G1 E-0.80000 F2100.00000
G1 Z0.600 F10800.000
;AFTER_LAYER_CHANGE
;0.2
G1 X64.761 Y53.082
G1 Z0.200
G1 E0.80000 F2100.00000
M204 S1000
G1 F1200
G1 X65.103 Y52.544 E0.01998
G1 X72.162 Y45.505 E0.31255
G1 X72.571 Y45.259 E0.01498
G1 X73.021 Y45.109 E0.01487
G1 X75.261 Y44.829 E0.07079
G1 X169.577 Y44.823 E2.95720
G1 X177.117 Y45.005 E0.23647
G1 X177.616 Y45.091 E0.01589
G1 X178.080 Y45.287 E0.01578
G1 X178.536 Y45.633 E0.01794
G1 X186.230 Y53.328 E0.34120
G1 X186.625 Y53.917 E0.02225
G1 X186.811 Y54.606 E0.02236
G1 X188.030 Y144.331 E2.81354
G1 X187.873 Y146.769 E0.07659
G1 X187.593 Y147.583 E0.02698
G1 X180.907 Y156.494 E0.34933
G1 X176.627 Y160.745 E0.18913
G1 X175.996 Y161.062 E0.02213
G1 X174.373 Y161.539 E0.05305
G1 X173.878 Y161.607 E0.01567
G1 X76.701 Y161.570 E3.04692
G1 X75.336 Y161.300 E0.04363
G1 X74.336 Y161.009 E0.03265
G1 X73.473 Y160.655 E0.02923
G1 X72.181 Y159.929 E0.04649
G1 X71.011 Y159.009 E0.04665
G1 X70.349 Y158.347 E0.02937
G1 X69.672 Y157.506 E0.03384
G1 X68.710 Y155.842 E0.06025
G1 X68.261 Y154.662 E0.03958
G1 X67.877 Y152.770 E0.06053
G1 X64.218 Y94.779 E1.82190
G1 X64.030 Y60.869 E1.06323
G1 X64.589 Y53.695 E0.22561
G1 X64.745 Y53.140 E0.01810
G1 F8640
G1 X65.103 Y52.544 E-0.16048
G1 X66.942 Y50.711 E-0.59952
G1 E-0.04000 F2100.00000
G1 Z0.800 F10800.000
G1 X66.218 Y60.916
G1 Z0.200
G1 E0.80000 F2100.00000
G1 F1200
G1 X78.980 Y48.153 E0.56592
G1 X78.447 Y47.620 E0.02365
G1 X67.011 Y59.055 E0.50707
G1 X66.478 Y58.522 E0.02365
G1 X77.914 Y47.086 E0.50707
G1 X77.839 Y47.011 E0.00333
G1 X76.631 Y48.218 E0.05352
G1 X76.173 Y47.760 E0.02032
G1 X67.152 Y56.782 E0.40002
G1 X66.619 Y56.248 E0.02365
G1 X75.640 Y47.227 E0.40002
G1 X75.424 Y47.011 E0.00956
G1 X74.217 Y48.218 E0.05352
G1 X73.900 Y47.901 E0.01408
G1 X67.292 Y54.508 E0.29297
G1 X66.759 Y53.975 E0.02365
G1 X73.486 Y47.248 E0.29830
G1 F8640
G1 X71.159 Y49.575 E-0.76000
G1 E-0.04000 F2100.00000
G1 Z0.800 F10800.000
G1 X77.424 Y56.108
G1 Z0.200
G1 E0.80000 F2100.00000
G1 F1200
G1 X75.640 Y57.892 E0.07910
G1 X75.741 Y58.195 E0.00999
G1 X75.901 Y58.454 E0.00955
G1 X76.015 Y58.584 E0.00542
G1 X77.976 Y56.623 E0.08694
G1 X78.091 Y56.755 E0.00549
G1 X78.211 Y56.937 E0.00683
G1 X78.300 Y57.135 E0.00682
G1 X78.352 Y57.314 E0.00584
G1 X76.566 Y59.100 E0.07919
G1 F8640
G1 X78.352 Y57.314 E-0.58316
G1 X78.300 Y57.135 E-0.04301
G1 X78.211 Y56.937 E-0.05022
G1 X78.091 Y56.755 E-0.05027
G1 X77.996 Y56.646 E-0.03333
G1 E-0.04000 F2100.00000
G1 Z0.800 F10800.000
G1 X75.452 Y95.409
G1 Z0.200
G1 E0.80000 F2100.00000
G1 F1200
G1 X76.579 Y94.282 E0.04996
G1 X76.822 Y94.229 E0.00781
G1 X77.083 Y94.221 E0.00818
G1 X77.341 Y94.261 E0.00817
G1 X77.581 Y94.347 E0.00799
G1 X75.739 Y96.189 E0.08166
G1 X75.825 Y96.347 E0.00565
G1 X75.956 Y96.521 E0.00683
G1 X76.233 Y96.762 E0.01150
G1 X78.153 Y94.841 E0.08515
G1 X78.268 Y95.054 E0.00758
G1 X78.339 Y95.260 E0.00683
G1 X78.376 Y95.474 E0.00681
G1 X78.380 Y95.681 E0.00649
G1 X76.903 Y97.158 E0.06549
G1 F8640
G1 X78.380 Y95.681 E-0.48225
G1 X78.376 Y95.474 E-0.04782
G1 X78.339 Y95.260 E-0.05011
G1 X78.268 Y95.054 E-0.05033
G1 X78.153 Y94.841 E-0.05581
G1 X77.928 Y95.067 E-0.07367
G1 E-0.04000 F2100.00000
G1 Z0.800 F10800.000
G1 X168.105 Y107.277
G1 Z0.200
G1 E0.80000 F2100.00000
G1 F1200
G1 X176.085 Y99.298 E0.35382
G1 X175.018 Y99.298 E0.03344
G1 X167.692 Y106.624 E0.32485
G1 X167.163 Y106.095 E0.02345
G1 X165.956 Y107.302 E0.05352
G1 X173.952 Y99.298 E0.35473
G1 X172.885 Y99.298 E0.03344
G1 X165.418 Y106.765 E0.33108
G1 X164.885 Y106.231 E0.02365
G1 X171.818 Y99.298 E0.30744
G1 X170.752 Y99.298 E0.03344
G1 X163.145 Y106.905 E0.33732
G1 X162.611 Y106.372 E0.02365
G1 X169.685 Y99.298 E0.31367
G1 X168.619 Y99.298 E0.03344
G1 X160.871 Y107.046 E0.34355
G1 X160.338 Y106.512 E0.02365
G1 X167.552 Y99.298 E0.31990
G1 X166.486 Y99.298 E0.03344
G1 X158.597 Y107.186 E0.34978
G1 X158.064 Y106.653 E0.02365
G1 X165.419 Y99.298 E0.32613
G1 X164.353 Y99.298 E0.03344
G1 X157.531 Y106.120 E0.30249
G1 X157.506 Y106.095 E0.00109
G1 X156.299 Y107.302 E0.05352
G1 X155.791 Y106.793 E0.02256
G1 X163.286 Y99.298 E0.33237
G1 X162.220 Y99.298 E0.03344
G1 X155.257 Y106.260 E0.30872
G1 X155.092 Y106.095 E0.00732
G1 X153.885 Y107.302 E0.05352
G1 X153.517 Y106.934 E0.01632
G1 X161.153 Y99.298 E0.33860
G1 X160.086 Y99.298 E0.03344
G1 X152.984 Y106.401 E0.31495
G1 X152.678 Y106.095 E0.01355
G1 X151.471 Y107.302 E0.05352
G1 X151.243 Y107.075 E0.01009
G1 X159.020 Y99.298 E0.34483
G1 X157.953 Y99.298 E0.03344
G1 X150.710 Y106.541 E0.32118
G1 X150.264 Y106.095 E0.01979
G1 X149.057 Y107.302 E0.05352
G1 X148.970 Y107.215 E0.00386
G1 X156.887 Y99.298 E0.35106
G1 X155.820 Y99.298 E0.03344
G1 X148.436 Y106.682 E0.32742
G1 X147.903 Y106.149 E0.02365
G1 X154.754 Y99.298 E0.30377
G1 X153.687 Y99.298 E0.03344
G1 X146.163 Y106.822 E0.33365
G1 X145.629 Y106.289 E0.02365
G1 X152.621 Y99.298 E0.31000
G1 X151.554 Y99.298 E0.03344
G1 X143.889 Y106.963 E0.33988
G1 X143.356 Y106.430 E0.02365
G1 X150.488 Y99.298 E0.31623
G1 X149.421 Y99.298 E0.03344
G1 X141.615 Y107.103 E0.34611
G1 X141.082 Y106.570 E0.02365
G1 X148.355 Y99.298 E0.32247
G1 X147.288 Y99.298 E0.03344
G1 X139.342 Y107.244 E0.35234
G1 X138.809 Y106.711 E0.02365
G1 X146.221 Y99.298 E0.32870
G1 X145.155 Y99.298 E0.03344
G1 X138.275 Y106.177 E0.30505
G1 X138.193 Y106.095 E0.00365
G1 X136.986 Y107.302 E0.05352
G1 X136.535 Y106.851 E0.01999
G1 X144.088 Y99.298 E0.33493
G1 X143.022 Y99.298 E0.03344
G1 X136.002 Y106.318 E0.31128
G1 X135.779 Y106.095 E0.00988
G1 X134.572 Y107.302 E0.05352
G1 X134.261 Y106.992 E0.01376
G1 X141.955 Y99.298 E0.34116
G1 X140.889 Y99.298 E0.03344
G1 X133.728 Y106.459 E0.31752
G1 X133.365 Y106.095 E0.01612
G1 X132.157 Y107.302 E0.05352
G1 X131.988 Y107.132 E0.00753
G1 X139.822 Y99.298 E0.34739
G1 X138.756 Y99.298 E0.03344
G1 X131.454 Y106.599 E0.32375
G1 X130.950 Y106.095 E0.02235
G1 X129.743 Y107.302 E0.05352
G1 X129.714 Y107.273 E0.00130
G1 X137.689 Y99.298 E0.35363
G1 X136.623 Y99.298 E0.03344
G1 X129.181 Y106.740 E0.32998
G1 X128.648 Y106.206 E0.02365
G1 X135.556 Y99.298 E0.30633
G1 X134.489 Y99.298 E0.03344
G1 X126.907 Y106.880 E0.33621
G1 X126.374 Y106.347 E0.02365
G1 X133.423 Y99.298 E0.31257
G1 X132.356 Y99.298 E0.03344
G1 X124.634 Y107.021 E0.34244
G1 X124.100 Y106.487 E0.02365
G1 X131.290 Y99.298 E0.31880
M73 P0 R176
G1 X130.223 Y99.298 E0.03344
G1 X122.360 Y107.161 E0.34868
G1 X121.827 Y106.628 E0.02365
G1 X129.157 Y99.298 E0.32503
G1 X128.090 Y99.298 E0.03344
G1 X120.086 Y107.302 E0.35491
G1 X119.553 Y106.769 E0.02365
G1 X127.024 Y99.298 E0.33126
G1 X125.957 Y99.298 E0.03344
G1 X119.020 Y106.235 E0.30762
G1 X118.880 Y106.095 E0.00622
G1 X117.672 Y107.302 E0.05352
G1 X117.279 Y106.909 E0.01743
G1 X124.891 Y99.298 E0.33749
G1 X123.824 Y99.298 E0.03344
G1 X116.746 Y106.376 E0.31385
G1 X116.465 Y106.095 E0.01245
G1 X115.258 Y107.302 E0.05352
G1 X115.006 Y107.050 E0.01120
G1 X122.757 Y99.298 E0.34373
G1 X121.691 Y99.298 E0.03344
G1 X114.472 Y106.516 E0.32008
G1 X114.051 Y106.095 E0.01868
G1 X112.844 Y107.302 E0.05352
G1 X112.732 Y107.190 E0.00497
G1 X120.624 Y99.298 E0.34996
G1 X119.558 Y99.298 E0.03344
G1 X112.199 Y106.657 E0.32631
G1 X111.666 Y106.124 E0.02365
G1 X118.491 Y99.298 E0.30267
G1 X117.425 Y99.298 E0.03344
G1 X109.925 Y106.797 E0.33254
G1 X109.392 Y106.264 E0.02365
G1 X116.358 Y99.298 E0.30890
G1 X115.292 Y99.298 E0.03344
G1 X107.652 Y106.938 E0.33878
G1 X107.118 Y106.405 E0.02365
G1 X114.225 Y99.298 E0.31513
G1 X113.159 Y99.298 E0.03344
G1 X105.378 Y107.079 E0.34501
G1 X104.845 Y106.545 E0.02365
G1 X112.092 Y99.298 E0.32136
G1 X111.026 Y99.298 E0.03344
G1 X103.104 Y107.219 E0.35124
G1 X102.571 Y106.686 E0.02365
G1 X109.959 Y99.298 E0.32759
G1 X108.892 Y99.298 E0.03344
G1 X102.038 Y106.153 E0.30395
G1 X101.980 Y106.095 E0.00255
G1 X100.773 Y107.302 E0.05352
G1 X100.297 Y106.826 E0.02110
G1 X107.826 Y99.298 E0.33383
G1 X106.759 Y99.298 E0.03344
G1 X99.764 Y106.293 E0.31018
G1 X99.566 Y106.095 E0.00878
G1 X98.359 Y107.302 E0.05352
G1 X98.024 Y106.967 E0.01487
G1 X105.693 Y99.298 E0.34006
G1 X104.626 Y99.298 E0.03344
G1 X97.491 Y106.434 E0.31641
G1 X97.152 Y106.095 E0.01501
G1 X95.945 Y107.302 E0.05352
G1 X95.750 Y107.107 E0.00863
G1 X103.560 Y99.298 E0.34629
G1 X102.493 Y99.298 E0.03344
G1 X95.217 Y106.574 E0.32264
G1 X94.738 Y106.095 E0.02124
G1 X93.531 Y107.302 E0.05352
G1 X93.477 Y107.248 E0.00240
G1 X101.427 Y99.298 E0.35252
G1 X100.360 Y99.298 E0.03344
G1 X92.943 Y106.715 E0.32888
G1 X92.410 Y106.181 E0.02365
G1 X99.294 Y99.298 E0.30523
G1 X98.227 Y99.298 E0.03344
G1 X90.670 Y106.855 E0.33511
G1 X90.136 Y106.322 E0.02365
G1 X97.160 Y99.298 E0.31146
G1 X96.094 Y99.298 E0.03344
G1 X88.396 Y106.996 E0.34134
G1 X87.863 Y106.463 E0.02365
G1 X95.027 Y99.298 E0.31769
G1 X93.961 Y99.298 E0.03344
G1 X86.122 Y107.136 E0.34757
G1 X85.589 Y106.603 E0.02365
G1 X92.894 Y99.298 E0.32393
G1 X91.828 Y99.298 E0.03344
G1 X83.849 Y107.277 E0.35380
G1 X83.315 Y106.744 E0.02365
G1 X90.761 Y99.298 E0.33016
G1 X89.695 Y99.298 E0.03344
G1 X82.782 Y106.210 E0.30651
G1 X82.667 Y106.095 E0.00511
G1 X81.460 Y107.302 E0.05352
G1 X81.042 Y106.884 E0.01853
G1 X88.628 Y99.298 E0.33639
G1 X87.562 Y99.298 E0.03344
G1 X80.509 Y106.351 E0.31274
G1 X80.253 Y106.095 E0.01134
G1 X79.046 Y107.302 E0.05352
G1 X78.768 Y107.025 E0.01230
G1 X86.495 Y99.298 E0.34262
G1 X85.429 Y99.298 E0.03344
G1 X78.235 Y106.491 E0.31898
G1 X77.839 Y106.095 E0.01758
G1 X76.631 Y107.302 E0.05352
G1 X76.495 Y107.165 E0.00607
G1 X84.362 Y99.298 E0.34885
G1 X83.295 Y99.298 E0.03344
G1 X75.961 Y106.632 E0.32521
G1 X75.428 Y106.099 E0.02365
G1 X82.229 Y99.298 E0.30156
G1 X81.162 Y99.298 E0.03344
G1 X73.688 Y106.773 E0.33144
G1 X73.154 Y106.239 E0.02365
G1 X80.096 Y99.298 E0.30779
G1 X79.029 Y99.298 E0.03344
G1 X72.621 Y105.706 E0.28415
G1 X72.088 Y105.173 E0.02365
G1 X77.963 Y99.298 E0.26050
G1 X76.896 Y99.298 E0.03344
G1 X71.555 Y104.639 E0.23686
G1 X71.021 Y104.106 E0.02365
G1 X75.830 Y99.298 E0.21321
G1 X74.763 Y99.298 E0.03344
G1 X70.488 Y103.573 E0.18956
G1 X69.955 Y103.040 E0.02365
G1 X73.697 Y99.298 E0.16592
G1 X73.545 Y99.298 E0.00476
G1 X73.303 Y99.056 E0.01074
G1 X73.303 Y98.625 E0.01349
G1 X69.422 Y102.506 E0.17209
G1 X68.888 Y101.973 E0.02365
G1 X73.303 Y97.559 E0.19574
G1 X73.303 Y96.492 E0.03344
G1 X68.355 Y101.440 E0.21938
G1 X67.822 Y100.907 E0.02365
G1 X73.303 Y95.426 E0.24303
G1 X73.303 Y94.359 E0.03344
G1 X67.288 Y100.373 E0.26668
G1 X66.755 Y99.840 E0.02365
G1 X73.303 Y93.293 E0.29032
G1 X73.303 Y92.226 E0.03344
G1 X67.429 Y98.100 E0.26044
G1 X66.896 Y97.566 E0.02365
G1 X73.303 Y91.160 E0.28409
G1 X73.303 Y90.093 E0.03344
G1 X67.570 Y95.826 E0.25421
G1 X67.036 Y95.293 E0.02365
G1 X73.303 Y89.026 E0.27786
G1 X73.303 Y87.960 E0.03344
G1 X66.503 Y94.760 E0.30150
G1 X66.403 Y94.660 E0.00443
G1 X67.610 Y93.452 E0.05352
G1 X67.177 Y93.019 E0.01921
G1 X73.303 Y86.893 E0.27163
G1 X73.303 Y85.827 E0.03344
G1 X66.644 Y92.486 E0.29527
G1 X66.403 Y92.245 E0.01067
G1 X67.610 Y91.038 E0.05352
G1 X67.317 Y90.746 E0.01298
G1 X73.303 Y84.760 E0.26539
G1 X73.303 Y83.694 E0.03344
G1 X66.784 Y90.212 E0.28904
G1 X66.403 Y89.831 E0.01690
G1 X67.610 Y88.624 E0.05352
G1 X67.458 Y88.472 E0.00675
G1 X73.303 Y82.627 E0.25916
G1 X73.303 Y81.561 E0.03344
G1 X66.925 Y87.939 E0.28281
G1 X66.403 Y87.417 E0.02313
G1 X67.610 Y86.210 E0.05352
G1 X67.598 Y86.198 E0.00052
G1 X73.303 Y80.494 E0.25293
G1 X73.303 Y79.428 E0.03344
G1 X67.065 Y85.665 E0.27658
G1 X66.532 Y85.132 E0.02365
G1 X73.303 Y78.361 E0.30022
G1 X73.303 Y77.295 E0.03344
G1 X67.206 Y83.391 E0.27034
G1 X66.672 Y82.858 E0.02365
G1 X73.303 Y76.228 E0.29399
G1 X73.303 Y75.161 E0.03344
G1 X67.346 Y81.118 E0.26411
G1 X66.813 Y80.584 E0.02365
G1 X73.303 Y74.095 E0.28776
G1 X73.303 Y73.028 E0.03344
G1 X67.487 Y78.844 E0.25788
G1 X66.954 Y78.311 E0.02365
G1 X73.303 Y71.962 E0.28153
G1 X73.303 Y70.895 E0.03344
G1 X66.420 Y77.778 E0.30517
G1 X66.403 Y77.760 E0.00077
G1 X67.610 Y76.553 E0.05352
G1 X67.094 Y76.037 E0.02288
G1 X73.303 Y69.829 E0.27529
G1 X73.303 Y68.762 E0.03344
G1 X66.561 Y75.504 E0.29894
G1 X66.403 Y75.346 E0.00700
G1 X67.610 Y74.139 E0.05352
G1 X67.235 Y73.764 E0.01665
G1 X73.303 Y67.696 E0.26906
G1 X73.303 Y66.629 E0.03344
G1 X66.701 Y73.230 E0.29271
G1 X66.403 Y72.932 E0.01323
G1 X67.610 Y71.725 E0.05352
G1 X67.375 Y71.490 E0.01042
G1 X73.303 Y65.563 E0.26283
G1 X73.303 Y64.496 E0.03344
G1 X66.842 Y70.957 E0.28648
G1 X66.403 Y70.518 E0.01946
G1 X67.610 Y69.311 E0.05352
G1 X67.516 Y69.216 E0.00418
G1 X73.303 Y63.429 E0.25660
G1 X73.303 Y62.363 E0.03344
G1 X66.982 Y68.683 E0.28024
G1 X66.449 Y68.150 E0.02365
G1 X73.303 Y61.296 E0.30389
G1 X73.303 Y60.230 E0.03344
G1 X67.123 Y66.409 E0.27401
G1 X66.590 Y65.876 E0.02365
G1 X73.303 Y59.163 E0.29766
G1 X73.303 Y58.097 E0.03344
G1 X67.264 Y64.136 E0.26778
G1 X66.730 Y63.603 E0.02365
G1 X73.303 Y57.030 E0.29143
G1 X73.303 Y55.964 E0.03344
G1 X67.404 Y61.862 E0.26155
G1 X66.871 Y61.329 E0.02365
G1 X73.303 Y54.897 E0.28519
G1 X73.303 Y54.153 E0.02333
G1 X73.545 Y53.911 E0.01074
G1 X74.289 Y53.911 E0.02333
G1 X80.721 Y47.479 E0.28520
G1 X81.254 Y48.012 E0.02365
G1 X75.355 Y53.911 E0.26155
G1 X76.422 Y53.911 E0.03344
G1 X82.994 Y47.339 E0.29143
G1 X83.527 Y47.872 E0.02365
G1 X77.488 Y53.911 E0.26778
G1 X78.555 Y53.911 E0.03344
G1 X85.268 Y47.198 E0.29766
G1 X85.801 Y47.731 E0.02365
G1 X79.621 Y53.911 E0.27401
G1 X80.688 Y53.911 E0.03344
G1 X87.541 Y47.058 E0.30389
G1 X88.075 Y47.591 E0.02365
G1 X81.755 Y53.911 E0.28025
G1 X82.821 Y53.911 E0.03344
G1 X88.608 Y48.124 E0.25660
G1 X88.702 Y48.218 E0.00418
G1 X89.909 Y47.011 E0.05352
G1 X90.348 Y47.450 E0.01946
G1 X83.888 Y53.911 E0.28648
G1 X84.954 Y53.911 E0.03344
G1 X90.882 Y47.984 E0.26283
G1 X91.117 Y48.218 E0.01042
G1 X92.324 Y47.011 E0.05352
G1 X92.622 Y47.310 E0.01323
G1 X86.021 Y53.911 E0.29271
G1 X87.087 Y53.911 E0.03344
G1 X93.155 Y47.843 E0.26906
G1 X93.531 Y48.218 E0.01665
G1 X94.738 Y47.011 E0.05352
G1 X94.896 Y47.169 E0.00700
G1 X88.154 Y53.911 E0.29894
G1 X89.220 Y53.911 E0.03344
G1 X95.429 Y47.702 E0.27530
G1 X95.945 Y48.218 E0.02288
G1 X97.152 Y47.011 E0.05352
G1 X97.169 Y47.029 E0.00077
G1 X90.287 Y53.911 E0.30517
M73 P1 R175
G1 X91.353 Y53.911 E0.03344
G1 X97.702 Y47.562 E0.28153
G1 X98.236 Y48.095 E0.02365
G1 X92.420 Y53.911 E0.25788
G1 X93.487 Y53.911 E0.03344
G1 X99.976 Y47.421 E0.28776
G1 X100.509 Y47.955 E0.02365
G1 X94.553 Y53.911 E0.26411
G1 X95.620 Y53.911 E0.03344
G1 X102.250 Y47.281 E0.29399
G1 X102.783 Y47.814 E0.02365
G1 X96.686 Y53.911 E0.27035
G1 X97.753 Y53.911 E0.03344
G1 X104.523 Y47.140 E0.30022
G1 X105.057 Y47.674 E0.02365
G1 X98.819 Y53.911 E0.27658
G1 X99.886 Y53.911 E0.03344
G1 X105.590 Y48.207 E0.25293
G1 X105.602 Y48.218 E0.00052
G1 X106.809 Y47.011 E0.05352
