; generated by Slic3r Prusa Edition 1.41.3+linux64 on 2019-10-13 at 12:20:56

; 

; external perimeters extrusion width = 0.45mm
; perimeters extrusion width = 0.45mm
; infill extrusion width = 0.45mm
; solid infill extrusion width = 0.45mm
; top infill extrusion width = 0.40mm
; support material extrusion width = 0.35mm
; first layer extrusion width = 0.42mm

M73 P0 R151
M201 X9000 Y9000 Z500 E10000 ; sets maximum accelerations, mm/sec^2
M203 X500 Y500 Z12 E120 ; sets maximum feedrates, mm/sec
M204 P2000 R1500 T2000 ; sets acceleration (P, T) and retract acceleration (R), mm/sec^2
M205 X10.00 Y10.00 Z0.20 E2.50 ; sets the jerk limits, mm/sec
M205 S0 T0 ; sets the minimum extruding and travel feed rate, mm/sec
M107
M115 U3.2.3 ; tell printer latest fw version
M83  ; extruder relative mode
M204 S2000 T1500 ; MK2 firmware only supports the old M204 format
M104 S215 ; set extruder temp
M140 S60 ; set bed temp
M190 S60 ; wait for bed temp
M109 S215 ; wait for extruder temp
G28 W ; home all without mesh bed level
G80 ; mesh bed leveling
G1 Y-3.0 F1000.0 ; go outside print area
G92 E0.0
G1 X60.0 E9.0  F1000.0 ; intro line
M73 P0 R151
G1 X100.0 E12.5  F1000.0 ; intro line
G92 E0.0
M900 K30 ; Filament gcode
G21 ; set units to millimeters
G90 ; use absolute coordinates
M83 ; use relative distances for extrusion
;BEFORE_LAYER_CHANGE
G92 E0.0
;0.2


G1 E-0.80000 F2100.00000
G1 Z0.600 F10800.000
;AFTER_LAYER_CHANGE
;0.2
G1 X60.419 Y79.496
G1 Z0.200
G1 E0.80000 F2100.00000
M204 S1000
G1 F1200
G1 X60.575 Y78.845 E0.02100
G1 X61.191 Y77.616 E0.04310
G1 X61.605 Y76.980 E0.02379
G1 X62.457 Y75.932 E0.04235
G1 X63.566 Y74.913 E0.04723
G1 X64.544 Y74.234 E0.03733
G1 X65.392 Y73.777 E0.03020
G1 X67.250 Y73.111 E0.06189
G1 X68.343 Y72.908 E0.03485
G1 X69.367 Y72.830 E0.03219
G1 X180.432 Y72.825 E3.48236
G1 X182.291 Y73.009 E0.05860
G1 X183.999 Y73.514 E0.05584
G1 X185.123 Y74.043 E0.03896
G1 X186.559 Y75.009 E0.05424
G1 X187.904 Y76.339 E0.05929
G1 X188.553 Y77.206 E0.03398
G1 X189.040 Y78.046 E0.03045
G1 X189.861 Y80.185 E0.07182
G1 X190.123 Y81.589 E0.04478
G1 X193.744 Y111.739 E0.95212
G1 X193.750 Y128.255 E0.51785
G1 X193.620 Y128.981 E0.02315
G1 X193.349 Y129.502 E0.01839
G1 X192.947 Y129.934 E0.01851
G1 X186.104 Y135.335 E0.27335
G1 X184.986 Y136.031 E0.04129
G1 X184.075 Y136.457 E0.03152
G1 X183.025 Y136.813 E0.03478
G1 X166.506 Y140.490 E0.53059
G1 X162.151 Y140.671 E0.13668
G1 X147.802 Y140.671 E0.44991
G1 X141.711 Y140.500 E0.19106
G1 X68.212 Y137.074 E2.30698
G1 X67.305 Y136.899 E0.02897
G1 X65.870 Y136.436 E0.04730
G1 X64.543 Y135.762 E0.04667
G1 X63.814 Y135.279 E0.02740
G1 X62.343 Y133.950 E0.06219
G1 X60.635 Y131.705 E0.08842
G1 X60.470 Y131.242 E0.01544
G1 X60.411 Y130.749 E0.01555
G1 X60.419 Y79.556 E1.60512
; PURGING FINISHED
G1 F8640
G1 X60.575 Y78.845 E-0.16817
G1 X61.191 Y77.616 E-0.31741
G1 X61.605 Y76.980 E-0.17520
G1 X61.876 Y76.647 E-0.09922
G1 E-0.04000 F2100.00000
G1 Z0.800 F10800.000
G1 X62.600 Y81.089
G1 Z0.200
G1 E0.80000 F2100.00000
G1 F1200
G1 X62.600 Y79.675 E0.04434
G1 X62.741 Y79.356 E0.01093
G1 X63.091 Y78.701 E0.02328
G1 X63.354 Y78.296 E0.01514
G1 X63.354 Y78.894 E0.01876
G1 X63.721 Y78.349 E0.02059
G1 X64.108 Y77.871 E0.01930
G1 X64.108 Y77.368 E0.01577
G1 X64.504 Y76.979 E0.01742
G1 X64.862 Y76.676 E0.01470
G1 X64.862 Y77.116 E0.01379
G1 X65.341 Y76.727 E0.01934
G1 X65.617 Y76.533 E0.01056
G1 X65.617 Y76.145 E0.01217
G1 X66.023 Y75.909 E0.01474
G1 X66.371 Y75.735 E0.01218
G1 X66.371 Y76.082 E0.01088
G1 X67.125 Y75.737 E0.02600
G1 X67.125 Y75.430 E0.00963
G1 X67.879 Y75.213 E0.02461
G1 X67.879 Y75.482 E0.00844
G1 X68.633 Y75.309 E0.02426
G1 X68.633 Y75.077 E0.00728
G1 X69.387 Y75.018 E0.02372
G1 X69.387 Y75.213 E0.00610
G1 X70.142 Y75.186 E0.02366
G1 X70.142 Y75.014 E0.00542
G1 X70.896 Y75.014 E0.02365
G1 X70.896 Y75.186 E0.00542
G1 X71.650 Y75.186 E0.02365
G1 X71.650 Y75.014 E0.00542
G1 X72.404 Y75.014 E0.02365
G1 X72.404 Y75.186 E0.00542
G1 X73.158 Y75.186 E0.02365
G1 X73.158 Y75.014 E0.00542
G1 X73.912 Y75.014 E0.02365
G1 X73.912 Y75.186 E0.00542
G1 X74.667 Y75.186 E0.02365
G1 X74.667 Y75.014 E0.00542
G1 X75.421 Y75.014 E0.02365
G1 X75.421 Y75.186 E0.00542
G1 X76.175 Y75.186 E0.02365
G1 X76.175 Y75.014 E0.00542
G1 X76.929 Y75.014 E0.02365
G1 X76.929 Y75.186 E0.00542
G1 X77.683 Y75.186 E0.02365
G1 X77.683 Y75.014 E0.00542
G1 X78.437 Y75.014 E0.02365
G1 X78.437 Y75.186 E0.00542
G1 X79.191 Y75.186 E0.02365
G1 X79.191 Y75.014 E0.00542
G1 X79.946 Y75.014 E0.02365
G1 X79.946 Y75.186 E0.00542
G1 X80.700 Y75.186 E0.02365
G1 X80.700 Y75.014 E0.00542
G1 X81.454 Y75.014 E0.02365
G1 X81.454 Y75.186 E0.00542
G1 X82.208 Y75.186 E0.02365
G1 X82.208 Y75.014 E0.00542
G1 X82.962 Y75.014 E0.02365
G1 X82.962 Y75.186 E0.00542
G1 X83.716 Y75.186 E0.02365
G1 X83.716 Y75.014 E0.00542
G1 X84.471 Y75.014 E0.02365
G1 X84.471 Y75.186 E0.00542
G1 X85.225 Y75.186 E0.02365
G1 X85.225 Y75.014 E0.00542
G1 X85.979 Y75.014 E0.02365
G1 X85.979 Y75.186 E0.00542
G1 X86.733 Y75.186 E0.02365
G1 X86.733 Y75.014 E0.00542
G1 X87.487 Y75.014 E0.02365
G1 X87.487 Y75.186 E0.00542
G1 X88.241 Y75.186 E0.02365
G1 X88.241 Y75.014 E0.00542
G1 X88.996 Y75.014 E0.02365
G1 X88.996 Y75.186 E0.00542
G1 X89.750 Y75.186 E0.02365
G1 X89.750 Y75.014 E0.00542
G1 X90.504 Y75.014 E0.02365
G1 X90.504 Y75.186 E0.00542
G1 X91.258 Y75.186 E0.02365
G1 X91.258 Y75.014 E0.00542
G1 X92.012 Y75.014 E0.02365
G1 X92.012 Y75.186 E0.00542
G1 X92.766 Y75.186 E0.02365
G1 X92.766 Y75.014 E0.00542
G1 X93.521 Y75.014 E0.02365
G1 X93.521 Y75.186 E0.00542
G1 X94.275 Y75.186 E0.02365
G1 X94.275 Y75.014 E0.00542
G1 X95.029 Y75.014 E0.02365
G1 X95.029 Y75.186 E0.00542
G1 X95.783 Y75.186 E0.02365
G1 X95.783 Y75.014 E0.00542
G1 X96.537 Y75.014 E0.02365
G1 X96.537 Y75.186 E0.00542
G1 X97.291 Y75.186 E0.02365
G1 X97.291 Y75.014 E0.00542
G1 X98.045 Y75.014 E0.02365
G1 X98.045 Y75.186 E0.00542
G1 X98.800 Y75.186 E0.02365
G1 X98.800 Y75.014 E0.00542
G1 X99.554 Y75.014 E0.02365
G1 X99.554 Y75.186 E0.00542
G1 X100.308 Y75.186 E0.02365
G1 X100.308 Y75.014 E0.00542
G1 X101.062 Y75.014 E0.02365
G1 X101.062 Y75.186 E0.00542
G1 X101.816 Y75.186 E0.02365
G1 X101.816 Y75.014 E0.00542
G1 X102.570 Y75.014 E0.02365
G1 X102.570 Y75.186 E0.00542
G1 X103.325 Y75.186 E0.02365
G1 X103.325 Y75.014 E0.00542
G1 X104.079 Y75.014 E0.02365
G1 X104.079 Y75.186 E0.00542
G1 X104.833 Y75.186 E0.02365
G1 X104.833 Y75.014 E0.00542
G1 X105.587 Y75.014 E0.02365
G1 X105.587 Y75.186 E0.00542
G1 X106.341 Y75.186 E0.02365
G1 X106.341 Y75.014 E0.00542
G1 X107.095 Y75.014 E0.02365
G1 X107.095 Y75.186 E0.00542
G1 X107.850 Y75.186 E0.02365
G1 X107.850 Y75.014 E0.00542
G1 X108.604 Y75.014 E0.02365
G1 X108.604 Y75.186 E0.00542
G1 X109.358 Y75.186 E0.02365
G1 X109.358 Y75.014 E0.00542
G1 X110.112 Y75.014 E0.02365
G1 X110.112 Y75.186 E0.00542
G1 X110.866 Y75.186 E0.02365
G1 X110.866 Y75.014 E0.00542
G1 X111.620 Y75.014 E0.02365
G1 X111.620 Y75.186 E0.00542
G1 X112.374 Y75.186 E0.02365
G1 X112.374 Y75.014 E0.00542
G1 X113.129 Y75.014 E0.02365
G1 X113.129 Y75.186 E0.00542
G1 X113.883 Y75.186 E0.02365
G1 X113.883 Y75.014 E0.00542
G1 X114.637 Y75.014 E0.02365
G1 X114.637 Y75.186 E0.00542
G1 X115.391 Y75.186 E0.02365
G1 X115.391 Y75.014 E0.00542
G1 X116.145 Y75.014 E0.02365
G1 X116.145 Y75.186 E0.00542
G1 X116.899 Y75.186 E0.02365
G1 X116.899 Y75.014 E0.00542
G1 X117.654 Y75.014 E0.02365
G1 X117.654 Y75.186 E0.00542
G1 X118.408 Y75.186 E0.02365
G1 X118.408 Y75.014 E0.00542
G1 X119.162 Y75.014 E0.02365
G1 X119.162 Y75.186 E0.00542
G1 X119.916 Y75.186 E0.02365
G1 X119.916 Y75.014 E0.00542
G1 X120.670 Y75.014 E0.02365
G1 X120.670 Y75.186 E0.00542
G1 X121.424 Y75.186 E0.02365
G1 X121.424 Y75.014 E0.00542
G1 X122.179 Y75.014 E0.02365
G1 X122.179 Y75.186 E0.00542
G1 X122.933 Y75.186 E0.02365
G1 X122.933 Y75.014 E0.00542
G1 X123.687 Y75.014 E0.02365
G1 X123.687 Y75.186 E0.00542
G1 X124.441 Y75.186 E0.02365
G1 X124.441 Y75.014 E0.00542
G1 X125.195 Y75.014 E0.02365
G1 X125.195 Y75.186 E0.00542
G1 X125.949 Y75.186 E0.02365
G1 X125.949 Y75.014 E0.00542
G1 X126.704 Y75.014 E0.02365
G1 X126.704 Y75.186 E0.00542
G1 X127.458 Y75.186 E0.02365
G1 X127.458 Y75.014 E0.00542
G1 X128.212 Y75.014 E0.02365
G1 X128.212 Y75.186 E0.00542
G1 X128.966 Y75.186 E0.02365
G1 X128.966 Y75.014 E0.00542
G1 X129.720 Y75.014 E0.02365
G1 X129.720 Y75.186 E0.00542
G1 X130.474 Y75.186 E0.02365
G1 X130.474 Y75.014 E0.00542
G1 X131.228 Y75.014 E0.02365
G1 X131.228 Y75.186 E0.00542
G1 X131.983 Y75.186 E0.02365
G1 X131.983 Y75.014 E0.00542
G1 X132.737 Y75.014 E0.02365
G1 X132.737 Y75.186 E0.00542
G1 X133.491 Y75.186 E0.02365
G1 X133.491 Y75.014 E0.00542
G1 X134.245 Y75.014 E0.02365
G1 X134.245 Y75.186 E0.00542
G1 X134.999 Y75.186 E0.02365
G1 X134.999 Y75.014 E0.00542
G1 X135.753 Y75.014 E0.02365
G1 X135.753 Y75.186 E0.00542
G1 X136.508 Y75.186 E0.02365
G1 X136.508 Y75.014 E0.00542
G1 X137.262 Y75.014 E0.02365
G1 X137.262 Y75.186 E0.00542
G1 X138.016 Y75.186 E0.02365
G1 X138.016 Y75.014 E0.00542
G1 X138.770 Y75.014 E0.02365
G1 X138.770 Y75.186 E0.00542
G1 X139.524 Y75.186 E0.02365
G1 X139.524 Y75.014 E0.00542
G1 X140.278 Y75.014 E0.02365
G1 X140.278 Y75.186 E0.00542
G1 X141.033 Y75.186 E0.02365
G1 X141.033 Y75.014 E0.00542
G1 X141.787 Y75.014 E0.02365
G1 X141.787 Y75.186 E0.00542
G1 X142.541 Y75.186 E0.02365
G1 X142.541 Y75.014 E0.00542
G1 X143.295 Y75.014 E0.02365
G1 X143.295 Y75.186 E0.00542
G1 X144.049 Y75.186 E0.02365
G1 X144.049 Y75.014 E0.00542
G1 X144.803 Y75.014 E0.02365
G1 X144.803 Y75.186 E0.00542
G1 X145.557 Y75.186 E0.02365
G1 X145.557 Y75.014 E0.00542
G1 X146.312 Y75.014 E0.02365
G1 X146.312 Y75.186 E0.00542
G1 X147.066 Y75.186 E0.02365
G1 X147.066 Y75.014 E0.00542
G1 X147.820 Y75.014 E0.02365
G1 X147.820 Y75.186 E0.00542
G1 X148.574 Y75.186 E0.02365
G1 X148.574 Y75.014 E0.00542
G1 X149.328 Y75.014 E0.02365
G1 X149.328 Y75.186 E0.00542
G1 X150.082 Y75.186 E0.02365
G1 X150.082 Y75.014 E0.00542
G1 X150.837 Y75.014 E0.02365
G1 X150.837 Y75.186 E0.00542
G1 X151.591 Y75.186 E0.02365
G1 X151.591 Y75.014 E0.00542
G1 X152.345 Y75.014 E0.02365
G1 X152.345 Y75.186 E0.00542
G1 X153.099 Y75.186 E0.02365
G1 X153.099 Y75.014 E0.00542
G1 X153.853 Y75.014 E0.02365
G1 X153.853 Y75.186 E0.00542
G1 X154.607 Y75.186 E0.02365
G1 X154.607 Y75.014 E0.00542
G1 X155.362 Y75.014 E0.02365
G1 X155.362 Y75.186 E0.00542
G1 X156.116 Y75.186 E0.02365
G1 X156.116 Y75.014 E0.00542
G1 X156.870 Y75.014 E0.02365
G1 X156.870 Y75.186 E0.00542
G1 X157.624 Y75.186 E0.02365
G1 X157.624 Y75.014 E0.00542
G1 X158.378 Y75.014 E0.02365
G1 X158.378 Y75.186 E0.00542
G1 X159.132 Y75.186 E0.02365
G1 X159.132 Y75.014 E0.00542
G1 X159.887 Y75.014 E0.02365
G1 X159.887 Y75.186 E0.00542
G1 X160.641 Y75.186 E0.02365
G1 X160.641 Y75.014 E0.00542
G1 X161.395 Y75.014 E0.02365
G1 X161.395 Y75.186 E0.00542
G1 X162.149 Y75.186 E0.02365
G1 X162.149 Y75.014 E0.00542
G1 X162.903 Y75.014 E0.02365
G1 X162.903 Y75.186 E0.00542
G1 X163.657 Y75.186 E0.02365
G1 X163.657 Y75.014 E0.00542
G1 X164.411 Y75.014 E0.02365
G1 X164.411 Y75.186 E0.00542
G1 X165.166 Y75.186 E0.02365
G1 X165.166 Y75.014 E0.00542
G1 X165.920 Y75.014 E0.02365
G1 X165.920 Y75.186 E0.00542
G1 X166.674 Y75.186 E0.02365
G1 X166.674 Y75.014 E0.00542
G1 X167.428 Y75.014 E0.02365
G1 X167.428 Y75.186 E0.00542
G1 X168.182 Y75.186 E0.02365
G1 X168.182 Y75.014 E0.00542
G1 X168.936 Y75.014 E0.02365
G1 X168.936 Y75.186 E0.00542
G1 X169.691 Y75.186 E0.02365
G1 X169.691 Y75.014 E0.00542
G1 X170.445 Y75.014 E0.02365
G1 X170.445 Y75.186 E0.00542
G1 X171.199 Y75.186 E0.02365
G1 X171.199 Y75.014 E0.00542
G1 X171.953 Y75.014 E0.02365
G1 X171.953 Y75.186 E0.00542
G1 X172.707 Y75.186 E0.02365
G1 X172.707 Y75.014 E0.00542
G1 X173.461 Y75.014 E0.02365
G1 X173.461 Y75.186 E0.00542
G1 X174.216 Y75.186 E0.02365
G1 X174.216 Y75.014 E0.00542
G1 X174.970 Y75.014 E0.02365
G1 X174.970 Y75.186 E0.00542
G1 X175.724 Y75.186 E0.02365
G1 X175.724 Y75.014 E0.00542
G1 X176.478 Y75.014 E0.02365
G1 X176.478 Y75.186 E0.00542
G1 X177.232 Y75.186 E0.02365
G1 X177.232 Y75.014 E0.00542
G1 X177.986 Y75.014 E0.02365
G1 X177.986 Y75.186 E0.00542
G1 X178.740 Y75.186 E0.02365
G1 X178.740 Y75.014 E0.00542
G1 X179.495 Y75.014 E0.02365
G1 X179.495 Y75.186 E0.00542
G1 X180.249 Y75.192 E0.02365
G1 X180.249 Y75.014 E0.00561
G1 X180.772 Y75.022 E0.01639
G1 X181.003 Y75.039 E0.00727
G1 X181.003 Y75.253 E0.00671
G1 X181.757 Y75.389 E0.02403
G1 X181.757 Y75.137 E0.00788
G1 X182.511 Y75.314 E0.02429
G1 X182.511 Y75.603 E0.00905
G1 X183.265 Y75.903 E0.02545
G1 X183.265 Y75.576 E0.01027
G1 X183.301 Y75.589 E0.00118
G1 X184.020 Y75.933 E0.02499
G1 X184.020 Y76.300 E0.01149
G1 X184.345 Y76.506 E0.01209
G1 X184.774 Y76.817 E0.01660
G1 X184.774 Y76.403 E0.01297
G1 X185.213 Y76.735 E0.01726
G1 X185.528 Y77.009 E0.01310
G1 X185.528 Y77.478 E0.01469
G1 X186.037 Y78.039 E0.02375
G1 X186.282 Y78.354 E0.01252
G1 X186.282 Y77.809 E0.01710
G1 X186.708 Y78.385 E0.02248
G1 X187.036 Y78.926 E0.01985
G1 X187.036 Y80.016 E0.03418
G1 F8640
G1 X187.036 Y78.926 E-0.25172
G1 X186.708 Y78.385 E-0.14616
G1 X186.282 Y77.809 E-0.16551
G1 X186.282 Y78.354 E-0.12595
G1 X186.094 Y78.113 E-0.07066
G1 E-0.04000 F2100.00000
G1 Z0.800 F10800.000
G1 X187.036 Y123.756
G1 Z0.200
G1 E0.80000 F2100.00000
G1 F1200
G1 X187.036 Y116.414 E0.23022
G1 X186.282 Y116.414 E0.02365
G1 X186.282 Y123.586 E0.22490
G1 X185.528 Y123.586 E0.02365
G1 X185.528 Y116.414 E0.22490
G1 X185.229 Y116.414 E0.00938
G1 X184.986 Y116.171 E0.01074
G1 X184.986 Y82.605 E1.05245
G1 X184.937 Y81.927 E0.02132
G1 X184.849 Y81.486 E0.01411
G1 X184.774 Y81.223 E0.00856
G1 X184.774 Y128.777 E1.49102
G1 X184.637 Y129.155 E0.01260
G1 X184.445 Y129.562 E0.01411
G1 X184.213 Y129.948 E0.01411
G1 X184.020 Y130.214 E0.01032
G1 X184.020 Y79.786 E1.58116
G1 X183.798 Y79.520 E0.01084
G1 X183.480 Y79.202 E0.01412
G1 X183.265 Y79.020 E0.00881
G1 X183.265 Y130.980 E1.62915
G1 X182.948 Y131.213 E0.01235
G1 X182.511 Y131.470 E0.01589
G1 X182.511 Y78.530 E1.65992
G1 X182.155 Y78.363 E0.01233
G1 X181.757 Y78.220 E0.01326
G1 X181.757 Y131.780 E1.67936
G1 X181.295 Y131.898 E0.01496
G1 X181.003 Y131.945 E0.00927
G1 X181.003 Y78.055 E1.68970
G1 X180.625 Y78.019 E0.01190
G1 X180.249 Y78.014 E0.01180
G1 X180.249 Y88.807 E0.33843
G1 X179.495 Y88.807 E0.02365
G1 X179.495 Y78.014 E0.33843
G1 X178.740 Y78.014 E0.02365
G1 X178.740 Y88.807 E0.33843
G1 X177.986 Y88.807 E0.02365
G1 X177.986 Y78.014 E0.33843
G1 X177.232 Y78.014 E0.02365
G1 X177.232 Y88.807 E0.33843
G1 X176.478 Y88.807 E0.02365
G1 X176.478 Y78.014 E0.33843
G1 X175.724 Y78.014 E0.02365
G1 X175.716 Y88.807 E0.33843
G1 X175.716 Y87.100 E0.05352
G1 X174.970 Y87.100 E0.02341
G1 X174.970 Y78.014 E0.28491
G1 X174.216 Y78.014 E0.02365
G1 X174.216 Y87.100 E0.28491
G1 X174.009 Y87.100 E0.00646
G1 X174.009 Y81.979 E0.16057
G1 X173.461 Y81.979 E0.01718
G1 X173.461 Y78.014 E0.12434
G1 X172.707 Y78.014 E0.02365
G1 X172.707 Y81.979 E0.12434
G1 X171.953 Y81.979 E0.02365
G1 X171.953 Y78.014 E0.12434
G1 X171.199 Y78.014 E0.02365
G1 X171.199 Y81.979 E0.12434
G1 X170.445 Y81.979 E0.02365
G1 X170.445 Y78.014 E0.12434
G1 X169.691 Y78.014 E0.02365
G1 X169.691 Y81.979 E0.12434
G1 X168.936 Y81.979 E0.02365
G1 X168.936 Y78.014 E0.12434
G1 X168.182 Y78.014 E0.02365
G1 X168.182 Y81.979 E0.12434
G1 X167.428 Y81.979 E0.02365
G1 X167.428 Y78.014 E0.12434
G1 X166.674 Y78.014 E0.02365
G1 X166.674 Y81.979 E0.12434
G1 X165.920 Y81.979 E0.02365
G1 X165.920 Y78.014 E0.12434
G1 X165.166 Y78.014 E0.02365
G1 X165.166 Y81.979 E0.12434
M73 P0 R150
G1 X164.411 Y81.979 E0.02365
G1 X164.411 Y78.014 E0.12434
G1 X163.657 Y78.014 E0.02365
G1 X163.657 Y81.979 E0.12434
G1 X162.903 Y81.979 E0.02365
G1 X162.903 Y78.014 E0.12434
G1 X162.149 Y78.014 E0.02365
G1 X162.149 Y81.979 E0.12434
G1 X161.395 Y81.979 E0.02365
G1 X161.395 Y78.014 E0.12434
G1 X160.641 Y78.014 E0.02365
G1 X160.641 Y81.979 E0.12434
G1 X159.887 Y81.979 E0.02365
G1 X159.887 Y78.014 E0.12434
G1 X159.132 Y78.014 E0.02365
G1 X159.132 Y81.979 E0.12434
G1 X158.378 Y81.979 E0.02365
G1 X158.378 Y78.014 E0.12434
G1 X157.624 Y78.014 E0.02365
G1 X157.624 Y81.979 E0.12434
G1 X156.870 Y81.979 E0.02365
G1 X156.870 Y78.014 E0.12434
