; generated by PrusaSlicer 2.0.0+linux64 on 2019-07-25 at 00:47:12

; 

; external perimeters extrusion width = 0.45mm
; perimeters extrusion width = 0.45mm
; infill extrusion width = 0.45mm
; solid infill extrusion width = 0.45mm
; top infill extrusion width = 0.40mm
; support material extrusion width = 0.35mm
; first layer extrusion width = 0.42mm

M73 P0 R6
M201 X9000 Y9000 Z500 E10000 ; sets maximum accelerations, mm/sec^2
M203 X500 Y500 Z12 E120 ; sets maximum feedrates, mm/sec
M204 P2000 R1500 T2000 ; sets acceleration (P, T) and retract acceleration (R), mm/sec^2
M205 X10.00 Y10.00 Z0.20 E2.50 ; sets the jerk limits, mm/sec
M205 S0 T0 ; sets the minimum extruding and travel feed rate, mm/sec
M107
M115 U3.2.3 ; tell printer latest fw version
G90 ; use absolute coordinates
M83 ; extruder relative mode
M204 S2000 T1500 ; MK2 firmware only supports the old M204 format
M104 S215 ; set extruder temp
M140 S60 ; set bed temp
M190 S60 ; wait for bed temp
M109 S215 ; wait for extruder temp
G28 W ; home all without mesh bed level
G80 ; mesh bed leveling
G1 Y-3.0 F1000.0 ; go outside print area
G92 E0.0
G1 X60.0 E9.0  F1000.0 ; intro line
M73 P1 R6
G1 X100.0 E12.5 F1000.0 ; intro line
G92 E0.0
M900 K30 ; Filament gcode
G21 ; set units to millimeters
G90 ; use absolute coordinates
M83 ; use relative distances for extrusion
;BEFORE_LAYER_CHANGE
G92 E0.0
;0.2


G1 E-0.80000 F2100.00000
G1 Z0.600 F10800.000
;AFTER_LAYER_CHANGE
;0.2
G1 X111.847 Y91.989
G1 Z0.200
G1 E0.80000 F2100.00000
M204 S1000
G1 F1200
G1 X112.777 Y91.785 E0.02985
G1 X137.154 Y91.784 E0.76432
G1 X138.093 Y91.964 E0.02997
G1 X138.901 Y92.475 E0.02997
G1 X139.466 Y93.246 E0.02997
G1 X139.709 Y94.170 E0.02997
G1 X139.714 Y115.733 E0.67608
G1 X139.500 Y116.681 E0.03046
G1 X138.948 Y117.480 E0.03046
G1 X138.153 Y118.011 E0.02997
G1 X137.223 Y118.215 E0.02985
G1 X112.846 Y118.216 E0.76432
G1 X112.339 Y118.164 E0.01598
G1 X111.856 Y118.015 E0.01586
G1 X111.408 Y117.772 E0.01598
G1 X111.020 Y117.448 E0.01586
G1 X110.490 Y116.657 E0.02985
G1 X110.286 Y115.731 E0.02973
G1 X110.284 Y94.346 E0.67050
G1 X110.336 Y93.839 E0.01598
G1 X110.485 Y93.356 E0.01586
G1 X110.728 Y92.908 E0.01598
G1 X111.052 Y92.520 E0.01586
G1 X111.797 Y92.022 E0.02809
G1 F8640
G1 X112.777 Y91.785 E-0.23279
G1 X115.060 Y91.785 E-0.52721
G1 E-0.04000 F2100.00000
G1 Z0.800 F10800.000
G1 X110.836 Y93.493
G1 Z0.200
G1 E0.80000 F2100.00000
G1 F1200
G1 X111.330 Y92.775 E0.02732
G1 X112.008 Y92.330 E0.02541
G1 X112.797 Y92.162 E0.02529
G1 X137.154 Y92.161 E0.76370
G1 X137.960 Y92.317 E0.02574
G1 X138.652 Y92.758 E0.02574
G1 X139.133 Y93.424 E0.02574
G1 X139.335 Y94.220 E0.02574
G1 X139.338 Y115.712 E0.67387
G1 X139.152 Y116.534 E0.02642
G1 X138.670 Y117.225 E0.02642
G1 X137.992 Y117.670 E0.02541
G1 X137.203 Y117.838 E0.02529
G1 X112.846 Y117.839 E0.76370
G1 X111.993 Y117.664 E0.02732
G1 X111.275 Y117.170 E0.02732
G1 X110.833 Y116.499 E0.02518
G1 X110.662 Y115.711 E0.02529
G1 X110.661 Y94.346 E0.66986
G1 X110.824 Y93.552 E0.02544
G1 F8640
G1 X111.330 Y92.775 E-0.21401
G1 X112.008 Y92.330 E-0.18711
G1 X112.797 Y92.162 E-0.18628
G1 X113.544 Y92.162 E-0.17261
G1 E-0.04000 F2100.00000
G1 Z0.800 F10800.000
G1 X123.537 Y104.037
G1 Z0.200
G1 E0.80000 F2100.00000
G1 F1200
G1 X126.463 Y104.037 E0.09174
G1 X126.463 Y105.963 E0.06038
G1 X123.537 Y105.963 E0.09174
G1 X123.537 Y104.097 E0.05850
G1 X123.160 Y103.660 F10800.000
G1 F1200
G1 X126.840 Y103.660 E0.11538
G1 X126.840 Y106.340 E0.08403
G1 X123.160 Y106.340 E0.11538
G1 X123.160 Y103.720 E0.08215
G1 X123.551 Y103.743 F10800.000
G1 F8640
G1 X126.451 Y103.666 E-0.76000
G1 E-0.04000 F2100.00000
G1 Z0.800 F10800.000
G1 X124.451 Y105.850
G1 Z0.200
G1 E0.80000 F2100.00000
G1 F1200
G1 X123.820 Y105.218 E0.02937
G1 X123.820 Y104.659 E0.01839
G1 X124.841 Y105.680 E0.04749
G1 X125.400 Y105.680 E0.01839
G1 X124.040 Y104.320 E0.06326
G1 X124.599 Y104.320 E0.01839
G1 X125.960 Y105.680 E0.06326
G1 X126.180 Y105.680 E0.00725
G1 X126.180 Y105.341 E0.01115
G1 X125.159 Y104.320 E0.04750
G1 X125.718 Y104.320 E0.01839
G1 X126.350 Y104.952 E0.02938
G1 F8640
G1 X125.718 Y104.320 E-0.20627
G1 X125.159 Y104.320 E-0.12915
G1 X126.180 Y105.341 E-0.33351
G1 X126.180 Y105.680 E-0.07826
G1 X126.125 Y105.680 E-0.01280
G1 E-0.04000 F2100.00000
G1 Z0.800 F10800.000
G1 X126.350 Y96.863
G1 Z0.200
G1 E0.80000 F2100.00000
G1 F1200
G1 X123.537 Y96.863 E0.08819
G1 X123.537 Y94.937 E0.06038
G1 X126.463 Y94.937 E0.09174
G1 X126.463 Y96.863 E0.06038
G1 X126.410 Y96.863 E0.00166
G1 X126.840 Y97.240 F10800.000
G1 F1200
G1 X123.160 Y97.240 E0.11538
G1 X123.160 Y94.560 E0.08403
G1 X126.840 Y94.560 E0.11538
G1 X126.840 Y97.180 E0.08215
G1 X126.449 Y97.157 F10800.000
G1 F8640
G1 X123.549 Y97.234 E-0.76000
G1 E-0.04000 F2100.00000
G1 Z0.800 F10800.000
G1 X126.350 Y95.852
G1 Z0.200
G1 E0.80000 F2100.00000
G1 F1200
G1 X125.718 Y95.220 E0.02938
G1 X125.159 Y95.220 E0.01839
G1 X126.180 Y96.241 E0.04750
G1 X126.180 Y96.580 E0.01115
G1 X125.960 Y96.580 E0.00725
G1 X124.599 Y95.220 E0.06326
G1 X124.040 Y95.220 E0.01839
G1 X125.400 Y96.580 E0.06326
G1 X124.841 Y96.580 E0.01839
G1 X123.820 Y95.559 E0.04749
G1 X123.820 Y96.118 E0.01839
G1 X124.451 Y96.750 E0.02937
G1 F8640
G1 X123.820 Y96.118 E-0.20623
G1 X123.820 Y95.559 E-0.12915
G1 X124.841 Y96.580 E-0.33347
G1 X125.236 Y96.580 E-0.09115
G1 E-0.04000 F2100.00000
G1 Z0.800 F10800.000
G1 X133.637 Y96.750
G1 Z0.200
G1 E0.80000 F2100.00000
G1 F1200
G1 X133.637 Y94.937 E0.05684
G1 X136.563 Y94.937 E0.09174
G1 X136.563 Y96.863 E0.06038
G1 X133.637 Y96.863 E0.09174
G1 X133.637 Y96.810 E0.00166
G1 X133.260 Y97.240 F10800.000
G1 F1200
G1 X133.260 Y94.560 E0.08403
G1 X136.940 Y94.560 E0.11538
G1 X136.940 Y97.240 E0.08403
G1 X133.320 Y97.240 E0.11350
G1 X133.383 Y96.860 F10800.000
G1 F8640
G1 X133.260 Y94.560 E-0.61897
G1 X133.871 Y94.560 E-0.14103
G1 E-0.04000 F2100.00000
G1 Z0.800 F10800.000
G1 X134.551 Y96.750
G1 Z0.200
G1 E0.80000 F2100.00000
G1 F1200
G1 X133.920 Y96.118 E0.02937
G1 X133.920 Y95.559 E0.01839
G1 X134.941 Y96.580 E0.04749
G1 X135.500 Y96.580 E0.01839
G1 X134.140 Y95.220 E0.06326
G1 X134.699 Y95.220 E0.01839
G1 X136.060 Y96.580 E0.06326
G1 X136.280 Y96.580 E0.00725
G1 X136.280 Y96.241 E0.01115
G1 X135.259 Y95.220 E0.04750
G1 X135.818 Y95.220 E0.01839
G1 X136.450 Y95.852 E0.02938
G1 F8640
G1 X135.818 Y95.220 E-0.20627
G1 X135.259 Y95.220 E-0.12915
G1 X136.280 Y96.241 E-0.33351
G1 X136.280 Y96.580 E-0.07826
G1 X136.225 Y96.580 E-0.01280
G1 E-0.04000 F2100.00000
G1 Z0.800 F10800.000
G1 X136.450 Y104.037
G1 Z0.200
G1 E0.80000 F2100.00000
G1 F1200
G1 X136.563 Y104.037 E0.00355
G1 X136.563 Y105.963 E0.06038
G1 X133.637 Y105.963 E0.09174
G1 X133.637 Y104.037 E0.06038
G1 X136.390 Y104.037 E0.08631
G1 X136.940 Y103.660 F10800.000
G1 F1200
G1 X136.940 Y106.340 E0.08403
G1 X133.260 Y106.340 E0.11538
G1 X133.260 Y103.660 E0.08403
G1 X136.880 Y103.660 E0.11350
G1 X136.817 Y104.040 F10800.000
G1 F8640
G1 X136.940 Y106.340 E-0.61897
G1 X136.329 Y106.340 E-0.14103
G1 E-0.04000 F2100.00000
G1 Z0.800 F10800.000
G1 X136.450 Y104.952
G1 Z0.200
G1 E0.80000 F2100.00000
G1 F1200
G1 X135.818 Y104.320 E0.02938
G1 X135.259 Y104.320 E0.01839
G1 X136.280 Y105.341 E0.04750
G1 X136.280 Y105.680 E0.01115
G1 X136.060 Y105.680 E0.00725
G1 X134.699 Y104.320 E0.06326
G1 X134.140 Y104.320 E0.01839
G1 X135.500 Y105.680 E0.06326
G1 X134.941 Y105.680 E0.01839
G1 X133.920 Y104.659 E0.04749
G1 X133.920 Y105.218 E0.01839
G1 X134.551 Y105.850 E0.02937
G1 F8640
G1 X133.920 Y105.218 E-0.20623
G1 X133.920 Y104.659 E-0.12915
G1 X134.941 Y105.680 E-0.33347
G1 X135.336 Y105.680 E-0.09115
G1 E-0.04000 F2100.00000
G1 Z0.800 F10800.000
G1 X133.637 Y113.137
G1 Z0.200
G1 E0.80000 F2100.00000
G1 F1200
G1 X136.563 Y113.137 E0.09174
G1 X136.563 Y115.063 E0.06038
G1 X133.637 Y115.063 E0.09174
G1 X133.637 Y113.197 E0.05850
G1 X133.260 Y112.760 F10800.000
G1 F1200
G1 X136.940 Y112.760 E0.11538
G1 X136.940 Y115.440 E0.08403
G1 X133.260 Y115.440 E0.11538
G1 X133.260 Y112.820 E0.08215
G1 X133.651 Y112.843 F10800.000
G1 F8640
G1 X136.551 Y112.766 E-0.76000
G1 E-0.04000 F2100.00000
G1 Z0.800 F10800.000
G1 X134.551 Y114.950
G1 Z0.200
G1 E0.80000 F2100.00000
G1 F1200
G1 X133.920 Y114.318 E0.02937
G1 X133.920 Y113.759 E0.01839
G1 X134.941 Y114.780 E0.04749
G1 X135.500 Y114.780 E0.01839
G1 X134.140 Y113.420 E0.06326
G1 X134.699 Y113.420 E0.01839
G1 X136.060 Y114.780 E0.06326
G1 X136.280 Y114.780 E0.00725
G1 X136.280 Y114.441 E0.01115
G1 X135.259 Y113.420 E0.04750
G1 X135.818 Y113.420 E0.01839
G1 X136.450 Y114.052 E0.02938
G1 F8640
G1 X135.818 Y113.420 E-0.20627
G1 X135.259 Y113.420 E-0.12915
G1 X136.280 Y114.441 E-0.33351
G1 X136.280 Y114.780 E-0.07826
G1 X136.225 Y114.780 E-0.01280
G1 E-0.04000 F2100.00000
G1 Z0.800 F10800.000
G1 X126.463 Y113.137
G1 Z0.200
G1 E0.80000 F2100.00000
G1 F1200
G1 X126.463 Y115.063 E0.06038
G1 X123.537 Y115.063 E0.09174
G1 X123.537 Y113.137 E0.06038
G1 X126.403 Y113.137 E0.08986
G1 X126.840 Y112.760 F10800.000
G1 F1200
G1 X126.840 Y115.440 E0.08403
G1 X123.160 Y115.440 E0.11538
G1 X123.160 Y112.760 E0.08403
G1 X126.780 Y112.760 E0.11350
G1 X126.717 Y113.140 F10800.000
G1 F8640
G1 X126.840 Y115.440 E-0.61897
G1 X126.229 Y115.440 E-0.14103
G1 E-0.04000 F2100.00000
G1 Z0.800 F10800.000
G1 X126.350 Y114.052
G1 Z0.200
G1 E0.80000 F2100.00000
G1 F1200
G1 X125.718 Y113.420 E0.02938
G1 X125.159 Y113.420 E0.01839
G1 X126.180 Y114.441 E0.04750
G1 X126.180 Y114.780 E0.01115
G1 X125.960 Y114.780 E0.00725
G1 X124.599 Y113.420 E0.06326
G1 X124.040 Y113.420 E0.01839
G1 X125.400 Y114.780 E0.06326
G1 X124.841 Y114.780 E0.01839
G1 X123.820 Y113.759 E0.04749
G1 X123.820 Y114.318 E0.01839
G1 X124.451 Y114.950 E0.02937
G1 F8640
G1 X123.820 Y114.318 E-0.20623
G1 X123.820 Y113.759 E-0.12915
G1 X124.841 Y114.780 E-0.33347
G1 X125.236 Y114.780 E-0.09115
G1 E-0.04000 F2100.00000
G1 Z0.800 F10800.000
G1 X116.363 Y114.950
G1 Z0.200
G1 E0.80000 F2100.00000
G1 F1200
G1 X116.363 Y115.063 E0.00355
G1 X113.437 Y115.063 E0.09174
G1 X113.437 Y113.137 E0.06038
G1 X116.363 Y113.137 E0.09174
G1 X116.363 Y114.890 E0.05496
G1 X116.740 Y115.440 F10800.000
G1 F1200
G1 X113.060 Y115.440 E0.11538
G1 X113.060 Y112.760 E0.08403
G1 X116.740 Y112.760 E0.11538
G1 X116.740 Y115.380 E0.08215
G1 X116.349 Y115.357 F10800.000
G1 F8640
G1 X113.449 Y115.434 E-0.76000
G1 E-0.04000 F2100.00000
G1 Z0.800 F10800.000
G1 X116.250 Y114.052
G1 Z0.200
G1 E0.80000 F2100.00000
G1 F1200
G1 X115.618 Y113.420 E0.02938
G1 X115.059 Y113.420 E0.01839
G1 X116.080 Y114.441 E0.04750
G1 X116.080 Y114.780 E0.01115
G1 X115.860 Y114.780 E0.00725
G1 X114.499 Y113.420 E0.06326
G1 X113.940 Y113.420 E0.01839
G1 X115.300 Y114.780 E0.06326
G1 X114.741 Y114.780 E0.01839
G1 X113.720 Y113.759 E0.04749
G1 X113.720 Y114.318 E0.01839
G1 X114.351 Y114.950 E0.02937
G1 F8640
G1 X113.720 Y114.318 E-0.20623
G1 X113.720 Y113.759 E-0.12915
G1 X114.741 Y114.780 E-0.33347
G1 X115.136 Y114.780 E-0.09115
G1 E-0.04000 F2100.00000
G1 Z0.800 F10800.000
G1 X113.437 Y105.963
G1 Z0.200
G1 E0.80000 F2100.00000
G1 F1200
G1 X113.437 Y104.037 E0.06038
G1 X116.363 Y104.037 E0.09174
G1 X116.363 Y105.963 E0.06038
G1 X113.497 Y105.963 E0.08986
G1 X113.060 Y106.340 F10800.000
G1 F1200
G1 X113.060 Y103.660 E0.08403
G1 X116.740 Y103.660 E0.11538
G1 X116.740 Y106.340 E0.08403
G1 X113.120 Y106.340 E0.11350
G1 X113.183 Y105.960 F10800.000
G1 F8640
G1 X113.060 Y103.660 E-0.61897
G1 X113.671 Y103.660 E-0.14103
G1 E-0.04000 F2100.00000
G1 Z0.800 F10800.000
G1 X114.351 Y105.850
G1 Z0.200
G1 E0.80000 F2100.00000
G1 F1200
G1 X113.720 Y105.218 E0.02937
G1 X113.720 Y104.659 E0.01839
G1 X114.741 Y105.680 E0.04749
G1 X115.300 Y105.680 E0.01839
G1 X113.940 Y104.320 E0.06326
G1 X114.499 Y104.320 E0.01839
G1 X115.860 Y105.680 E0.06326
G1 X116.080 Y105.680 E0.00725
G1 X116.080 Y105.341 E0.01115
G1 X115.059 Y104.320 E0.04750
G1 X115.618 Y104.320 E0.01839
G1 X116.250 Y104.952 E0.02938
G1 F8640
G1 X115.618 Y104.320 E-0.20627
G1 X115.059 Y104.320 E-0.12915
G1 X116.080 Y105.341 E-0.33351
G1 X116.080 Y105.680 E-0.07826
G1 X116.025 Y105.680 E-0.01280
G1 E-0.04000 F2100.00000
G1 Z0.800 F10800.000
G1 X116.250 Y96.863
G1 Z0.200
G1 E0.80000 F2100.00000
G1 F1200
G1 X113.437 Y96.863 E0.08819
G1 X113.437 Y94.937 E0.06038
G1 X116.363 Y94.937 E0.09174
G1 X116.363 Y96.863 E0.06038
G1 X116.310 Y96.863 E0.00166
G1 X116.740 Y97.240 F10800.000
G1 F1200
G1 X113.060 Y97.240 E0.11538
G1 X113.060 Y94.560 E0.08403
G1 X116.740 Y94.560 E0.11538
G1 X116.740 Y97.180 E0.08215
G1 X116.349 Y97.157 F10800.000
G1 F8640
G1 X113.449 Y97.234 E-0.76000
G1 E-0.04000 F2100.00000
G1 Z0.800 F10800.000
G1 X116.250 Y95.852
G1 Z0.200
G1 E0.80000 F2100.00000
G1 F1200
G1 X115.618 Y95.220 E0.02938
G1 X115.059 Y95.220 E0.01839
G1 X116.080 Y96.241 E0.04750
G1 X116.080 Y96.580 E0.01115
G1 X115.860 Y96.580 E0.00725
G1 X114.499 Y95.220 E0.06326
G1 X113.940 Y95.220 E0.01839
G1 X115.300 Y96.580 E0.06326
G1 X114.741 Y96.580 E0.01839
G1 X113.720 Y95.559 E0.04749
G1 X113.720 Y96.118 E0.01839
G1 X114.351 Y96.750 E0.02937
M106 S255
;BEFORE_LAYER_CHANGE
G92 E0.0
;0.4


G1 F8640
G1 X113.720 Y96.118 E-0.20623
G1 X113.720 Y95.559 E-0.12915
G1 X114.741 Y96.580 E-0.33347
G1 X115.136 Y96.580 E-0.09115
G1 E-0.04000 F2100.00000
G1 Z0.800 F10800.000
;AFTER_LAYER_CHANGE
;0.4
G1 X111.847 Y91.989
G1 Z0.400
G1 E0.80000 F2100.00000
G1 F1321
G1 X112.777 Y91.785 E0.02985
G1 X137.154 Y91.784 E0.76432
G1 X138.093 Y91.964 E0.02997
G1 X138.901 Y92.475 E0.02997
G1 X139.466 Y93.246 E0.02997
G1 X139.709 Y94.170 E0.02997
G1 X139.714 Y115.733 E0.67608
G1 X139.500 Y116.681 E0.03046
G1 X138.948 Y117.480 E0.03046
G1 X138.153 Y118.011 E0.02997
G1 X137.223 Y118.215 E0.02985
G1 X112.846 Y118.216 E0.76432
G1 X112.339 Y118.164 E0.01598
G1 X111.856 Y118.015 E0.01586
G1 X111.408 Y117.772 E0.01598
G1 X111.020 Y117.448 E0.01586
G1 X110.490 Y116.657 E0.02985
G1 X110.286 Y115.731 E0.02973
G1 X110.284 Y94.346 E0.67050
G1 X110.336 Y93.839 E0.01598
G1 X110.485 Y93.356 E0.01586
G1 X110.728 Y92.908 E0.01598
G1 X111.052 Y92.520 E0.01586
G1 X111.797 Y92.022 E0.02809
G1 F8640
G1 X112.777 Y91.785 E-0.23279
G1 X115.060 Y91.785 E-0.52721
G1 E-0.04000 F2100.00000
G1 Z1.000 F10800.000
G1 X123.582 Y104.082
G1 Z0.400
G1 E0.80000 F2100.00000
M204 S800
G1 F1321
G1 X126.418 Y104.082 E0.09599
G1 X126.418 Y105.918 E0.06214
G1 X123.582 Y105.918 E0.09599
G1 X123.582 Y104.142 E0.06011
M204 S1000
G1 X123.175 Y103.675 F10800.000
M204 S800
G1 F1321
G1 X126.825 Y103.675 E0.12355
G1 X126.825 Y106.325 E0.08970
G1 X123.175 Y106.325 E0.12355
G1 X123.175 Y103.735 E0.08767
M204 S1000
G1 X123.566 Y103.758 F10800.000
G1 F8640
G1 X126.466 Y103.681 E-0.76000
G1 E-0.04000 F2100.00000
G1 Z1.000 F10800.000
G1 X124.577 Y104.204
G1 Z0.400
G1 E0.80000 F2100.00000
M204 S2000
G1 F1321
G1 X123.887 Y104.894 E0.03495
G1 X123.887 Y105.503 E0.02182
G1 X125.003 Y104.387 E0.05653
G1 X125.613 Y104.387 E0.02182
G1 X124.387 Y105.613 E0.06207
G1 X124.997 Y105.613 E0.02182
G1 X126.113 Y104.497 E0.05654
G1 X126.113 Y105.106 E0.02182
G1 X125.423 Y105.796 E0.03496
M204 S1000
G1 F8640
G1 X126.113 Y105.106 E-0.22533
G1 X126.113 Y104.497 E-0.14067
G1 X124.997 Y105.613 E-0.36445
G1 X124.869 Y105.613 E-0.02955
G1 E-0.04000 F2100.00000
G1 Z1.000 F10800.000
G1 X126.418 Y96.818
G1 Z0.400
G1 E0.80000 F2100.00000
M204 S800
G1 F1321
G1 X123.582 Y96.818 E0.09599
G1 X123.582 Y94.982 E0.06214
G1 X126.418 Y94.982 E0.09599
G1 X126.418 Y96.758 E0.06011
M204 S1000
G1 X126.825 Y97.225 F10800.000
M204 S800
G1 F1321
G1 X123.175 Y97.225 E0.12355
G1 X123.175 Y94.575 E0.08970
G1 X126.825 Y94.575 E0.12355
G1 X126.825 Y97.165 E0.08767
M204 S1000
G1 X126.434 Y97.142 F10800.000
G1 F8640
G1 X123.534 Y97.219 E-0.76000
G1 E-0.04000 F2100.00000
G1 Z1.000 F10800.000
G1 X125.423 Y96.696
G1 Z0.400
G1 E0.80000 F2100.00000
M204 S2000
G1 F1321
G1 X126.113 Y96.006 E0.03496
G1 X126.113 Y95.397 E0.02182
G1 X124.997 Y96.513 E0.05654
G1 X124.387 Y96.513 E0.02182
G1 X125.613 Y95.287 E0.06207
G1 X125.003 Y95.287 E0.02182
G1 X123.887 Y96.403 E0.05653
G1 X123.887 Y95.794 E0.02182
G1 X124.577 Y95.104 E0.03495
M204 S1000
G1 F8640
G1 X123.887 Y95.794 E-0.22528
G1 X123.887 Y96.403 E-0.14067
