; generated by PrusaSlicer 2.1.0+linux64 on 2019-12-29 at 08:52:16 UTC

; 

; external perimeters extrusion width = 0.45mm
; perimeters extrusion width = 0.45mm
; infill extrusion width = 0.45mm
; solid infill extrusion width = 0.45mm
; top infill extrusion width = 0.40mm
; support material extrusion width = 0.35mm
; first layer extrusion width = 0.42mm

M73 P0 R6
M201 X9000 Y9000 Z500 E10000 ; sets maximum accelerations, mm/sec^2
M203 X500 Y500 Z12 E120 ; sets maximum feedrates, mm/sec
M204 P2000 R1500 T2000 ; sets acceleration (P, T) and retract acceleration (R), mm/sec^2
M205 X10.00 Y10.00 Z0.20 E2.50 ; sets the jerk limits, mm/sec
M205 S0 T0 ; sets the minimum extruding and travel feed rate, mm/sec
M107
M862.3 P "MK2S" ; printer model check
M862.1 P0.4 ; nozzle diameter check
M115 U3.2.3 ; tell printer latest fw version
G90 ; use absolute coordinates
M83 ; extruder relative mode
M204 S2000 T1500 ; MK2 firmware only supports the old M204 format
M104 S215 ; set extruder temp
M140 S60 ; set bed temp
M190 S60 ; wait for bed temp
M109 S215 ; wait for extruder temp
G28 W ; home all without mesh bed level
G80 ; mesh bed leveling
G1 Y-3.0 F1000.0 ; go outside print area
G92 E0.0
G1 X60.0 E9.0  F1000.0 ; intro line
M73 P0 R6
G1 X100.0 E12.5 F1000.0 ; intro line
G92 E0.0
G21 ; set units to millimeters
G90 ; use absolute coordinates
M83 ; use relative distances for extrusion
M900 K30 ; Filament gcode
;BEFORE_LAYER_CHANGE
G92 E0.0
;0.2


G1 E-0.80000 F2100.00000
G1 Z0.600 F10800.000
;AFTER_LAYER_CHANGE
;0.2
G1 X111.030 Y92.242
G1 Z0.200
G1 E0.80000 F2100.00000
M204 S1000
G1 F1200
G1 X111.829 Y91.696 E0.03034
G1 X112.777 Y91.485 E0.03046
G1 X137.154 Y91.484 E0.76432
G1 X138.093 Y91.664 E0.02997
G1 X138.901 Y92.175 E0.02997
G1 X139.468 Y92.950 E0.03010
G1 X139.710 Y93.874 E0.02997
G1 X139.714 Y116.029 E0.69465
G1 X139.506 Y116.966 E0.03010
G1 X138.970 Y117.758 E0.02997
G1 X138.135 Y118.319 E0.03156
G1 X137.150 Y118.516 E0.03149
G1 X112.779 Y118.515 E0.76414
G1 X111.838 Y118.307 E0.03022
G1 X111.042 Y117.770 E0.03010
G1 X110.481 Y116.935 E0.03156
G1 X110.284 Y115.950 E0.03149
G1 X110.286 Y93.971 E0.68914
G1 X110.494 Y93.034 E0.03010
G1 X110.996 Y92.292 E0.02809
G1 X111.306 Y92.501 F10800.000
G1 F1200
G1 X111.994 Y92.036 E0.02603
G1 X112.797 Y91.862 E0.02574
G1 X137.154 Y91.861 E0.76370
G1 X137.960 Y92.017 E0.02574
G1 X138.652 Y92.458 E0.02574
G1 X139.133 Y93.124 E0.02574
G1 X139.335 Y93.920 E0.02574
G1 X139.338 Y116.008 E0.69257
G1 X139.158 Y116.821 E0.02608
G1 X138.691 Y117.504 E0.02597
G1 X138.006 Y117.964 E0.02586
G1 X137.203 Y118.138 E0.02574
G1 X112.850 Y118.139 E0.76358
G1 X112.006 Y117.969 E0.02698
G1 X111.296 Y117.491 E0.02687
G1 X110.837 Y116.809 E0.02574
G1 X110.662 Y116.007 E0.02574
G1 X110.661 Y94.050 E0.68845
G1 X110.831 Y93.206 E0.02698
G1 X111.273 Y92.550 E0.02480
G1 F8640
G1 X111.994 Y92.036 E-0.20464
G1 X112.797 Y91.862 E-0.18959
G1 X114.381 Y91.862 E-0.36577
G1 E-0.04000 F2100.00000
G1 Z0.800 F10800.000
G1 X123.914 Y104.314
G1 Z0.200
G1 E0.80000 F2100.00000
G1 F1200
G1 X126.086 Y104.314 E0.06809
G1 X126.086 Y105.686 E0.04301
G1 X123.914 Y105.686 E0.06809
G1 X123.914 Y104.374 E0.04113
G1 X123.537 Y103.937 F10800.000
G1 F1200
G1 X126.463 Y103.937 E0.09174
G1 X126.463 Y106.063 E0.06665
G1 X123.537 Y106.063 E0.09174
G1 X123.537 Y103.997 E0.06477
G1 X123.160 Y103.560 F10800.000
G1 F1200
G1 X126.840 Y103.560 E0.11538
G1 X126.840 Y106.440 E0.09030
G1 X123.160 Y106.440 E0.11538
G1 X123.160 Y103.620 E0.08842
G1 X123.550 Y103.648 F10800.000
G1 F8640
G1 X126.451 Y103.566 E-0.76000
G1 E-0.04000 F2100.00000
G1 Z0.800 F10800.000
G1 X124.027 Y104.661
G1 Z0.200
G1 E0.80000 F2100.00000
G1 F1200
G1 X124.770 Y105.403 E0.03910
G1 X125.403 Y105.403 E0.02358
G1 X124.597 Y104.597 E0.04245
G1 X125.230 Y104.597 E0.02358
G1 X125.973 Y105.340 E0.03910
G1 F8640
G1 X125.230 Y104.597 E-0.24249
G1 X124.597 Y104.597 E-0.14622
G1 X125.403 Y105.403 E-0.26323
G1 X124.935 Y105.403 E-0.10805
G1 E-0.04000 F2100.00000
G1 Z0.800 F10800.000
G1 X125.973 Y96.386
G1 Z0.200
G1 E0.80000 F2100.00000
G1 F1200
G1 X123.914 Y96.386 E0.06455
G1 X123.914 Y95.014 E0.04301
G1 X126.086 Y95.014 E0.06809
G1 X126.086 Y96.386 E0.04301
G1 X126.033 Y96.386 E0.00166
G1 X126.463 Y96.763 F10800.000
G1 F1200
G1 X123.537 Y96.763 E0.09174
G1 X123.537 Y94.637 E0.06665
G1 X126.463 Y94.637 E0.09174
G1 X126.463 Y96.703 E0.06477
G1 X126.840 Y97.140 F10800.000
G1 F1200
G1 X123.160 Y97.140 E0.11538
G1 X123.160 Y94.260 E0.09030
G1 X126.840 Y94.260 E0.11538
G1 X126.840 Y97.080 E0.08842
G1 X126.450 Y97.052 F10800.000
G1 F8640
G1 X123.549 Y97.134 E-0.76000
G1 E-0.04000 F2100.00000
G1 Z0.800 F10800.000
G1 X125.973 Y96.040
G1 Z0.200
G1 E0.80000 F2100.00000
G1 F1200
G1 X125.230 Y95.297 E0.03910
G1 X124.597 Y95.297 E0.02358
G1 X125.403 Y96.103 E0.04245
G1 X124.770 Y96.103 E0.02358
G1 X124.027 Y95.361 E0.03910
G1 F8640
G1 X124.770 Y96.103 E-0.24244
G1 X125.403 Y96.103 E-0.14623
G1 X124.597 Y95.297 E-0.26323
G1 X125.065 Y95.297 E-0.10810
G1 E-0.04000 F2100.00000
G1 Z0.800 F10800.000
G1 X134.014 Y95.014
G1 Z0.200
G1 E0.80000 F2100.00000
G1 F1200
G1 X136.186 Y95.014 E0.06809
G1 X136.186 Y96.386 E0.04301
G1 X134.014 Y96.386 E0.06809
G1 X134.014 Y95.074 E0.04113
G1 X133.637 Y94.637 F10800.000
G1 F1200
G1 X136.563 Y94.637 E0.09174
G1 X136.563 Y96.763 E0.06665
G1 X133.637 Y96.763 E0.09174
G1 X133.637 Y94.697 E0.06477
G1 X133.260 Y94.260 F10800.000
G1 F1200
G1 X136.940 Y94.260 E0.11538
G1 X136.940 Y97.140 E0.09030
G1 X133.260 Y97.140 E0.11538
G1 X133.260 Y94.320 E0.08842
G1 X133.650 Y94.348 F10800.000
G1 F8640
G1 X136.551 Y94.266 E-0.76000
G1 E-0.04000 F2100.00000
G1 Z0.800 F10800.000
G1 X134.127 Y95.361
G1 Z0.200
G1 E0.80000 F2100.00000
G1 F1200
G1 X134.870 Y96.103 E0.03910
G1 X135.503 Y96.103 E0.02358
G1 X134.697 Y95.297 E0.04245
G1 X135.330 Y95.297 E0.02358
G1 X136.073 Y96.040 E0.03910
G1 F8640
G1 X135.330 Y95.297 E-0.24249
G1 X134.697 Y95.297 E-0.14622
G1 X135.503 Y96.103 E-0.26323
G1 X135.035 Y96.103 E-0.10805
G1 E-0.04000 F2100.00000
G1 Z0.800 F10800.000
G1 X136.073 Y104.314
G1 Z0.200
G1 E0.80000 F2100.00000
G1 F1200
G1 X136.186 Y104.314 E0.00355
G1 X136.186 Y105.686 E0.04301
G1 X134.014 Y105.686 E0.06809
G1 X134.014 Y104.314 E0.04301
G1 X136.013 Y104.314 E0.06266
G1 X136.563 Y103.937 F10800.000
G1 F1200
G1 X136.563 Y106.063 E0.06665
G1 X133.637 Y106.063 E0.09174
G1 X133.637 Y103.937 E0.06665
G1 X136.503 Y103.937 E0.08986
G1 X136.940 Y103.560 F10800.000
G1 F1200
G1 X136.940 Y106.440 E0.09030
G1 X133.260 Y106.440 E0.11538
G1 X133.260 Y103.560 E0.09030
G1 X136.880 Y103.560 E0.11350
G1 X136.821 Y103.942 F10800.000
G1 F8640
G1 X136.940 Y106.440 E-0.66514
G1 X136.529 Y106.440 E-0.09486
G1 E-0.04000 F2100.00000
G1 Z0.800 F10800.000
G1 X136.073 Y105.340
G1 Z0.200
G1 E0.80000 F2100.00000
G1 F1200
G1 X135.330 Y104.597 E0.03910
G1 X134.697 Y104.597 E0.02358
G1 X135.503 Y105.403 E0.04245
G1 X134.870 Y105.403 E0.02358
G1 X134.127 Y104.661 E0.03910
G1 F8640
G1 X134.870 Y105.403 E-0.24244
G1 X135.503 Y105.403 E-0.14623
G1 X134.697 Y104.597 E-0.26323
G1 X135.165 Y104.597 E-0.10810
G1 E-0.04000 F2100.00000
G1 Z0.800 F10800.000
G1 X115.986 Y104.314
G1 Z0.200
G1 E0.80000 F2100.00000
G1 F1200
G1 X115.986 Y105.686 E0.04301
G1 X113.814 Y105.686 E0.06809
G1 X113.814 Y104.314 E0.04301
G1 X115.926 Y104.314 E0.06621
G1 X116.363 Y103.937 F10800.000
G1 F1200
G1 X116.363 Y106.063 E0.06665
G1 X113.437 Y106.063 E0.09174
G1 X113.437 Y103.937 E0.06665
G1 X116.303 Y103.937 E0.08986
G1 X116.740 Y103.560 F10800.000
G1 F1200
G1 X116.740 Y106.440 E0.09030
G1 X113.060 Y106.440 E0.11538
G1 X113.060 Y103.560 E0.09030
G1 X116.680 Y103.560 E0.11350
G1 X116.621 Y103.942 F10800.000
G1 F8640
G1 X116.740 Y106.440 E-0.66514
G1 X116.329 Y106.440 E-0.09486
G1 E-0.04000 F2100.00000
G1 Z0.800 F10800.000
G1 X115.873 Y105.340
G1 Z0.200
G1 E0.80000 F2100.00000
G1 F1200
G1 X115.130 Y104.597 E0.03910
G1 X114.497 Y104.597 E0.02358
G1 X115.303 Y105.403 E0.04245
G1 X114.670 Y105.403 E0.02358
G1 X113.927 Y104.661 E0.03910
G1 F8640
G1 X114.670 Y105.403 E-0.24244
G1 X115.303 Y105.403 E-0.14623
G1 X114.497 Y104.597 E-0.26323
G1 X114.965 Y104.597 E-0.10810
G1 E-0.04000 F2100.00000
G1 Z0.800 F10800.000
G1 X113.927 Y96.386
G1 Z0.200
G1 E0.80000 F2100.00000
G1 F1200
G1 X113.814 Y96.386 E0.00355
G1 X113.814 Y95.014 E0.04301
G1 X115.986 Y95.014 E0.06809
G1 X115.986 Y96.386 E0.04301
G1 X113.987 Y96.386 E0.06266
G1 X113.437 Y96.763 F10800.000
G1 F1200
G1 X113.437 Y94.637 E0.06665
G1 X116.363 Y94.637 E0.09174
G1 X116.363 Y96.763 E0.06665
G1 X113.497 Y96.763 E0.08986
G1 X113.060 Y97.140 F10800.000
G1 F1200
G1 X113.060 Y94.260 E0.09030
G1 X116.740 Y94.260 E0.11538
G1 X116.740 Y97.140 E0.09030
G1 X113.120 Y97.140 E0.11350
G1 X113.179 Y96.758 F10800.000
G1 F8640
G1 X113.060 Y94.260 E-0.66514
G1 X113.471 Y94.260 E-0.09486
G1 E-0.04000 F2100.00000
G1 Z0.800 F10800.000
G1 X113.927 Y95.361
G1 Z0.200
G1 E0.80000 F2100.00000
G1 F1200
G1 X114.670 Y96.103 E0.03910
G1 X115.303 Y96.103 E0.02358
G1 X114.497 Y95.297 E0.04245
G1 X115.130 Y95.297 E0.02358
G1 X115.873 Y96.040 E0.03910
G1 F8640
G1 X115.130 Y95.297 E-0.24249
G1 X114.497 Y95.297 E-0.14622
G1 X115.303 Y96.103 E-0.26323
G1 X114.835 Y96.103 E-0.10805
G1 E-0.04000 F2100.00000
G1 Z0.800 F10800.000
G1 X134.014 Y113.614
G1 Z0.200
G1 E0.80000 F2100.00000
G1 F1200
G1 X136.186 Y113.614 E0.06809
G1 X136.186 Y114.986 E0.04301
G1 X134.014 Y114.986 E0.06809
G1 X134.014 Y113.674 E0.04113
G1 X133.637 Y113.237 F10800.000
G1 F1200
G1 X136.563 Y113.237 E0.09174
G1 X136.563 Y115.363 E0.06665
G1 X133.637 Y115.363 E0.09174
G1 X133.637 Y113.297 E0.06477
G1 X133.260 Y112.860 F10800.000
G1 F1200
G1 X136.940 Y112.860 E0.11538
G1 X136.940 Y115.740 E0.09030
G1 X133.260 Y115.740 E0.11538
G1 X133.260 Y112.920 E0.08842
G1 X133.650 Y112.948 F10800.000
G1 F8640
G1 X136.551 Y112.866 E-0.76000
G1 E-0.04000 F2100.00000
G1 Z0.800 F10800.000
G1 X134.127 Y113.961
G1 Z0.200
G1 E0.80000 F2100.00000
G1 F1200
G1 X134.870 Y114.703 E0.03910
G1 X135.503 Y114.703 E0.02358
G1 X134.697 Y113.897 E0.04245
G1 X135.330 Y113.897 E0.02358
G1 X136.073 Y114.640 E0.03910
G1 F8640
G1 X135.330 Y113.897 E-0.24249
G1 X134.697 Y113.897 E-0.14622
G1 X135.503 Y114.703 E-0.26323
G1 X135.035 Y114.703 E-0.10805
G1 E-0.04000 F2100.00000
G1 Z0.800 F10800.000
G1 X126.086 Y114.986
G1 Z0.200
G1 E0.80000 F2100.00000
G1 F1200
G1 X123.914 Y114.986 E0.06809
G1 X123.914 Y113.614 E0.04301
G1 X126.086 Y113.614 E0.06809
G1 X126.086 Y114.926 E0.04113
G1 X126.463 Y115.363 F10800.000
G1 F1200
G1 X123.537 Y115.363 E0.09174
G1 X123.537 Y113.237 E0.06665
G1 X126.463 Y113.237 E0.09174
G1 X126.463 Y115.303 E0.06477
G1 X126.840 Y115.740 F10800.000
G1 F1200
G1 X123.160 Y115.740 E0.11538
G1 X123.160 Y112.860 E0.09030
G1 X126.840 Y112.860 E0.11538
G1 X126.840 Y115.680 E0.08842
G1 X126.450 Y115.652 F10800.000
G1 F8640
G1 X123.549 Y115.734 E-0.76000
G1 E-0.04000 F2100.00000
G1 Z0.800 F10800.000
G1 X125.973 Y114.640
G1 Z0.200
G1 E0.80000 F2100.00000
G1 F1200
G1 X125.230 Y113.897 E0.03910
G1 X124.597 Y113.897 E0.02358
G1 X125.403 Y114.703 E0.04245
G1 X124.770 Y114.703 E0.02358
G1 X124.027 Y113.961 E0.03910
G1 F8640
G1 X124.770 Y114.703 E-0.24244
G1 X125.403 Y114.703 E-0.14623
G1 X124.597 Y113.897 E-0.26323
G1 X125.065 Y113.897 E-0.10810
G1 E-0.04000 F2100.00000
G1 Z0.800 F10800.000
G1 X115.986 Y113.614
G1 Z0.200
G1 E0.80000 F2100.00000
G1 F1200
G1 X115.986 Y114.986 E0.04301
G1 X113.814 Y114.986 E0.06809
G1 X113.814 Y113.614 E0.04301
G1 X115.926 Y113.614 E0.06621
G1 X116.363 Y113.237 F10800.000
G1 F1200
G1 X116.363 Y115.363 E0.06665
G1 X113.437 Y115.363 E0.09174
G1 X113.437 Y113.237 E0.06665
G1 X116.303 Y113.237 E0.08986
G1 X116.740 Y112.860 F10800.000
G1 F1200
G1 X116.740 Y115.740 E0.09030
G1 X113.060 Y115.740 E0.11538
G1 X113.060 Y112.860 E0.09030
G1 X116.680 Y112.860 E0.11350
G1 X116.621 Y113.242 F10800.000
G1 F8640
G1 X116.740 Y115.740 E-0.66514
G1 X116.329 Y115.740 E-0.09486
G1 E-0.04000 F2100.00000
G1 Z0.800 F10800.000
G1 X115.873 Y114.640
G1 Z0.200
G1 E0.80000 F2100.00000
G1 F1200
G1 X115.130 Y113.897 E0.03910
G1 X114.497 Y113.897 E0.02358
G1 X115.303 Y114.703 E0.04245
G1 X114.670 Y114.703 E0.02358
G1 X113.927 Y113.961 E0.03910
M106 S255
;BEFORE_LAYER_CHANGE
G92 E0.0
;0.4


G1 F8640
G1 X114.670 Y114.703 E-0.24244
G1 X115.303 Y114.703 E-0.14623
G1 X114.497 Y113.897 E-0.26323
G1 X114.965 Y113.897 E-0.10810
G1 E-0.04000 F2100.00000
G1 Z0.800 F10800.000
;AFTER_LAYER_CHANGE
;0.4
M104 S210 ; set temperature
G1 X111.042 Y117.770
G1 Z0.400
G1 E0.80000 F2100.00000
G1 F1389
G1 X110.481 Y116.935 E0.03156
G1 X110.284 Y115.950 E0.03149
G1 X110.286 Y93.971 E0.68914
G1 X110.494 Y93.034 E0.03010
G1 X111.030 Y92.242 E0.02997
G1 X111.829 Y91.696 E0.03034
G1 X112.777 Y91.485 E0.03046
G1 X137.154 Y91.484 E0.76432
G1 X138.093 Y91.664 E0.02997
G1 X138.901 Y92.175 E0.02997
G1 X139.468 Y92.950 E0.03010
G1 X139.710 Y93.874 E0.02997
G1 X139.714 Y116.029 E0.69465
G1 X139.506 Y116.966 E0.03010
G1 X138.970 Y117.758 E0.02997
G1 X138.135 Y118.319 E0.03156
G1 X137.150 Y118.516 E0.03149
G1 X112.779 Y118.515 E0.76414
G1 X111.838 Y118.307 E0.03022
G1 X111.092 Y117.804 E0.02821
G1 F8640
G1 X110.481 Y116.935 E-0.24529
G1 X110.284 Y115.950 E-0.23188
G1 X110.284 Y114.725 E-0.28284
G1 E-0.04000 F2100.00000
G1 Z1.000 F10800.000
G1 X123.989 Y105.611
G1 Z0.400
G1 E0.80000 F2100.00000
M204 S800
G1 F1389
G1 X123.989 Y104.389 E0.04135
G1 X126.011 Y104.389 E0.06843
G1 X126.011 Y105.611 E0.04135
G1 X124.049 Y105.611 E0.06640
M204 S1000
G1 X123.582 Y106.018 F10800.000
M204 S800
G1 F1389
G1 X123.582 Y103.982 E0.06891
G1 X126.418 Y103.982 E0.09599
G1 X126.418 Y106.018 E0.06891
G1 X123.642 Y106.018 E0.09396
M204 S1000
G1 X123.175 Y106.425 F10800.000
M204 S800
G1 F1389
G1 X123.175 Y103.575 E0.09647
G1 X126.825 Y103.575 E0.12355
G1 X126.825 Y106.425 E0.09647
G1 X123.235 Y106.425 E0.12152
M204 S1000
G1 X123.294 Y106.043 F10800.000
G1 F8640
G1 X123.175 Y103.575 E-0.65822
G1 X123.616 Y103.575 E-0.10178
G1 E-0.04000 F2100.00000
G1 Z1.000 F10800.000
G1 X124.893 Y105.489
G1 Z0.400
G1 E0.80000 F2100.00000
M204 S2000
G1 F1389
G1 X125.687 Y104.694 E0.04563
G1 X124.997 Y104.694 E0.02806
G1 X124.385 Y105.306 E0.03510
G1 X124.294 Y105.306 E0.00370
G1 X124.294 Y104.706 E0.02436
G1 X124.489 Y104.511 E0.01117
M204 S1000
G1 F8640
G1 X124.294 Y104.706 E-0.06350
G1 X124.294 Y105.306 E-0.13850
G1 X124.385 Y105.306 E-0.02101
G1 X124.997 Y104.694 E-0.19955
G1 X125.687 Y104.694 E-0.15952
G1 X125.143 Y105.239 E-0.17792
G1 E-0.04000 F2100.00000
G1 Z1.000 F10800.000
G1 X123.989 Y96.311
G1 Z0.400
G1 E0.80000 F2100.00000
M204 S800
G1 F1389
G1 X123.989 Y95.089 E0.04135
G1 X126.011 Y95.089 E0.06843
G1 X126.011 Y96.311 E0.04135
G1 X124.049 Y96.311 E0.06640
M204 S1000
G1 X123.582 Y96.718 F10800.000
M204 S800
G1 F1389
G1 X123.582 Y94.682 E0.06891
G1 X126.418 Y94.682 E0.09599
G1 X126.418 Y96.718 E0.06891
G1 X123.642 Y96.718 E0.09396
M204 S1000
G1 X123.175 Y97.125 F10800.000
M204 S800
G1 F1389
G1 X123.175 Y94.275 E0.09647
G1 X126.825 Y94.275 E0.12355
G1 X126.825 Y97.125 E0.09647
G1 X123.235 Y97.125 E0.12152
M204 S1000
G1 X123.294 Y96.743 F10800.000
G1 F8640
G1 X123.175 Y94.275 E-0.65822
G1 X123.616 Y94.275 E-0.10178
G1 E-0.04000 F2100.00000
G1 Z1.000 F10800.000
G1 X124.893 Y96.189
G1 Z0.400
G1 E0.80000 F2100.00000
M204 S2000
G1 F1389
G1 X125.687 Y95.394 E0.04563
G1 X124.997 Y95.394 E0.02806
G1 X124.385 Y96.006 E0.03510
G1 X124.294 Y96.006 E0.00370
G1 X124.294 Y95.406 E0.02436
G1 X124.489 Y95.211 E0.01117
M204 S1000
G1 F8640
G1 X124.294 Y95.406 E-0.06350
G1 X124.294 Y96.006 E-0.13850
G1 X124.385 Y96.006 E-0.02101
G1 X124.997 Y95.394 E-0.19955
G1 X125.687 Y95.394 E-0.15952
G1 X125.143 Y95.939 E-0.17792
G1 E-0.04000 F2100.00000
G1 Z1.000 F10800.000
G1 X134.089 Y95.211
G1 Z0.400
G1 E0.80000 F2100.00000
M204 S800
G1 F1389
G1 X134.089 Y95.089 E0.00413
G1 X136.111 Y95.089 E0.06843
G1 X136.111 Y96.311 E0.04135
G1 X134.089 Y96.311 E0.06843
G1 X134.089 Y95.271 E0.03519
M204 S1000
G1 X133.682 Y94.682 F10800.000
M204 S800
G1 F1389
G1 X136.518 Y94.682 E0.09599
G1 X136.518 Y96.718 E0.06891
G1 X133.682 Y96.718 E0.09599
G1 X133.682 Y94.742 E0.06688
M204 S1000
